(G-CODE GENERATED BY FLATCAM v8.994 - www.flatcam.org - Version Date: 2020/11/7)

(Name: pid_smt_oven-F_Cu.gbr_iso_combined_cnc)
(Type: G-code from Geometry)
(Units: MM)

(Created on Monday, 25 October 2021 at 22:14)

(This preprocessor is the default preprocessor used by FlatCAM.)
(It is made to work with MACH3 compatible motion controllers.)

(TOOL DIAMETER: 0.3 mm)
(Feedrate_XY: 120.0 mm/min)
(Feedrate_Z: 30.0 mm/min)
(Feedrate rapids 1500.0 mm/min)

(Z_Cut: -0.07 mm)
(Z_Move: 0.7 mm)
(Z Start: None mm)
(Z End: 25.0 mm)
(X,Y End: None mm)
(Steps per circle: 64)
(Preprocessor Geometry: default)

(X range:   26.3474 ...   66.0499  mm)
(Y range:  -42.8549 ...   -1.8975  mm)

(Spindle Speed: 12000.0 RPM)
G21
G90
G94

$1=255		
G01 F120.00

M5
G00 Z2.0000
G00 X0.0000 Y0.0000
T1
M6    
(MSG, Change to Tool Dia = 0.3000)
M0
G00 Z2.0000

M03 S12000.0
G01 F120.00
G00 X55.0502 Y-42.4124
G01 F30.00
G01 Z-0.0700
G01 F120.00
G01 X55.0517 Y-42.4393
G01 X55.0567 Y-42.4733
G01 X55.0651 Y-42.5066
G01 X55.0753 Y-42.5355
G01 X55.0781 Y-42.5423
G01 X55.0880 Y-42.5634
G01 X55.0950 Y-42.5764
G01 X55.1070 Y-42.5964
G01 X55.1111 Y-42.6025
G01 X55.1249 Y-42.6212
G01 X55.1318 Y-42.6299
G01 X55.1525 Y-42.6525
G01 X55.1780 Y-42.6756
G01 X55.2056 Y-42.6960
G01 X55.2286 Y-42.7100
G01 X55.2416 Y-42.7170
G01 X55.2627 Y-42.7269
G01 X55.2729 Y-42.7310
G01 X55.2949 Y-42.7388
G01 X55.3019 Y-42.7410
G01 X55.3245 Y-42.7467
G01 X55.3353 Y-42.7489
G01 X55.3657 Y-42.7533
G01 X55.4000 Y-42.7550
G01 X57.0000 Y-42.7550
G01 X57.0343 Y-42.7533
G01 X57.0683 Y-42.7483
G01 X57.0981 Y-42.7410
G01 X57.1086 Y-42.7376
G01 X57.1339 Y-42.7284
G01 X57.1584 Y-42.7170
G01 X57.1682 Y-42.7119
G01 X57.1944 Y-42.6960
G01 X57.2192 Y-42.6779
G01 X57.2276 Y-42.6707
G01 X57.2475 Y-42.6525
G01 X57.2657 Y-42.6326
G01 X57.2729 Y-42.6242
G01 X57.2910 Y-42.5994
G01 X57.3069 Y-42.5732
G01 X57.3120 Y-42.5634
G01 X57.3234 Y-42.5389
G01 X57.3338 Y-42.5101
G01 X57.3360 Y-42.5031
G01 X57.3417 Y-42.4805
G01 X57.3445 Y-42.4660
G01 X57.3483 Y-42.4393
G01 X57.3500 Y-42.4087
G01 X57.3500 Y-42.0013
G01 X57.3483 Y-41.9707
G01 X57.3433 Y-41.9367
G01 X57.3349 Y-41.9034
G01 X57.3260 Y-41.8779
G01 X57.3219 Y-41.8677
G01 X57.3087 Y-41.8400
G01 X57.2910 Y-41.8106
G01 X57.2751 Y-41.7888
G01 X57.2657 Y-41.7774
G01 X57.2501 Y-41.7601
G01 X57.2422 Y-41.7524
G01 X57.2220 Y-41.7344
G01 X57.1975 Y-41.7161
G01 X57.1914 Y-41.7120
G01 X57.1714 Y-41.7000
G01 X57.1584 Y-41.6930
G01 X57.1339 Y-41.6816
G01 X57.1016 Y-41.6701
G01 X57.0683 Y-41.6617
G01 X57.0416 Y-41.6576
G01 X57.0306 Y-41.6564
G01 X57.0000 Y-41.6550
G01 X55.4000 Y-41.6550
G01 X55.3657 Y-41.6567
G01 X55.3317 Y-41.6617
G01 X55.3019 Y-41.6690
G01 X55.2914 Y-41.6724
G01 X55.2661 Y-41.6816
G01 X55.2416 Y-41.6930
G01 X55.2318 Y-41.6981
G01 X55.2056 Y-41.7140
G01 X55.1780 Y-41.7344
G01 X55.1551 Y-41.7549
G01 X55.1474 Y-41.7628
G01 X55.1294 Y-41.7830
G01 X55.1132 Y-41.8045
G01 X55.1070 Y-41.8136
G01 X55.0913 Y-41.8400
G01 X55.0796 Y-41.8643
G01 X55.0753 Y-41.8745
G01 X55.0651 Y-41.9034
G01 X55.0567 Y-41.9367
G01 X55.0517 Y-41.9707
G01 X55.0502 Y-41.9976
G01 X55.0502 Y-42.4124
G00 Z0.7000
G00 X55.0502 Y-42.4124
G01 F30.00
G01 Z-0.0700
G01 F120.00
G01 X55.0517 Y-42.4393
G01 X55.0567 Y-42.4733
G01 X55.0651 Y-42.5066
G01 X55.0753 Y-42.5355
G01 X55.0781 Y-42.5423
G01 X55.0880 Y-42.5634
G01 X55.0950 Y-42.5764
G01 X55.1070 Y-42.5964
G01 X55.1111 Y-42.6025
G01 X55.1249 Y-42.6212
G01 X55.1318 Y-42.6299
G01 X55.1525 Y-42.6525
G01 X55.1780 Y-42.6756
G01 X55.2056 Y-42.6960
G01 X55.2286 Y-42.7100
G01 X55.2416 Y-42.7170
G01 X55.2627 Y-42.7269
G01 X55.2729 Y-42.7310
G01 X55.2949 Y-42.7388
G01 X55.3019 Y-42.7410
G01 X55.3245 Y-42.7467
G01 X55.3353 Y-42.7489
G01 X55.3657 Y-42.7533
G01 X55.4000 Y-42.7550
G01 X57.0000 Y-42.7550
G01 X57.0343 Y-42.7533
G01 X57.0683 Y-42.7483
G01 X57.0981 Y-42.7410
G01 X57.1086 Y-42.7376
G01 X57.1339 Y-42.7284
G01 X57.1584 Y-42.7170
G01 X57.1682 Y-42.7119
G01 X57.1944 Y-42.6960
G01 X57.2192 Y-42.6779
G01 X57.2276 Y-42.6707
G01 X57.2475 Y-42.6525
G01 X57.2657 Y-42.6326
G01 X57.2729 Y-42.6242
G01 X57.2910 Y-42.5994
G01 X57.3069 Y-42.5732
G01 X57.3120 Y-42.5634
G01 X57.3234 Y-42.5389
G01 X57.3338 Y-42.5101
G01 X57.3360 Y-42.5031
G01 X57.3417 Y-42.4805
G01 X57.3445 Y-42.4660
G01 X57.3483 Y-42.4393
G01 X57.3500 Y-42.4087
G01 X57.3500 Y-42.0013
G01 X57.3483 Y-41.9707
G01 X57.3433 Y-41.9367
G01 X57.3349 Y-41.9034
G01 X57.3260 Y-41.8779
G01 X57.3219 Y-41.8677
G01 X57.3087 Y-41.8400
G01 X57.2910 Y-41.8106
G01 X57.2751 Y-41.7888
G01 X57.2657 Y-41.7774
G01 X57.2501 Y-41.7601
G01 X57.2422 Y-41.7524
G01 X57.2220 Y-41.7344
G01 X57.1975 Y-41.7161
G01 X57.1914 Y-41.7120
G01 X57.1714 Y-41.7000
G01 X57.1584 Y-41.6930
G01 X57.1339 Y-41.6816
G01 X57.1016 Y-41.6701
G01 X57.0683 Y-41.6617
G01 X57.0416 Y-41.6576
G01 X57.0306 Y-41.6564
G01 X57.0000 Y-41.6550
G01 X55.4000 Y-41.6550
G01 X55.3657 Y-41.6567
G01 X55.3317 Y-41.6617
G01 X55.3019 Y-41.6690
G01 X55.2914 Y-41.6724
G01 X55.2661 Y-41.6816
G01 X55.2416 Y-41.6930
G01 X55.2318 Y-41.6981
G01 X55.2056 Y-41.7140
G01 X55.1780 Y-41.7344
G01 X55.1551 Y-41.7549
G01 X55.1474 Y-41.7628
G01 X55.1294 Y-41.7830
G01 X55.1132 Y-41.8045
G01 X55.1070 Y-41.8136
G01 X55.0913 Y-41.8400
G01 X55.0796 Y-41.8643
G01 X55.0753 Y-41.8745
G01 X55.0651 Y-41.9034
G01 X55.0567 Y-41.9367
G01 X55.0517 Y-41.9707
G01 X55.0502 Y-41.9976
G01 X55.0502 Y-42.4124
G00 Z0.7000
G00 X55.0502 Y-41.1424
G01 F30.00
G01 Z-0.0700
G01 F120.00
G01 X55.0517 Y-41.1693
G01 X55.0567 Y-41.2033
G01 X55.0651 Y-41.2366
G01 X55.0753 Y-41.2655
G01 X55.0781 Y-41.2723
G01 X55.0880 Y-41.2934
G01 X55.0950 Y-41.3064
G01 X55.1070 Y-41.3264
G01 X55.1111 Y-41.3325
G01 X55.1249 Y-41.3512
G01 X55.1318 Y-41.3599
G01 X55.1525 Y-41.3825
G01 X55.1780 Y-41.4056
G01 X55.2056 Y-41.4260
G01 X55.2286 Y-41.4400
G01 X55.2416 Y-41.4470
G01 X55.2627 Y-41.4569
G01 X55.2729 Y-41.4610
G01 X55.2949 Y-41.4688
G01 X55.3019 Y-41.4710
G01 X55.3245 Y-41.4767
G01 X55.3353 Y-41.4789
G01 X55.3657 Y-41.4833
G01 X55.4000 Y-41.4850
G01 X57.0000 Y-41.4850
G01 X57.0343 Y-41.4833
G01 X57.0683 Y-41.4783
G01 X57.0981 Y-41.4710
G01 X57.1086 Y-41.4676
G01 X57.1339 Y-41.4584
G01 X57.1584 Y-41.4470
G01 X57.1682 Y-41.4419
G01 X57.1944 Y-41.4260
G01 X57.2192 Y-41.4079
G01 X57.2276 Y-41.4007
G01 X57.2475 Y-41.3825
G01 X57.2657 Y-41.3626
G01 X57.2729 Y-41.3542
G01 X57.2910 Y-41.3294
G01 X57.3069 Y-41.3032
G01 X57.3120 Y-41.2934
G01 X57.3234 Y-41.2689
G01 X57.3338 Y-41.2401
G01 X57.3360 Y-41.2331
G01 X57.3417 Y-41.2105
G01 X57.3445 Y-41.1960
G01 X57.3483 Y-41.1693
G01 X57.3500 Y-41.1387
G01 X57.3500 Y-40.7313
G01 X57.3483 Y-40.7007
G01 X57.3433 Y-40.6667
G01 X57.3349 Y-40.6334
G01 X57.3260 Y-40.6079
G01 X57.3219 Y-40.5977
G01 X57.3087 Y-40.5700
G01 X57.2910 Y-40.5406
G01 X57.2751 Y-40.5188
G01 X57.2657 Y-40.5074
G01 X57.2501 Y-40.4901
G01 X57.2422 Y-40.4824
G01 X57.2220 Y-40.4644
G01 X57.1975 Y-40.4461
G01 X57.1914 Y-40.4420
G01 X57.1714 Y-40.4300
G01 X57.1584 Y-40.4230
G01 X57.1339 Y-40.4116
G01 X57.1016 Y-40.4001
G01 X57.0683 Y-40.3917
G01 X57.0416 Y-40.3876
G01 X57.0306 Y-40.3864
G01 X57.0000 Y-40.3850
G01 X55.4000 Y-40.3850
G01 X55.3657 Y-40.3867
G01 X55.3317 Y-40.3917
G01 X55.3019 Y-40.3990
G01 X55.2914 Y-40.4024
G01 X55.2661 Y-40.4116
G01 X55.2416 Y-40.4230
G01 X55.2318 Y-40.4281
G01 X55.2056 Y-40.4440
G01 X55.1780 Y-40.4644
G01 X55.1551 Y-40.4849
G01 X55.1474 Y-40.4928
G01 X55.1294 Y-40.5130
G01 X55.1132 Y-40.5345
G01 X55.1070 Y-40.5436
G01 X55.0913 Y-40.5700
G01 X55.0796 Y-40.5943
G01 X55.0753 Y-40.6045
G01 X55.0651 Y-40.6334
G01 X55.0567 Y-40.6667
G01 X55.0517 Y-40.7007
G01 X55.0502 Y-40.7276
G01 X55.0502 Y-41.1424
G00 Z0.7000
G00 X55.0502 Y-39.8724
G01 F30.00
G01 Z-0.0700
G01 F120.00
G01 X55.0517 Y-39.8993
G01 X55.0567 Y-39.9333
G01 X55.0651 Y-39.9666
G01 X55.0753 Y-39.9955
G01 X55.0781 Y-40.0023
G01 X55.0880 Y-40.0234
G01 X55.0950 Y-40.0364
G01 X55.1070 Y-40.0564
G01 X55.1111 Y-40.0625
G01 X55.1249 Y-40.0812
G01 X55.1318 Y-40.0899
G01 X55.1525 Y-40.1125
G01 X55.1780 Y-40.1356
G01 X55.2056 Y-40.1560
G01 X55.2286 Y-40.1700
G01 X55.2416 Y-40.1770
G01 X55.2627 Y-40.1869
G01 X55.2729 Y-40.1910
G01 X55.2949 Y-40.1988
G01 X55.3019 Y-40.2010
G01 X55.3245 Y-40.2067
G01 X55.3353 Y-40.2089
G01 X55.3657 Y-40.2133
G01 X55.4000 Y-40.2150
G01 X57.0000 Y-40.2150
G01 X57.0343 Y-40.2133
G01 X57.0683 Y-40.2083
G01 X57.0981 Y-40.2010
G01 X57.1086 Y-40.1976
G01 X57.1339 Y-40.1884
G01 X57.1584 Y-40.1770
G01 X57.1682 Y-40.1719
G01 X57.1944 Y-40.1560
G01 X57.2192 Y-40.1379
G01 X57.2276 Y-40.1307
G01 X57.2475 Y-40.1125
G01 X57.2657 Y-40.0926
G01 X57.2729 Y-40.0842
G01 X57.2910 Y-40.0594
G01 X57.3069 Y-40.0332
G01 X57.3120 Y-40.0234
G01 X57.3234 Y-39.9989
G01 X57.3338 Y-39.9701
G01 X57.3360 Y-39.9631
G01 X57.3417 Y-39.9405
G01 X57.3445 Y-39.9260
G01 X57.3483 Y-39.8993
G01 X57.3500 Y-39.8687
G01 X57.3500 Y-39.4613
G01 X57.3483 Y-39.4307
G01 X57.3433 Y-39.3967
G01 X57.3349 Y-39.3634
G01 X57.3260 Y-39.3379
G01 X57.3219 Y-39.3277
G01 X57.3087 Y-39.3000
G01 X57.2910 Y-39.2706
G01 X57.2751 Y-39.2488
G01 X57.2657 Y-39.2374
G01 X57.2501 Y-39.2201
G01 X57.2422 Y-39.2124
G01 X57.2220 Y-39.1944
G01 X57.1975 Y-39.1761
G01 X57.1914 Y-39.1720
G01 X57.1714 Y-39.1600
G01 X57.1584 Y-39.1530
G01 X57.1339 Y-39.1416
G01 X57.1016 Y-39.1301
G01 X57.0683 Y-39.1217
G01 X57.0416 Y-39.1176
G01 X57.0306 Y-39.1164
G01 X57.0000 Y-39.1150
G01 X55.4000 Y-39.1150
G01 X55.3657 Y-39.1167
G01 X55.3317 Y-39.1217
G01 X55.3019 Y-39.1290
G01 X55.2914 Y-39.1324
G01 X55.2661 Y-39.1416
G01 X55.2416 Y-39.1530
G01 X55.2318 Y-39.1581
G01 X55.2056 Y-39.1740
G01 X55.1780 Y-39.1944
G01 X55.1551 Y-39.2149
G01 X55.1474 Y-39.2228
G01 X55.1294 Y-39.2430
G01 X55.1132 Y-39.2645
G01 X55.1070 Y-39.2736
G01 X55.0913 Y-39.3000
G01 X55.0796 Y-39.3243
G01 X55.0753 Y-39.3345
G01 X55.0651 Y-39.3634
G01 X55.0567 Y-39.3967
G01 X55.0517 Y-39.4307
G01 X55.0502 Y-39.4576
G01 X55.0502 Y-39.8724
G00 Z0.7000
G00 X57.8700 Y-40.3130
G01 F30.00
G01 Z-0.0700
G01 F120.00
G01 X57.8547 Y-40.3083
G01 X57.8348 Y-40.3032
G01 X57.8110 Y-40.2982
G01 X57.7907 Y-40.2950
G01 X57.7746 Y-40.2930
G01 X57.7460 Y-40.2912
G01 X57.7217 Y-40.2909
G01 X57.7011 Y-40.2918
G01 X57.6850 Y-40.2930
G01 X57.6566 Y-40.2968
G01 X57.6327 Y-40.3012
G01 X57.6127 Y-40.3061
G01 X57.5971 Y-40.3104
G01 X57.5699 Y-40.3197
G01 X57.5474 Y-40.3287
G01 X57.5287 Y-40.3374
G01 X57.5142 Y-40.3447
G01 X57.4894 Y-40.3591
G01 X57.4691 Y-40.3723
G01 X57.4525 Y-40.3845
G01 X57.4397 Y-40.3945
G01 X57.4199 Y-40.4119
G01 X57.4097 Y-40.3988
G01 X57.3991 Y-40.3865
G01 X57.3804 Y-40.3660
G01 X57.3690 Y-40.3546
G01 X57.3485 Y-40.3359
G01 X57.3362 Y-40.3253
G01 X57.3235 Y-40.3153
G01 X57.3026 Y-40.3000
G01 X57.3299 Y-40.2798
G01 X57.3424 Y-40.2695
G01 X57.3690 Y-40.2454
G01 X57.3859 Y-40.2280
G01 X57.4045 Y-40.2074
G01 X57.4197 Y-40.1885
G01 X57.4407 Y-40.1595
G01 X57.4594 Y-40.1289
G01 X57.4711 Y-40.1077
G01 X57.4865 Y-40.0753
G01 X57.4927 Y-40.0603
G01 X57.5047 Y-40.0266
G01 X57.5094 Y-40.0111
G01 X57.5181 Y-39.9763
G01 X57.5213 Y-39.9604
G01 X57.5266 Y-39.9250
G01 X57.5286 Y-39.9008
G01 X57.5300 Y-39.8650
G01 X57.5299 Y-39.4569
G01 X57.5281 Y-39.4211
G01 X57.5266 Y-39.4050
G01 X57.5213 Y-39.3696
G01 X57.5163 Y-39.3458
G01 X57.5094 Y-39.3189
G01 X57.5047 Y-39.3034
G01 X57.4927 Y-39.2697
G01 X57.4865 Y-39.2547
G01 X57.4747 Y-39.2296
G01 X57.4674 Y-39.2152
G01 X57.4594 Y-39.2011
G01 X57.4407 Y-39.1705
G01 X57.4197 Y-39.1415
G01 X57.4097 Y-39.1288
G01 X57.3991 Y-39.1165
G01 X57.3748 Y-39.0902
G01 X57.3485 Y-39.0659
G01 X57.3362 Y-39.0553
G01 X57.3235 Y-39.0453
G01 X57.3026 Y-39.0300
G01 X57.3235 Y-39.0147
G01 X57.3362 Y-39.0047
G01 X57.3485 Y-38.9941
G01 X57.3690 Y-38.9754
G01 X57.3804 Y-38.9640
G01 X57.3991 Y-38.9435
G01 X57.4148 Y-38.9249
G01 X57.4314 Y-38.9027
G01 X57.4407 Y-38.8895
G01 X57.4493 Y-38.8758
G01 X57.4635 Y-38.8519
G01 X57.4711 Y-38.8377
G01 X57.4831 Y-38.8126
G01 X57.4897 Y-38.7978
G01 X57.4955 Y-38.7827
G01 X57.5072 Y-38.7489
G01 X57.5115 Y-38.7332
G01 X57.5181 Y-38.7063
G01 X57.5226 Y-38.6824
G01 X57.5266 Y-38.6550
G01 X57.5281 Y-38.6389
G01 X57.5296 Y-38.6112
G01 X57.5300 Y-38.5950
G01 X57.5300 Y-38.3612
G01 X57.5610 Y-38.3301
G01 X57.8758 Y-38.3302
G01 X57.8811 Y-38.3635
G01 X57.8847 Y-38.3793
G01 X57.8927 Y-38.4109
G01 X57.8974 Y-38.4264
G01 X57.9083 Y-38.4571
G01 X57.9141 Y-38.4722
G01 X57.9207 Y-38.4870
G01 X57.9384 Y-38.5236
G01 X57.9464 Y-38.5377
G01 X57.9677 Y-38.5724
G01 X57.9770 Y-38.5857
G01 X57.9965 Y-38.6118
G01 X58.0068 Y-38.6243
G01 X58.0198 Y-38.6388
G01 X58.0198 Y-38.9612
G01 X58.0068 Y-38.9757
G01 X57.9965 Y-38.9882
G01 X57.9723 Y-39.0209
G01 X57.9633 Y-39.0344
G01 X57.9464 Y-39.0623
G01 X57.9384 Y-39.0764
G01 X57.9312 Y-39.0908
G01 X57.9173 Y-39.1204
G01 X57.9111 Y-39.1353
G01 X57.9000 Y-39.1660
G01 X57.8950 Y-39.1814
G01 X57.8906 Y-39.1970
G01 X57.8811 Y-39.2365
G01 X57.8784 Y-39.2525
G01 X57.8728 Y-39.2928
G01 X57.8716 Y-39.3089
G01 X57.8700 Y-39.3496
G01 X57.8700 Y-40.3130
G00 Z0.7000
G00 X59.7279 Y-34.9014
G01 F30.00
G01 Z-0.0700
G01 F120.00
G01 X59.7471 Y-34.9015
G01 X59.7676 Y-34.9006
G01 X59.7838 Y-34.8994
G01 X59.7999 Y-34.8974
G01 X59.8202 Y-34.8943
G01 X59.8361 Y-34.8911
G01 X59.8561 Y-34.8862
G01 X59.8742 Y-34.8811
G01 X59.8728 Y-34.8928
G01 X59.8716 Y-34.9089
G01 X59.8700 Y-34.9496
G01 X59.8700 Y-36.0504
G01 X59.8716 Y-36.0911
G01 X59.8737 Y-36.1153
G01 X59.8784 Y-36.1475
G01 X59.8811 Y-36.1635
G01 X59.8847 Y-36.1793
G01 X59.8950 Y-36.2186
G01 X59.9000 Y-36.2340
G01 X59.9141 Y-36.2722
G01 X59.9312 Y-36.3092
G01 X59.9384 Y-36.3236
G01 X59.9464 Y-36.3377
G01 X59.9677 Y-36.3724
G01 X59.9770 Y-36.3857
G01 X59.9965 Y-36.4118
G01 X60.0068 Y-36.4243
G01 X60.0341 Y-36.4544
G01 X60.0456 Y-36.4659
G01 X60.0699 Y-36.4881
G01 X60.0699 Y-36.7119
G01 X60.0456 Y-36.7341
G01 X60.0341 Y-36.7456
G01 X60.0068 Y-36.7757
G01 X59.9965 Y-36.7882
G01 X59.9723 Y-36.8209
G01 X59.9633 Y-36.8344
G01 X59.9423 Y-36.8693
G01 X59.9312 Y-36.8908
G01 X59.9173 Y-36.9204
G01 X59.9083 Y-36.9429
G01 X59.8950 Y-36.9814
G01 X59.8847 Y-37.0207
G01 X59.8797 Y-37.0445
G01 X59.8737 Y-37.0847
G01 X59.8721 Y-37.1009
G01 X59.8704 Y-37.1334
G01 X59.8700 Y-37.1496
G01 X59.8700 Y-38.2504
G01 X59.8716 Y-38.2911
G01 X59.8737 Y-38.3153
G01 X59.8784 Y-38.3475
G01 X59.8811 Y-38.3635
G01 X59.8847 Y-38.3793
G01 X59.8950 Y-38.4186
G01 X59.9000 Y-38.4340
G01 X59.9141 Y-38.4722
G01 X59.9312 Y-38.5092
G01 X59.9384 Y-38.5236
G01 X59.9464 Y-38.5377
G01 X59.9677 Y-38.5724
G01 X59.9770 Y-38.5857
G01 X59.9965 Y-38.6118
G01 X60.0068 Y-38.6243
G01 X60.0341 Y-38.6544
G01 X60.0456 Y-38.6659
G01 X60.0699 Y-38.6881
G01 X60.0699 Y-38.9119
G01 X60.0456 Y-38.9341
G01 X60.0341 Y-38.9456
G01 X60.0068 Y-38.9757
G01 X59.9965 Y-38.9882
G01 X59.9723 Y-39.0209
G01 X59.9633 Y-39.0344
G01 X59.9423 Y-39.0693
G01 X59.9347 Y-39.0836
G01 X59.9207 Y-39.1130
G01 X59.9141 Y-39.1278
G01 X59.9083 Y-39.1429
G01 X59.8950 Y-39.1814
G01 X59.8847 Y-39.2207
G01 X59.8811 Y-39.2365
G01 X59.8784 Y-39.2525
G01 X59.8728 Y-39.2928
G01 X59.8716 Y-39.3089
G01 X59.8700 Y-39.3496
G01 X59.8700 Y-40.4504
G01 X59.8716 Y-40.4911
G01 X59.8728 Y-40.5072
G01 X59.8742 Y-40.5189
G01 X59.8561 Y-40.5138
G01 X59.8361 Y-40.5089
G01 X59.8202 Y-40.5057
G01 X59.7999 Y-40.5026
G01 X59.7838 Y-40.5006
G01 X59.7676 Y-40.4994
G01 X59.7471 Y-40.4985
G01 X59.7279 Y-40.4986
G01 X59.7296 Y-40.4666
G01 X59.7300 Y-40.4504
G01 X59.7300 Y-39.3496
G01 X59.7284 Y-39.3089
G01 X59.7263 Y-39.2847
G01 X59.7203 Y-39.2445
G01 X59.7153 Y-39.2207
G01 X59.7073 Y-39.1891
G01 X59.7026 Y-39.1736
G01 X59.6889 Y-39.1353
G01 X59.6827 Y-39.1204
G01 X59.6688 Y-39.0908
G01 X59.6616 Y-39.0764
G01 X59.6536 Y-39.0623
G01 X59.6323 Y-39.0276
G01 X59.6084 Y-38.9947
G01 X59.5984 Y-38.9819
G01 X59.5714 Y-38.9515
G01 X59.5602 Y-38.9398
G01 X59.5304 Y-38.9121
G01 X59.5181 Y-38.9016
G01 X59.5053 Y-38.8916
G01 X59.4803 Y-38.8731
G01 X59.4803 Y-38.7268
G01 X59.5118 Y-38.7035
G01 X59.5304 Y-38.6879
G01 X59.5602 Y-38.6602
G01 X59.5879 Y-38.6304
G01 X59.6035 Y-38.6118
G01 X59.6277 Y-38.5791
G01 X59.6367 Y-38.5656
G01 X59.6577 Y-38.5307
G01 X59.6688 Y-38.5092
G01 X59.6859 Y-38.4722
G01 X59.6917 Y-38.4571
G01 X59.7050 Y-38.4186
G01 X59.7153 Y-38.3793
G01 X59.7189 Y-38.3635
G01 X59.7252 Y-38.3233
G01 X59.7279 Y-38.2991
G01 X59.7296 Y-38.2666
G01 X59.7300 Y-38.2504
G01 X59.7300 Y-37.1496
G01 X59.7284 Y-37.1089
G01 X59.7272 Y-37.0928
G01 X59.7216 Y-37.0525
G01 X59.7172 Y-37.0286
G01 X59.7073 Y-36.9891
G01 X59.7026 Y-36.9736
G01 X59.6889 Y-36.9353
G01 X59.6827 Y-36.9204
G01 X59.6653 Y-36.8836
G01 X59.6577 Y-36.8693
G01 X59.6367 Y-36.8344
G01 X59.6277 Y-36.8209
G01 X59.6035 Y-36.7882
G01 X59.5932 Y-36.7757
G01 X59.5659 Y-36.7456
G01 X59.5544 Y-36.7341
G01 X59.5243 Y-36.7068
G01 X59.5118 Y-36.6965
G01 X59.4803 Y-36.6731
G01 X59.4803 Y-36.5268
G01 X59.5118 Y-36.5035
G01 X59.5243 Y-36.4932
G01 X59.5544 Y-36.4659
G01 X59.5659 Y-36.4544
G01 X59.5932 Y-36.4243
G01 X59.6035 Y-36.4118
G01 X59.6277 Y-36.3791
G01 X59.6410 Y-36.3587
G01 X59.6577 Y-36.3307
G01 X59.6653 Y-36.3164
G01 X59.6827 Y-36.2796
G01 X59.6917 Y-36.2571
G01 X59.7050 Y-36.2186
G01 X59.7153 Y-36.1793
G01 X59.7203 Y-36.1555
G01 X59.7252 Y-36.1233
G01 X59.7279 Y-36.0991
G01 X59.7296 Y-36.0666
G01 X59.7300 Y-36.0504
G01 X59.7300 Y-34.9496
G01 X59.7296 Y-34.9334
G01 X59.7279 Y-34.9014
G00 Z0.7000
G00 X55.1014 Y-34.7721
G01 F30.00
G01 Z-0.0700
G01 F120.00
G01 X55.1015 Y-34.7529
G01 X55.1006 Y-34.7324
G01 X55.0994 Y-34.7162
G01 X55.0974 Y-34.7001
G01 X55.0943 Y-34.6798
G01 X55.0911 Y-34.6639
G01 X55.0862 Y-34.6439
G01 X55.0811 Y-34.6258
G01 X55.0928 Y-34.6272
G01 X55.1089 Y-34.6284
G01 X55.1496 Y-34.6300
G01 X56.2504 Y-34.6300
G01 X56.2911 Y-34.6284
G01 X56.3072 Y-34.6272
G01 X56.3189 Y-34.6258
G01 X56.3138 Y-34.6439
G01 X56.3089 Y-34.6639
G01 X56.3057 Y-34.6798
G01 X56.3026 Y-34.7001
G01 X56.3006 Y-34.7162
G01 X56.2994 Y-34.7324
G01 X56.2985 Y-34.7529
G01 X56.2986 Y-34.7721
G01 X56.2666 Y-34.7704
G01 X56.2504 Y-34.7700
G01 X55.1496 Y-34.7700
G01 X55.1334 Y-34.7704
G01 X55.1014 Y-34.7721
G00 Z0.7000
G00 X47.9245 Y-35.3699
G01 F30.00
G01 Z-0.0700
G01 F120.00
G01 X47.9827 Y-35.3267
G01 X47.9955 Y-35.3168
G01 X48.0077 Y-35.3062
G01 X48.0900 Y-35.2315
G01 X48.1070 Y-35.2141
G01 X48.1762 Y-35.1377
G01 X48.1868 Y-35.1255
G01 X48.1967 Y-35.1127
G01 X48.2581 Y-35.0299
G01 X48.2674 Y-35.0167
G01 X48.2761 Y-35.0030
G01 X48.3291 Y-34.9146
G01 X48.3371 Y-34.9005
G01 X48.3443 Y-34.8861
G01 X48.3900 Y-34.7894
G01 X48.4357 Y-34.8861
G01 X48.4429 Y-34.9005
G01 X48.4509 Y-34.9146
G01 X48.5039 Y-35.0030
G01 X48.5126 Y-35.0167
G01 X48.5219 Y-35.0299
G01 X48.5833 Y-35.1127
G01 X48.5932 Y-35.1255
G01 X48.6038 Y-35.1377
G01 X48.6730 Y-35.2141
G01 X48.6836 Y-35.2252
G01 X48.5390 Y-35.3699
G01 X47.9245 Y-35.3699
G00 Z0.7000
G00 X45.3845 Y-35.3699
G01 F30.00
G01 Z-0.0700
G01 F120.00
G01 X45.4427 Y-35.3267
G01 X45.4555 Y-35.3168
G01 X45.4677 Y-35.3062
G01 X45.5500 Y-35.2315
G01 X45.5670 Y-35.2141
G01 X45.6362 Y-35.1377
G01 X45.6468 Y-35.1255
G01 X45.6567 Y-35.1127
G01 X45.7181 Y-35.0299
G01 X45.7274 Y-35.0167
G01 X45.7361 Y-35.0030
G01 X45.7891 Y-34.9146
G01 X45.7971 Y-34.9005
G01 X45.8043 Y-34.8861
G01 X45.8500 Y-34.7894
G01 X45.8957 Y-34.8861
G01 X45.9029 Y-34.9005
G01 X45.9109 Y-34.9146
G01 X45.9639 Y-35.0030
G01 X45.9726 Y-35.0167
G01 X45.9819 Y-35.0299
G01 X46.0433 Y-35.1127
G01 X46.0532 Y-35.1255
G01 X46.0638 Y-35.1377
G01 X46.1330 Y-35.2141
G01 X46.1500 Y-35.2315
G01 X46.2323 Y-35.3062
G01 X46.2445 Y-35.3168
G01 X46.2573 Y-35.3267
G01 X46.3155 Y-35.3699
G01 X45.3845 Y-35.3699
G00 Z0.7000
G00 X42.9715 Y-39.0700
G01 F30.00
G01 Z-0.0700
G01 F120.00
G01 X42.9740 Y-39.0529
G01 X42.9756 Y-39.0367
G01 X42.9767 Y-39.0162
G01 X42.9771 Y-39.0000
G01 X42.9767 Y-38.9838
G01 X42.9756 Y-38.9633
G01 X42.9740 Y-38.9471
G01 X42.9715 Y-38.9300
G01 X44.0585 Y-38.9299
G01 X44.0911 Y-38.9284
G01 X44.1072 Y-38.9272
G01 X44.1475 Y-38.9216
G01 X44.1714 Y-38.9172
G01 X44.2030 Y-38.9094
G01 X44.2186 Y-38.9050
G01 X44.2340 Y-38.9000
G01 X44.2722 Y-38.8859
G01 X44.3092 Y-38.8688
G01 X44.3307 Y-38.8577
G01 X44.3656 Y-38.8367
G01 X44.3857 Y-38.8230
G01 X44.4181 Y-38.7984
G01 X44.4485 Y-38.7714
G01 X44.4659 Y-38.7544
G01 X44.4932 Y-38.7243
G01 X44.5035 Y-38.7118
G01 X44.5277 Y-38.6791
G01 X44.5410 Y-38.6587
G01 X44.5616 Y-38.6236
G01 X44.5793 Y-38.5870
G01 X44.5859 Y-38.5721
G01 X44.7652 Y-38.7512
G01 X44.7930 Y-38.7765
G01 X44.8052 Y-38.7871
G01 X44.8180 Y-38.7971
G01 X44.8482 Y-38.8194
G01 X44.8686 Y-38.8326
G01 X44.8939 Y-38.8478
G01 X44.9079 Y-38.8557
G01 X44.9224 Y-38.8630
G01 X44.9490 Y-38.8756
G01 X44.9639 Y-38.8822
G01 X44.9790 Y-38.8880
G01 X45.0067 Y-38.8979
G01 X45.0221 Y-38.9030
G01 X45.0377 Y-38.9073
G01 X45.0663 Y-38.9145
G01 X45.0821 Y-38.9180
G01 X45.0980 Y-38.9208
G01 X45.1272 Y-38.9251
G01 X45.1432 Y-38.9271
G01 X45.1594 Y-38.9283
G01 X45.1888 Y-38.9298
G01 X45.2050 Y-38.9301
G01 X46.3751 Y-38.9301
G01 X46.3592 Y-38.9457
G01 X46.3372 Y-38.9698
G01 X46.3267 Y-38.9821
G01 X46.3167 Y-38.9948
G01 X46.2973 Y-39.0211
G01 X46.2883 Y-39.0346
G01 X46.2674 Y-39.0695
G01 X46.2598 Y-39.0838
G01 X46.2457 Y-39.1132
G01 X46.2391 Y-39.1280
G01 X46.2251 Y-39.1663
G01 X46.2200 Y-39.1816
G01 X46.2157 Y-39.1972
G01 X46.2078 Y-39.2289
G01 X46.2047 Y-39.2448
G01 X46.2008 Y-39.2699
G01 X44.4880 Y-39.2698
G01 X44.4659 Y-39.2456
G01 X44.4544 Y-39.2341
G01 X44.4243 Y-39.2068
G01 X44.4118 Y-39.1965
G01 X44.3857 Y-39.1770
G01 X44.3724 Y-39.1677
G01 X44.3377 Y-39.1464
G01 X44.3236 Y-39.1384
G01 X44.3092 Y-39.1312
G01 X44.2722 Y-39.1141
G01 X44.2571 Y-39.1083
G01 X44.2186 Y-39.0950
G01 X44.1793 Y-39.0847
G01 X44.1635 Y-39.0811
G01 X44.1475 Y-39.0784
G01 X44.1153 Y-39.0737
G01 X44.0911 Y-39.0716
G01 X44.0504 Y-39.0700
G01 X42.9715 Y-39.0700
G00 Z0.7000
G00 X42.9422 Y-39.2502
G01 F30.00
G01 Z-0.0700
G01 F120.00
G01 X42.9104 Y-39.2519
G01 X42.8716 Y-39.2577
G01 X42.8336 Y-39.2672
G01 X42.7967 Y-39.2804
G01 X42.7612 Y-39.2972
G01 X42.7276 Y-39.3173
G01 X42.6961 Y-39.3407
G01 X42.6670 Y-39.3670
G01 X42.6407 Y-39.3961
G01 X42.6173 Y-39.4276
G01 X42.5972 Y-39.4612
G01 X42.5804 Y-39.4967
G01 X42.5672 Y-39.5336
G01 X42.5577 Y-39.5716
G01 X42.5519 Y-39.6104
G01 X42.5500 Y-39.6459
G01 X42.5500 Y-40.3541
G01 X42.5519 Y-40.3896
G01 X42.5564 Y-40.4211
G01 X42.5593 Y-40.4355
G01 X42.5652 Y-40.4593
G01 X42.5683 Y-40.4699
G01 X42.5804 Y-40.5033
G01 X42.5939 Y-40.5322
G01 X42.6008 Y-40.5452
G01 X42.6173 Y-40.5724
G01 X42.6407 Y-40.6039
G01 X42.6620 Y-40.6276
G01 X42.6724 Y-40.6380
G01 X42.6961 Y-40.6593
G01 X42.7276 Y-40.6827
G01 X42.7548 Y-40.6992
G01 X42.7678 Y-40.7061
G01 X42.7967 Y-40.7196
G01 X42.8336 Y-40.7328
G01 X42.8645 Y-40.7407
G01 X42.8789 Y-40.7436
G01 X42.9031 Y-40.7472
G01 X42.9141 Y-40.7484
G01 X42.9496 Y-40.7500
G01 X44.0504 Y-40.7500
G01 X44.0822 Y-40.7486
G01 X44.0969 Y-40.7472
G01 X44.1284 Y-40.7423
G01 X44.1593 Y-40.7348
G01 X44.1734 Y-40.7305
G01 X44.1999 Y-40.7209
G01 X44.2101 Y-40.7166
G01 X44.2388 Y-40.7028
G01 X44.2724 Y-40.6827
G01 X44.3039 Y-40.6593
G01 X44.3276 Y-40.6380
G01 X44.3355 Y-40.6303
G01 X44.3545 Y-40.6095
G01 X44.3638 Y-40.5981
G01 X44.3827 Y-40.5724
G01 X44.4028 Y-40.5388
G01 X44.4196 Y-40.5033
G01 X44.4305 Y-40.4734
G01 X44.4338 Y-40.4629
G01 X44.4407 Y-40.4355
G01 X44.4436 Y-40.4211
G01 X44.4481 Y-40.3896
G01 X44.4500 Y-40.3501
G01 X46.4290 Y-40.3502
G01 X46.4424 Y-40.3722
G01 X46.4613 Y-40.3980
G01 X46.4682 Y-40.4066
G01 X46.4896 Y-40.4302
G01 X46.4975 Y-40.4379
G01 X46.5212 Y-40.4592
G01 X46.5528 Y-40.4826
G01 X46.5864 Y-40.5028
G01 X46.6152 Y-40.5166
G01 X46.6288 Y-40.5222
G01 X46.6589 Y-40.5328
G01 X46.6898 Y-40.5407
G01 X46.7006 Y-40.5430
G01 X46.7321 Y-40.5477
G01 X46.7431 Y-40.5486
G01 X46.7750 Y-40.5500
G01 X48.0287 Y-40.5500
G01 X48.0642 Y-40.5481
G01 X48.1030 Y-40.5423
G01 X48.1411 Y-40.5328
G01 X48.1781 Y-40.5196
G01 X48.2136 Y-40.5028
G01 X48.2472 Y-40.4826
G01 X48.2788 Y-40.4592
G01 X48.3078 Y-40.4328
G01 X48.3342 Y-40.4038
G01 X48.3576 Y-40.3722
G01 X48.3778 Y-40.3386
G01 X48.3946 Y-40.3031
G01 X48.4078 Y-40.2661
G01 X48.4173 Y-40.2280
G01 X48.4231 Y-40.1892
G01 X48.4250 Y-40.1501
G01 X49.9973 Y-40.1502
G01 X50.0118 Y-40.1600
G01 X50.0318 Y-40.1719
G01 X50.0383 Y-40.1754
G01 X50.0661 Y-40.1884
G01 X50.0949 Y-40.1988
G01 X50.1019 Y-40.2010
G01 X50.1245 Y-40.2067
G01 X50.1390 Y-40.2095
G01 X50.1657 Y-40.2133
G01 X50.1963 Y-40.2150
G01 X51.8000 Y-40.2150
G01 X51.8343 Y-40.2133
G01 X51.8683 Y-40.2083
G01 X51.9016 Y-40.1999
G01 X51.9339 Y-40.1884
G01 X51.9584 Y-40.1770
G01 X51.9714 Y-40.1700
G01 X51.9914 Y-40.1580
G01 X52.0005 Y-40.1518
G01 X52.0220 Y-40.1356
G01 X52.0475 Y-40.1125
G01 X52.0706 Y-40.0870
G01 X52.0910 Y-40.0594
G01 X52.1087 Y-40.0300
G01 X52.1204 Y-40.0057
G01 X52.1260 Y-39.9921
G01 X52.1338 Y-39.9701
G01 X52.1369 Y-39.9595
G01 X52.1425 Y-39.9369
G01 X52.1439 Y-39.9297
G01 X52.1474 Y-39.9066
G01 X52.1486 Y-39.8956
G01 X52.1500 Y-39.8650
G01 X52.1498 Y-39.4576
G01 X52.1483 Y-39.4307
G01 X52.1433 Y-39.3967
G01 X52.1349 Y-39.3634
G01 X52.1234 Y-39.3311
G01 X52.1104 Y-39.3033
G01 X52.1050 Y-39.2936
G01 X52.0910 Y-39.2706
G01 X52.0706 Y-39.2430
G01 X52.0501 Y-39.2201
G01 X52.0422 Y-39.2124
G01 X52.0220 Y-39.1944
G01 X52.0005 Y-39.1782
G01 X51.9914 Y-39.1720
G01 X51.9650 Y-39.1563
G01 X51.9373 Y-39.1431
G01 X51.9271 Y-39.1390
G01 X51.9016 Y-39.1301
G01 X51.8719 Y-39.1225
G01 X51.8610 Y-39.1205
G01 X51.8380 Y-39.1171
G01 X51.8306 Y-39.1164
G01 X51.8000 Y-39.1150
G01 X50.1926 Y-39.1152
G01 X50.1657 Y-39.1167
G01 X50.1390 Y-39.1205
G01 X50.1281 Y-39.1225
G01 X50.1055 Y-39.1281
G01 X50.0949 Y-39.1312
G01 X50.0695 Y-39.1403
G01 X50.0593 Y-39.1446
G01 X50.0383 Y-39.1546
G01 X50.0286 Y-39.1600
G01 X50.0056 Y-39.1740
G01 X49.9780 Y-39.1944
G01 X49.9578 Y-39.2124
G01 X49.9499 Y-39.2201
G01 X49.9318 Y-39.2401
G01 X49.9241 Y-39.2499
G01 X48.4120 Y-39.2498
G01 X48.4067 Y-39.2304
G01 X48.3959 Y-39.2003
G01 X48.3916 Y-39.1902
G01 X48.3811 Y-39.1680
G01 X48.3760 Y-39.1582
G01 X48.3576 Y-39.1278
G01 X48.3387 Y-39.1020
G01 X48.3294 Y-39.0907
G01 X48.3129 Y-39.0725
G01 X48.3052 Y-39.0646
G01 X48.2788 Y-39.0408
G01 X48.2532 Y-39.0217
G01 X48.2410 Y-39.0135
G01 X48.2136 Y-38.9972
G01 X48.1781 Y-38.9804
G01 X48.1481 Y-38.9695
G01 X48.1340 Y-38.9653
G01 X48.1102 Y-38.9593
G01 X48.0994 Y-38.9570
G01 X48.0642 Y-38.9519
G01 X48.0250 Y-38.9500
G01 X46.7750 Y-38.9500
G01 X46.7431 Y-38.9514
G01 X46.7285 Y-38.9528
G01 X46.6970 Y-38.9577
G01 X46.6589 Y-38.9672
G01 X46.6219 Y-38.9804
G01 X46.5930 Y-38.9939
G01 X46.5832 Y-38.9990
G01 X46.5590 Y-39.0135
G01 X46.5497 Y-39.0195
G01 X46.5241 Y-39.0385
G01 X46.5157 Y-39.0456
G01 X46.4948 Y-39.0646
G01 X46.4871 Y-39.0725
G01 X46.4658 Y-39.0962
G01 X46.4467 Y-39.1218
G01 X46.4404 Y-39.1309
G01 X46.4240 Y-39.1582
G01 X46.4189 Y-39.1680
G01 X46.4069 Y-39.1935
G01 X46.4028 Y-39.2038
G01 X46.3922 Y-39.2339
G01 X46.3834 Y-39.2684
G01 X46.3814 Y-39.2792
G01 X46.3773 Y-39.3071
G01 X46.3764 Y-39.3181
G01 X46.3752 Y-39.3426
G01 X46.3750 Y-39.4499
G01 X44.3962 Y-39.4498
G01 X44.3827 Y-39.4276
G01 X44.3638 Y-39.4019
G01 X44.3569 Y-39.3933
G01 X44.3355 Y-39.3697
G01 X44.3276 Y-39.3620
G01 X44.3039 Y-39.3407
G01 X44.2724 Y-39.3173
G01 X44.2388 Y-39.2972
G01 X44.2101 Y-39.2834
G01 X44.1965 Y-39.2778
G01 X44.1664 Y-39.2672
G01 X44.1355 Y-39.2593
G01 X44.1247 Y-39.2570
G01 X44.0969 Y-39.2528
G01 X44.0822 Y-39.2514
G01 X44.0504 Y-39.2500
G01 X42.9422 Y-39.2502
G00 Z0.7000
G00 X46.5183 Y-40.6699
G01 F30.00
G01 Z-0.0700
G01 F120.00
G01 X44.5340 Y-40.6699
G01 X44.5577 Y-40.6307
G01 X44.5688 Y-40.6092
G01 X44.5859 Y-40.5722
G01 X44.5917 Y-40.5571
G01 X44.6013 Y-40.5301
G01 X46.3372 Y-40.5302
G01 X46.3592 Y-40.5543
G01 X46.3707 Y-40.5658
G01 X46.4009 Y-40.5931
G01 X46.4134 Y-40.6034
G01 X46.4461 Y-40.6277
G01 X46.4596 Y-40.6367
G01 X46.4945 Y-40.6576
G01 X46.5088 Y-40.6652
G01 X46.5183 Y-40.6699
G00 Z0.7000
G00 X48.4249 Y-38.9302
G01 F30.00
G01 Z-0.0700
G01 F120.00
G01 X49.7894 Y-38.9302
G01 X49.8009 Y-38.9435
G01 X49.8196 Y-38.9640
G01 X49.8370 Y-38.9809
G01 X49.8638 Y-39.0047
G01 X49.8765 Y-39.0147
G01 X49.8974 Y-39.0300
G01 X49.8701 Y-39.0502
G01 X49.8576 Y-39.0605
G01 X49.8471 Y-39.0699
G01 X48.5328 Y-39.0698
G01 X48.5159 Y-39.0415
G01 X48.5073 Y-39.0278
G01 X48.4979 Y-39.0145
G01 X48.4784 Y-38.9884
G01 X48.4681 Y-38.9759
G01 X48.4463 Y-38.9516
G01 X48.4351 Y-38.9399
G01 X48.4249 Y-38.9302
G00 Z0.7000
G00 X40.8685 Y-33.8500
G01 F30.00
G01 Z-0.0700
G01 F120.00
G01 X43.3394 Y-36.3209
G01 X43.3695 Y-36.3480
G01 X43.3990 Y-36.3700
G01 X43.4112 Y-36.3782
G01 X43.4429 Y-36.3970
G01 X43.4761 Y-36.4129
G01 X43.4897 Y-36.4185
G01 X43.5244 Y-36.4308
G01 X43.5601 Y-36.4399
G01 X43.5745 Y-36.4428
G01 X43.6110 Y-36.4480
G01 X43.6551 Y-36.4501
G01 X48.8000 Y-36.4502
G01 X48.8368 Y-36.4485
G01 X48.8514 Y-36.4471
G01 X48.8878 Y-36.4415
G01 X48.9236 Y-36.4327
G01 X48.9377 Y-36.4285
G01 X48.9723 Y-36.4159
G01 X49.0122 Y-36.3970
G01 X49.0439 Y-36.3782
G01 X49.0561 Y-36.3701
G01 X49.0798 Y-36.3525
G01 X49.0884 Y-36.3456
G01 X49.1183 Y-36.3183
G01 X49.9186 Y-35.5180
G01 X50.8242 Y-36.4234
G01 X50.8488 Y-36.4456
G01 X50.8574 Y-36.4525
G01 X50.8871 Y-36.4743
G01 X50.9186 Y-36.4934
G01 X50.9316 Y-36.5003
G01 X50.9649 Y-36.5159
G01 X50.9995 Y-36.5285
G01 X51.0100 Y-36.5318
G01 X51.0494 Y-36.5415
G01 X51.0857 Y-36.5471
G01 X51.1004 Y-36.5485
G01 X51.1372 Y-36.5501
G01 X53.6185 Y-36.5501
G01 X55.0939 Y-38.0255
G01 X55.0880 Y-38.0366
G01 X55.0766 Y-38.0611
G01 X55.0651 Y-38.0934
G01 X55.0567 Y-38.1267
G01 X55.0521 Y-38.1570
G01 X55.0511 Y-38.1680
G01 X55.0500 Y-38.1950
G01 X55.0500 Y-38.5987
G01 X55.0517 Y-38.6293
G01 X55.0555 Y-38.6560
G01 X55.0575 Y-38.6669
G01 X55.0651 Y-38.6966
G01 X55.0740 Y-38.7221
G01 X55.0781 Y-38.7323
G01 X55.0896 Y-38.7567
G01 X55.0950 Y-38.7664
G01 X55.1090 Y-38.7894
G01 X55.1271 Y-38.8142
G01 X55.1343 Y-38.8226
G01 X55.1525 Y-38.8425
G01 X55.1724 Y-38.8607
G01 X55.1808 Y-38.8679
G01 X55.2056 Y-38.8860
G01 X55.2318 Y-38.9019
G01 X55.2416 Y-38.9070
G01 X55.2661 Y-38.9184
G01 X55.2949 Y-38.9288
G01 X55.3019 Y-38.9310
G01 X55.3245 Y-38.9367
G01 X55.3390 Y-38.9395
G01 X55.3657 Y-38.9433
G01 X55.4000 Y-38.9450
G01 X57.0000 Y-38.9450
G01 X57.0306 Y-38.9436
G01 X57.0416 Y-38.9424
G01 X57.0683 Y-38.9383
G01 X57.0981 Y-38.9310
G01 X57.1086 Y-38.9276
G01 X57.1339 Y-38.9184
G01 X57.1650 Y-38.9037
G01 X57.1944 Y-38.8860
G01 X57.2220 Y-38.8656
G01 X57.2475 Y-38.8425
G01 X57.2706 Y-38.8170
G01 X57.2910 Y-38.7894
G01 X57.3050 Y-38.7664
G01 X57.3104 Y-38.7567
G01 X57.3234 Y-38.7289
G01 X57.3349 Y-38.6966
G01 X57.3433 Y-38.6633
G01 X57.3474 Y-38.6366
G01 X57.3486 Y-38.6256
G01 X57.3500 Y-38.5950
G01 X57.3500 Y-38.2866
G01 X57.4865 Y-38.1501
G01 X58.0500 Y-38.1502
G01 X58.0500 Y-38.2541
G01 X58.0514 Y-38.2822
G01 X58.0523 Y-38.2932
G01 X58.0570 Y-38.3247
G01 X58.0593 Y-38.3355
G01 X58.0672 Y-38.3664
G01 X58.0778 Y-38.3965
G01 X58.0834 Y-38.4101
G01 X58.0972 Y-38.4388
G01 X58.1134 Y-38.4662
G01 X58.1216 Y-38.4784
G01 X58.1407 Y-38.5039
G01 X58.1645 Y-38.5303
G01 X58.1724 Y-38.5380
G01 X58.1905 Y-38.5545
G01 X58.1998 Y-38.5622
G01 X58.1998 Y-39.0378
G01 X58.1905 Y-39.0455
G01 X58.1670 Y-39.0670
G01 X58.1407 Y-39.0961
G01 X58.1173 Y-39.1276
G01 X58.1008 Y-39.1548
G01 X58.0955 Y-39.1645
G01 X58.0834 Y-39.1899
G01 X58.0791 Y-39.2001
G01 X58.0683 Y-39.2301
G01 X58.0652 Y-39.2407
G01 X58.0577 Y-39.2716
G01 X58.0528 Y-39.3031
G01 X58.0516 Y-39.3141
G01 X58.0502 Y-39.3422
G01 X58.0502 Y-40.4578
G01 X58.0519 Y-40.4896
G01 X58.0564 Y-40.5211
G01 X58.0593 Y-40.5355
G01 X58.0672 Y-40.5664
G01 X58.0778 Y-40.5965
G01 X58.0834 Y-40.6101
G01 X58.0972 Y-40.6388
G01 X58.1134 Y-40.6662
G01 X58.1216 Y-40.6784
G01 X58.1407 Y-40.7039
G01 X58.1670 Y-40.7330
G01 X58.1961 Y-40.7593
G01 X58.2276 Y-40.7827
G01 X58.2612 Y-40.8028
G01 X58.2967 Y-40.8196
G01 X58.3336 Y-40.8328
G01 X58.3645 Y-40.8407
G01 X58.3753 Y-40.8430
G01 X58.4104 Y-40.8481
G01 X58.4496 Y-40.8500
G01 X59.1504 Y-40.8500
G01 X59.1822 Y-40.8486
G01 X59.1969 Y-40.8472
G01 X59.2211 Y-40.8436
G01 X59.2320 Y-40.8416
G01 X59.2664 Y-40.8328
G01 X59.2999 Y-40.8209
G01 X59.3101 Y-40.8166
G01 X59.3322 Y-40.8061
G01 X59.3420 Y-40.8010
G01 X59.3724 Y-40.7827
G01 X59.3981 Y-40.7638
G01 X59.4095 Y-40.7545
G01 X59.4330 Y-40.7330
G01 X59.4545 Y-40.7095
G01 X59.4638 Y-40.6981
G01 X59.4827 Y-40.6724
G01 X59.5010 Y-40.6420
G01 X59.5061 Y-40.6322
G01 X59.5166 Y-40.6101
G01 X59.5222 Y-40.5965
G01 X59.5328 Y-40.5664
G01 X59.5423 Y-40.5284
G01 X59.5481 Y-40.4896
G01 X59.5500 Y-40.4541
G01 X59.5500 Y-39.3496
G01 X59.5486 Y-39.3178
G01 X59.5477 Y-39.3068
G01 X59.5423 Y-39.2716
G01 X59.5348 Y-39.2407
G01 X59.5305 Y-39.2266
G01 X59.5196 Y-39.1967
G01 X59.5061 Y-39.1678
G01 X59.4992 Y-39.1548
G01 X59.4827 Y-39.1276
G01 X59.4638 Y-39.1019
G01 X59.4545 Y-39.0905
G01 X59.4330 Y-39.0670
G01 X59.4095 Y-39.0455
G01 X59.3981 Y-39.0362
G01 X59.3724 Y-39.0173
G01 X59.3420 Y-38.9990
G01 X59.3322 Y-38.9939
G01 X59.3101 Y-38.9834
G01 X59.3002 Y-38.9792
G01 X59.3004 Y-38.6208
G01 X59.3101 Y-38.6166
G01 X59.3388 Y-38.6028
G01 X59.3662 Y-38.5866
G01 X59.3784 Y-38.5784
G01 X59.4039 Y-38.5593
G01 X59.4276 Y-38.5380
G01 X59.4380 Y-38.5276
G01 X59.4593 Y-38.5039
G01 X59.4784 Y-38.4784
G01 X59.4866 Y-38.4662
G01 X59.5028 Y-38.4388
G01 X59.5166 Y-38.4101
G01 X59.5222 Y-38.3965
G01 X59.5328 Y-38.3664
G01 X59.5407 Y-38.3355
G01 X59.5430 Y-38.3247
G01 X59.5481 Y-38.2896
G01 X59.5500 Y-38.2504
G01 X59.5500 Y-37.1496
G01 X59.5486 Y-37.1178
G01 X59.5472 Y-37.1031
G01 X59.5423 Y-37.0716
G01 X59.5348 Y-37.0407
G01 X59.5305 Y-37.0266
G01 X59.5196 Y-36.9967
G01 X59.5045 Y-36.9645
G01 X59.4992 Y-36.9548
G01 X59.4866 Y-36.9338
G01 X59.4784 Y-36.9216
G01 X59.4593 Y-36.8961
G01 X59.4355 Y-36.8697
G01 X59.4276 Y-36.8620
G01 X59.4095 Y-36.8455
G01 X59.4010 Y-36.8384
G01 X59.3724 Y-36.8173
G01 X59.3452 Y-36.8008
G01 X59.3322 Y-36.7939
G01 X59.3101 Y-36.7834
G01 X59.3002 Y-36.7792
G01 X59.3004 Y-36.4208
G01 X59.3101 Y-36.4166
G01 X59.3388 Y-36.4028
G01 X59.3662 Y-36.3866
G01 X59.3784 Y-36.3784
G01 X59.4039 Y-36.3593
G01 X59.4276 Y-36.3380
G01 X59.4380 Y-36.3276
G01 X59.4593 Y-36.3039
G01 X59.4784 Y-36.2784
G01 X59.4866 Y-36.2662
G01 X59.5028 Y-36.2388
G01 X59.5166 Y-36.2101
G01 X59.5222 Y-36.1965
G01 X59.5328 Y-36.1664
G01 X59.5407 Y-36.1355
G01 X59.5430 Y-36.1247
G01 X59.5481 Y-36.0896
G01 X59.5500 Y-36.0504
G01 X59.5498 Y-34.9422
G01 X59.5481 Y-34.9104
G01 X59.5430 Y-34.8753
G01 X59.5407 Y-34.8645
G01 X59.5348 Y-34.8407
G01 X59.5317 Y-34.8301
G01 X59.5196 Y-34.7967
G01 X59.5061 Y-34.7678
G01 X59.4992 Y-34.7548
G01 X59.4866 Y-34.7338
G01 X59.4806 Y-34.7246
G01 X59.4593 Y-34.6961
G01 X59.4380 Y-34.6724
G01 X59.4276 Y-34.6620
G01 X59.4095 Y-34.6455
G01 X59.4010 Y-34.6384
G01 X59.3724 Y-34.6173
G01 X59.3420 Y-34.5990
G01 X59.3322 Y-34.5939
G01 X59.3101 Y-34.5834
G01 X59.2965 Y-34.5778
G01 X59.2664 Y-34.5672
G01 X59.2284 Y-34.5577
G01 X59.1896 Y-34.5519
G01 X59.1541 Y-34.5500
G01 X58.4496 Y-34.5500
G01 X58.4104 Y-34.5519
G01 X58.3753 Y-34.5570
G01 X58.3645 Y-34.5593
G01 X58.3336 Y-34.5672
G01 X58.3035 Y-34.5778
G01 X58.2899 Y-34.5834
G01 X58.2612 Y-34.5972
G01 X58.2338 Y-34.6134
G01 X58.2246 Y-34.6194
G01 X58.1990 Y-34.6384
G01 X58.1905 Y-34.6455
G01 X58.1670 Y-34.6670
G01 X58.1455 Y-34.6905
G01 X58.1384 Y-34.6990
G01 X58.1194 Y-34.7246
G01 X58.1134 Y-34.7338
G01 X58.0972 Y-34.7612
G01 X58.0834 Y-34.7899
G01 X58.0791 Y-34.8001
G01 X58.0683 Y-34.8301
G01 X58.0652 Y-34.8407
G01 X58.0584 Y-34.8680
G01 X58.0564 Y-34.8789
G01 X58.0519 Y-34.9104
G01 X58.0500 Y-34.9459
G01 X58.0500 Y-36.0504
G01 X58.0514 Y-36.0822
G01 X58.0528 Y-36.0969
G01 X58.0577 Y-36.1284
G01 X58.0672 Y-36.1664
G01 X58.0804 Y-36.2033
G01 X58.0972 Y-36.2388
G01 X58.1173 Y-36.2724
G01 X58.1407 Y-36.3039
G01 X58.1670 Y-36.3330
G01 X58.1905 Y-36.3545
G01 X58.1998 Y-36.3622
G01 X58.1998 Y-36.8378
G01 X58.1905 Y-36.8455
G01 X58.1724 Y-36.8620
G01 X58.1645 Y-36.8697
G01 X58.1407 Y-36.8961
G01 X58.1216 Y-36.9216
G01 X58.1134 Y-36.9338
G01 X58.0972 Y-36.9612
G01 X58.0834 Y-36.9899
G01 X58.0778 Y-37.0035
G01 X58.0672 Y-37.0336
G01 X58.0593 Y-37.0645
G01 X58.0570 Y-37.0753
G01 X58.0523 Y-37.1068
G01 X58.0514 Y-37.1178
G01 X58.0500 Y-37.1459
G01 X58.0500 Y-37.2499
G01 X57.2963 Y-37.2499
G01 X57.2559 Y-37.2520
G01 X57.2194 Y-37.2572
G01 X57.2050 Y-37.2601
G01 X57.1764 Y-37.2673
G01 X57.1658 Y-37.2703
G01 X57.1277 Y-37.2841
G01 X57.0944 Y-37.2997
G01 X57.0846 Y-37.3048
G01 X57.0561 Y-37.3218
G01 X57.0469 Y-37.3278
G01 X57.0173 Y-37.3497
G01 X57.0089 Y-37.3568
G01 X56.9817 Y-37.3817
G01 X56.5184 Y-37.8450
G01 X56.1866 Y-37.8450
G01 X55.2099 Y-36.8682
G01 X55.6281 Y-36.4500
G01 X56.2504 Y-36.4500
G01 X56.2896 Y-36.4481
G01 X56.3247 Y-36.4430
G01 X56.3355 Y-36.4407
G01 X56.3664 Y-36.4328
G01 X56.4033 Y-36.4196
G01 X56.4388 Y-36.4028
G01 X56.4693 Y-36.3847
G01 X56.4784 Y-36.3784
G01 X56.5039 Y-36.3593
G01 X56.5303 Y-36.3355
G01 X56.5380 Y-36.3276
G01 X56.5569 Y-36.3067
G01 X56.5638 Y-36.2981
G01 X56.5784 Y-36.2784
G01 X56.5866 Y-36.2662
G01 X56.6028 Y-36.2388
G01 X56.6166 Y-36.2101
G01 X56.6222 Y-36.1965
G01 X56.6328 Y-36.1664
G01 X56.6416 Y-36.1320
G01 X56.6436 Y-36.1211
G01 X56.6472 Y-36.0969
G01 X56.6484 Y-36.0859
G01 X56.6500 Y-36.0504
G01 X56.6498 Y-35.3422
G01 X56.6486 Y-35.3178
G01 X56.6477 Y-35.3068
G01 X56.6436 Y-35.2789
G01 X56.6416 Y-35.2680
G01 X56.6328 Y-35.2336
G01 X56.6222 Y-35.2035
G01 X56.6181 Y-35.1933
G01 X56.6028 Y-35.1612
G01 X56.5866 Y-35.1338
G01 X56.5806 Y-35.1246
G01 X56.5638 Y-35.1019
G01 X56.5569 Y-35.0933
G01 X56.5355 Y-35.0697
G01 X56.5276 Y-35.0620
G01 X56.5039 Y-35.0407
G01 X56.4724 Y-35.0173
G01 X56.4388 Y-34.9972
G01 X56.4033 Y-34.9804
G01 X56.3664 Y-34.9672
G01 X56.3284 Y-34.9577
G01 X56.2896 Y-34.9519
G01 X56.2578 Y-34.9502
G01 X55.1459 Y-34.9500
G01 X55.1178 Y-34.9514
G01 X55.1068 Y-34.9523
G01 X55.0753 Y-34.9570
G01 X55.0645 Y-34.9593
G01 X55.0336 Y-34.9672
G01 X55.0035 Y-34.9778
G01 X54.9933 Y-34.9819
G01 X54.9645 Y-34.9955
G01 X54.9548 Y-35.0008
G01 X54.9276 Y-35.0173
G01 X54.8961 Y-35.0407
G01 X54.8670 Y-35.0670
G01 X54.8407 Y-35.0961
G01 X54.8173 Y-35.1276
G01 X54.7972 Y-35.1612
G01 X54.7804 Y-35.1967
G01 X54.7695 Y-35.2266
G01 X54.7662 Y-35.2371
G01 X54.7584 Y-35.2680
G01 X54.7564 Y-35.2789
G01 X54.7519 Y-35.3104
G01 X54.7500 Y-35.3459
G01 X54.7500 Y-35.7719
G01 X54.4318 Y-36.0901
G01 X54.1233 Y-35.7817
G01 X54.0961 Y-35.7568
G01 X54.0848 Y-35.7475
G01 X54.0551 Y-35.7257
G01 X54.0236 Y-35.7066
G01 X54.0106 Y-35.6997
G01 X53.9773 Y-35.6841
G01 X53.9427 Y-35.6715
G01 X53.9286 Y-35.6673
G01 X53.8928 Y-35.6585
G01 X53.8564 Y-35.6529
G01 X53.8418 Y-35.6515
G01 X53.8050 Y-35.6499
G01 X51.3236 Y-35.6499
G01 X50.6292 Y-34.9555
G01 X50.6535 Y-34.9227
G01 X50.6598 Y-34.9136
G01 X50.7165 Y-34.8189
G01 X50.7216 Y-34.8091
G01 X50.7657 Y-34.7160
G01 X50.7700 Y-34.7058
G01 X50.8083 Y-34.5983
G01 X50.8353 Y-34.4913
G01 X50.8382 Y-34.4769
G01 X50.8533 Y-34.3749
G01 X50.8545 Y-34.3640
G01 X50.8600 Y-34.2500
G01 X50.8600 Y-33.3500
G01 X50.8548 Y-33.2397
G01 X50.8533 Y-33.2251
G01 X50.8382 Y-33.1231
G01 X50.8353 Y-33.1087
G01 X50.8083 Y-33.0017
G01 X50.7700 Y-32.8942
G01 X50.7657 Y-32.8840
G01 X50.7183 Y-32.7843
G01 X50.6617 Y-32.6895
G01 X50.6535 Y-32.6773
G01 X50.5921 Y-32.5945
G01 X50.5828 Y-32.5832
G01 X50.5085 Y-32.5015
G01 X50.4268 Y-32.4272
G01 X50.4155 Y-32.4179
G01 X50.3267 Y-32.3522
G01 X50.2257 Y-32.2917
G01 X50.1192 Y-32.2413
G01 X50.0153 Y-32.2040
G01 X50.0012 Y-32.1997
G01 X49.8941 Y-32.1731
G01 X49.7776 Y-32.1558
G01 X49.6600 Y-32.1500
G01 X49.5424 Y-32.1558
G01 X49.4259 Y-32.1731
G01 X49.3117 Y-32.2017
G01 X49.2008 Y-32.2413
G01 X49.1009 Y-32.2884
G01 X49.0879 Y-32.2953
G01 X48.9933 Y-32.3522
G01 X48.9045 Y-32.4179
G01 X48.8932 Y-32.4272
G01 X48.8168 Y-32.4964
G01 X48.8064 Y-32.5068
G01 X48.7324 Y-32.5887
G01 X48.6622 Y-32.6833
G01 X48.6017 Y-32.7843
G01 X48.5513 Y-32.8908
G01 X48.5117 Y-33.0017
G01 X48.4831 Y-33.1159
G01 X48.4658 Y-33.2324
G01 X48.4602 Y-33.3426
G01 X48.4600 Y-34.2537
G01 X48.4658 Y-34.3676
G01 X48.4824 Y-34.4805
G01 X48.4847 Y-34.4913
G01 X48.5117 Y-34.5983
G01 X48.5513 Y-34.7092
G01 X48.6017 Y-34.8157
G01 X48.6602 Y-34.9136
G01 X48.6665 Y-34.9227
G01 X48.7324 Y-35.0113
G01 X48.8089 Y-35.0959
G01 X48.8168 Y-35.1036
G01 X48.8959 Y-35.1752
G01 X48.9045 Y-35.1821
G01 X48.9486 Y-35.2148
G01 X48.6135 Y-35.5499
G01 X43.8416 Y-35.5499
G01 X41.9890 Y-33.6973
G01 X42.0075 Y-33.6720
G01 X42.0259 Y-33.6416
G01 X42.0310 Y-33.6318
G01 X42.0415 Y-33.6095
G01 X42.0459 Y-33.5994
G01 X42.0578 Y-33.5658
G01 X42.0665 Y-33.5313
G01 X42.0686 Y-33.5204
G01 X42.0722 Y-33.4961
G01 X42.0736 Y-33.4815
G01 X42.0750 Y-33.4496
G01 X42.0750 Y-32.1504
G01 X42.0736 Y-32.1185
G01 X42.0727 Y-32.1075
G01 X42.0673 Y-32.0723
G01 X42.0588 Y-32.0377
G01 X42.0554 Y-32.0272
G01 X42.0472 Y-32.0041
G01 X42.0415 Y-31.9905
G01 X42.0277 Y-31.9617
G01 X42.0075 Y-31.9280
G01 X41.9841 Y-31.8964
G01 X41.9628 Y-31.8726
G01 X41.9524 Y-31.8622
G01 X41.9342 Y-31.8457
G01 X41.9257 Y-31.8386
G01 X41.8970 Y-31.8175
G01 X41.8666 Y-31.7991
G01 X41.8568 Y-31.7940
G01 X41.8345 Y-31.7835
G01 X41.8209 Y-31.7778
G01 X41.7908 Y-31.7672
G01 X41.7563 Y-31.7585
G01 X41.7454 Y-31.7564
G01 X41.7138 Y-31.7519
G01 X41.6746 Y-31.7500
G01 X40.8504 Y-31.7500
G01 X40.8112 Y-31.7519
G01 X40.7723 Y-31.7577
G01 X40.7342 Y-31.7672
G01 X40.7041 Y-31.7778
G01 X40.6905 Y-31.7835
G01 X40.6617 Y-31.7973
G01 X40.6342 Y-31.8135
G01 X40.6219 Y-31.8217
G01 X40.5964 Y-31.8409
G01 X40.5673 Y-31.8673
G01 X40.5457 Y-31.8908
G01 X40.5364 Y-31.9022
G01 X40.5175 Y-31.9280
G01 X40.5009 Y-31.9553
G01 X40.4940 Y-31.9682
G01 X40.4805 Y-31.9972
G01 X40.4672 Y-32.0342
G01 X40.4577 Y-32.0723
G01 X40.4519 Y-32.1112
G01 X40.4500 Y-32.1467
G01 X40.4500 Y-33.4496
G01 X40.4519 Y-33.4888
G01 X40.4577 Y-33.5277
G01 X40.4672 Y-33.5658
G01 X40.4805 Y-33.6028
G01 X40.4973 Y-33.6383
G01 X40.5135 Y-33.6658
G01 X40.5217 Y-33.6781
G01 X40.5386 Y-33.7007
G01 X40.5457 Y-33.7092
G01 X40.5622 Y-33.7274
G01 X40.5699 Y-33.7353
G01 X40.5908 Y-33.7543
G01 X40.5993 Y-33.7614
G01 X40.6280 Y-33.7825
G01 X40.6617 Y-33.8027
G01 X40.6972 Y-33.8195
G01 X40.7307 Y-33.8316
G01 X40.7413 Y-33.8347
G01 X40.7723 Y-33.8423
G01 X40.8075 Y-33.8477
G01 X40.8185 Y-33.8486
G01 X40.8431 Y-33.8498
G01 X40.8685 Y-33.8500
G00 Z0.7000
G00 X39.0698 Y-33.7265
G01 F30.00
G01 Z-0.0700
G01 F120.00
G01 X39.0615 Y-33.7231
G01 X39.0698 Y-33.7065
G01 X39.0698 Y-33.7265
G00 Z0.7000
G00 X38.2098 Y-29.6996
G01 F30.00
G01 Z-0.0700
G01 F120.00
G01 X38.2098 Y-29.7637
G01 X38.2124 Y-29.8139
G01 X38.2204 Y-29.8673
G01 X38.2335 Y-29.9197
G01 X38.2517 Y-29.9706
G01 X38.2748 Y-30.0194
G01 X38.3025 Y-30.0657
G01 X38.3324 Y-30.1062
G01 X38.3395 Y-30.1146
G01 X38.3709 Y-30.1491
G01 X39.2498 Y-31.0279
G01 X39.2498 Y-33.9537
G01 X39.2524 Y-34.0039
G01 X39.2591 Y-34.0501
G01 X39.2620 Y-34.0645
G01 X39.2735 Y-34.1097
G01 X39.2890 Y-34.1537
G01 X39.2947 Y-34.1673
G01 X39.3131 Y-34.2061
G01 X39.3184 Y-34.2158
G01 X39.3386 Y-34.2494
G01 X39.3468 Y-34.2617
G01 X39.3747 Y-34.2990
G01 X39.4109 Y-34.3390
G01 X42.5772 Y-37.5053
G01 X42.5672 Y-37.5336
G01 X42.5577 Y-37.5716
G01 X42.5519 Y-37.6104
G01 X42.5500 Y-37.6459
G01 X42.5500 Y-38.3504
G01 X42.5514 Y-38.3822
G01 X42.5523 Y-38.3932
G01 X42.5564 Y-38.4211
G01 X42.5584 Y-38.4320
G01 X42.5662 Y-38.4629
G01 X42.5695 Y-38.4734
G01 X42.5804 Y-38.5033
G01 X42.5939 Y-38.5322
G01 X42.5990 Y-38.5420
G01 X42.6134 Y-38.5662
G01 X42.6216 Y-38.5784
G01 X42.6407 Y-38.6039
G01 X42.6670 Y-38.6330
G01 X42.6961 Y-38.6593
G01 X42.7276 Y-38.6827
G01 X42.7548 Y-38.6992
G01 X42.7678 Y-38.7061
G01 X42.7967 Y-38.7196
G01 X42.8336 Y-38.7328
G01 X42.8645 Y-38.7407
G01 X42.8789 Y-38.7436
G01 X42.9104 Y-38.7481
G01 X42.9422 Y-38.7498
G01 X44.0504 Y-38.7500
G01 X44.0896 Y-38.7481
G01 X44.1284 Y-38.7423
G01 X44.1664 Y-38.7328
G01 X44.2033 Y-38.7196
G01 X44.2388 Y-38.7028
G01 X44.2724 Y-38.6827
G01 X44.3039 Y-38.6593
G01 X44.3330 Y-38.6330
G01 X44.3593 Y-38.6039
G01 X44.3784 Y-38.5784
G01 X44.3847 Y-38.5693
G01 X44.3992 Y-38.5452
G01 X44.4061 Y-38.5322
G01 X44.4166 Y-38.5101
G01 X44.4209 Y-38.4999
G01 X44.4317 Y-38.4699
G01 X44.4348 Y-38.4593
G01 X44.4423 Y-38.4284
G01 X44.4481 Y-38.3896
G01 X44.4500 Y-38.3541
G01 X44.4500 Y-38.3001
G01 X44.5685 Y-38.3001
G01 X44.8867 Y-38.6183
G01 X44.9139 Y-38.6432
G01 X44.9252 Y-38.6525
G01 X44.9549 Y-38.6743
G01 X44.9864 Y-38.6934
G01 X44.9994 Y-38.7003
G01 X45.0327 Y-38.7159
G01 X45.0743 Y-38.7308
G01 X45.1100 Y-38.7399
G01 X45.1244 Y-38.7428
G01 X45.1536 Y-38.7471
G01 X45.1645 Y-38.7483
G01 X45.2050 Y-38.7501
G01 X49.8865 Y-38.7502
G01 X49.8931 Y-38.7632
G01 X49.9070 Y-38.7864
G01 X49.9132 Y-38.7955
G01 X49.9294 Y-38.8170
G01 X49.9525 Y-38.8425
G01 X49.9751 Y-38.8632
G01 X49.9838 Y-38.8701
G01 X50.0056 Y-38.8860
G01 X50.0286 Y-38.9000
G01 X50.0383 Y-38.9054
G01 X50.0627 Y-38.9169
G01 X50.0729 Y-38.9210
G01 X50.0984 Y-38.9299
G01 X50.1245 Y-38.9367
G01 X50.1353 Y-38.9389
G01 X50.1657 Y-38.9433
G01 X50.1963 Y-38.9450
G01 X50.9295 Y-38.9450
G01 X50.9545 Y-38.9483
G01 X50.9950 Y-38.9501
G01 X51.0355 Y-38.9483
G01 X51.0605 Y-38.9450
G01 X51.8000 Y-38.9450
G01 X51.8306 Y-38.9436
G01 X51.8416 Y-38.9424
G01 X51.8647 Y-38.9389
G01 X51.8755 Y-38.9367
G01 X51.9016 Y-38.9299
G01 X51.9271 Y-38.9210
G01 X51.9373 Y-38.9169
G01 X51.9617 Y-38.9054
G01 X51.9682 Y-38.9019
G01 X51.9882 Y-38.8900
G01 X51.9975 Y-38.8839
G01 X52.0220 Y-38.8656
G01 X52.0475 Y-38.8425
G01 X52.0706 Y-38.8170
G01 X52.0910 Y-38.7894
G01 X52.1069 Y-38.7632
G01 X52.1120 Y-38.7534
G01 X52.1234 Y-38.7289
G01 X52.1326 Y-38.7036
G01 X52.1360 Y-38.6931
G01 X52.1433 Y-38.6633
G01 X52.1474 Y-38.6366
G01 X52.1486 Y-38.6256
G01 X52.1500 Y-38.5950
G01 X52.1500 Y-38.1913
G01 X52.1489 Y-38.1680
G01 X52.1479 Y-38.1570
G01 X52.1439 Y-38.1303
G01 X52.1417 Y-38.1195
G01 X52.1349 Y-38.0934
G01 X52.1260 Y-38.0679
G01 X52.1219 Y-38.0577
G01 X52.1087 Y-38.0300
G01 X52.0930 Y-38.0036
G01 X52.0868 Y-37.9945
G01 X52.0706 Y-37.9730
G01 X52.0475 Y-37.9475
G01 X52.0249 Y-37.9268
G01 X52.0162 Y-37.9199
G01 X51.9944 Y-37.9040
G01 X51.9650 Y-37.8863
G01 X51.9373 Y-37.8731
G01 X51.9271 Y-37.8690
G01 X51.9016 Y-37.8601
G01 X51.8683 Y-37.8517
G01 X51.8343 Y-37.8467
G01 X51.8000 Y-37.8450
G01 X50.2000 Y-37.8450
G01 X50.1694 Y-37.8464
G01 X50.1431 Y-37.8499
G01 X45.3915 Y-37.8499
G01 X45.0733 Y-37.5317
G01 X45.0461 Y-37.5068
G01 X45.0348 Y-37.4975
G01 X45.0081 Y-37.4778
G01 X44.9989 Y-37.4718
G01 X44.9672 Y-37.4530
G01 X44.9340 Y-37.4371
G01 X44.9238 Y-37.4327
G01 X44.8857 Y-37.4192
G01 X44.8464 Y-37.4093
G01 X44.8356 Y-37.4072
G01 X44.8064 Y-37.4029
G01 X44.7918 Y-37.4015
G01 X44.7550 Y-37.3999
G01 X44.3623 Y-37.3998
G01 X44.3569 Y-37.3933
G01 X44.3380 Y-37.3724
G01 X44.3276 Y-37.3620
G01 X44.3039 Y-37.3407
G01 X44.2724 Y-37.3173
G01 X44.2452 Y-37.3008
G01 X44.2322 Y-37.2939
G01 X44.2033 Y-37.2804
G01 X44.1664 Y-37.2672
G01 X44.1284 Y-37.2577
G01 X44.0969 Y-37.2528
G01 X44.0822 Y-37.2514
G01 X44.0504 Y-37.2500
G01 X43.8781 Y-37.2500
G01 X40.3502 Y-33.7221
G01 X40.3502 Y-30.8000
G01 X40.3475 Y-30.7461
G01 X40.3409 Y-30.6999
G01 X40.3389 Y-30.6890
G01 X40.3285 Y-30.6474
G01 X40.3242 Y-30.6333
G01 X40.3083 Y-30.5894
G01 X40.2885 Y-30.5472
G01 X40.2816 Y-30.5342
G01 X40.2575 Y-30.4943
G01 X40.2298 Y-30.4568
G01 X40.2229 Y-30.4481
G01 X40.1890 Y-30.4109
G01 X39.4136 Y-29.6355
G01 X39.4896 Y-29.5790
G01 X39.5732 Y-29.5032
G01 X39.6490 Y-29.4196
G01 X39.7120 Y-29.3349
G01 X39.7201 Y-29.3227
G01 X39.7706 Y-29.2385
G01 X39.7775 Y-29.2255
G01 X39.8225 Y-29.1301
G01 X39.8582 Y-29.0308
G01 X39.8615 Y-29.0203
G01 X39.8879 Y-28.9144
G01 X39.9036 Y-28.8100
G01 X39.9050 Y-28.7954
G01 X39.9100 Y-28.6937
G01 X39.9100 Y-28.1863
G01 X39.9045 Y-28.0773
G01 X39.8886 Y-27.9693
G01 X39.8863 Y-27.9585
G01 X39.8605 Y-27.8562
G01 X39.8251 Y-27.7568
G01 X39.8195 Y-27.7432
G01 X39.7742 Y-27.6479
G01 X39.7201 Y-27.5573
G01 X39.7120 Y-27.5451
G01 X39.6490 Y-27.4604
G01 X39.5782 Y-27.3822
G01 X39.5678 Y-27.3718
G01 X39.4896 Y-27.3010
G01 X39.4049 Y-27.2380
G01 X39.3927 Y-27.2299
G01 X39.3021 Y-27.1758
G01 X39.2068 Y-27.1305
G01 X39.1967 Y-27.1262
G01 X39.0938 Y-27.0895
G01 X38.9844 Y-27.0621
G01 X38.8727 Y-27.0455
G01 X38.7600 Y-27.0400
G01 X38.6473 Y-27.0455
G01 X38.5356 Y-27.0621
G01 X38.4262 Y-27.0895
G01 X38.3199 Y-27.1275
G01 X38.2179 Y-27.1758
G01 X38.1211 Y-27.2338
G01 X38.0304 Y-27.3010
G01 X37.9468 Y-27.3768
G01 X37.8710 Y-27.4604
G01 X37.8038 Y-27.5511
G01 X37.7458 Y-27.6479
G01 X37.7005 Y-27.7432
G01 X37.6962 Y-27.7533
G01 X37.6595 Y-27.8562
G01 X37.6321 Y-27.9656
G01 X37.6155 Y-28.0773
G01 X37.6100 Y-28.1863
G01 X37.6100 Y-28.6900
G01 X37.6150 Y-28.7954
G01 X37.6164 Y-28.8100
G01 X37.6321 Y-28.9144
G01 X37.6585 Y-29.0203
G01 X37.6618 Y-29.0308
G01 X37.6975 Y-29.1301
G01 X37.7458 Y-29.2321
G01 X37.8038 Y-29.3289
G01 X37.8710 Y-29.4196
G01 X37.9468 Y-29.5032
G01 X38.0304 Y-29.5790
G01 X38.1211 Y-29.6462
G01 X38.2098 Y-29.6996
G00 Z0.7000
G00 X40.0300 Y-29.0846
G01 F30.00
G01 Z-0.0700
G01 F120.00
G01 X40.0654 Y-29.1839
G01 X40.0712 Y-29.1990
G01 X40.0778 Y-29.2138
G01 X40.1198 Y-29.3025
G01 X40.1270 Y-29.3170
G01 X40.1350 Y-29.3311
G01 X40.1855 Y-29.4152
G01 X40.1941 Y-29.4289
G01 X40.2035 Y-29.4422
G01 X40.2619 Y-29.5210
G01 X40.2719 Y-29.5337
G01 X40.2825 Y-29.5460
G01 X40.3484 Y-29.6187
G01 X40.3595 Y-29.6305
G01 X40.3713 Y-29.6416
G01 X40.4440 Y-29.7075
G01 X40.4563 Y-29.7181
G01 X40.4690 Y-29.7281
G01 X40.5478 Y-29.7865
G01 X40.5611 Y-29.7959
G01 X40.5748 Y-29.8045
G01 X40.6589 Y-29.8550
G01 X40.6730 Y-29.8630
G01 X40.6875 Y-29.8702
G01 X40.7762 Y-29.9122
G01 X40.7910 Y-29.9188
G01 X40.8061 Y-29.9246
G01 X40.8985 Y-29.9576
G01 X40.9139 Y-29.9627
G01 X40.9295 Y-29.9671
G01 X41.0326 Y-29.9928
G01 X41.0565 Y-29.9972
G01 X41.1536 Y-30.0116
G01 X41.1696 Y-30.0136
G01 X41.1858 Y-30.0148
G01 X41.2838 Y-30.0196
G01 X41.3000 Y-30.0200
G01 X41.3162 Y-30.0196
G01 X41.4142 Y-30.0148
G01 X41.4304 Y-30.0136
G01 X41.4464 Y-30.0116
G01 X41.5435 Y-29.9972
G01 X41.5595 Y-29.9944
G01 X41.5753 Y-29.9909
G01 X41.6705 Y-29.9671
G01 X41.6861 Y-29.9627
G01 X41.7015 Y-29.9576
G01 X41.7939 Y-29.9246
G01 X41.8090 Y-29.9188
G01 X41.8238 Y-29.9122
G01 X41.9125 Y-29.8702
G01 X41.9270 Y-29.8630
G01 X41.9411 Y-29.8550
G01 X42.0252 Y-29.8045
G01 X42.0389 Y-29.7959
G01 X42.0522 Y-29.7865
G01 X42.1310 Y-29.7281
G01 X42.1437 Y-29.7181
G01 X42.1560 Y-29.7075
G01 X42.2287 Y-29.6416
G01 X42.2405 Y-29.6305
G01 X42.2516 Y-29.6187
G01 X42.3175 Y-29.5460
G01 X42.3281 Y-29.5337
G01 X42.3381 Y-29.5210
G01 X42.3965 Y-29.4422
G01 X42.4059 Y-29.4289
G01 X42.4145 Y-29.4152
G01 X42.4650 Y-29.3311
G01 X42.4730 Y-29.3170
G01 X42.4802 Y-29.3025
G01 X42.5222 Y-29.2138
G01 X42.5288 Y-29.1990
G01 X42.5346 Y-29.1839
G01 X42.5700 Y-29.0846
G01 X42.6054 Y-29.1839
G01 X42.6112 Y-29.1990
G01 X42.6178 Y-29.2138
G01 X42.6598 Y-29.3025
G01 X42.6670 Y-29.3170
G01 X42.6750 Y-29.3311
G01 X42.7255 Y-29.4152
G01 X42.7341 Y-29.4289
G01 X42.7435 Y-29.4422
G01 X42.8019 Y-29.5210
G01 X42.8119 Y-29.5337
G01 X42.8225 Y-29.5460
G01 X42.8884 Y-29.6187
G01 X42.8995 Y-29.6305
G01 X42.9113 Y-29.6416
G01 X42.9840 Y-29.7075
G01 X42.9963 Y-29.7181
G01 X43.0090 Y-29.7281
G01 X43.0878 Y-29.7865
G01 X43.1011 Y-29.7959
G01 X43.1098 Y-29.8015
G01 X43.1098 Y-32.0400
G01 X43.1102 Y-32.0562
G01 X43.1121 Y-32.0954
G01 X43.1133 Y-32.1116
G01 X43.1153 Y-32.1276
G01 X43.1211 Y-32.1665
G01 X43.1238 Y-32.1825
G01 X43.1274 Y-32.1983
G01 X43.1369 Y-32.2364
G01 X43.1412 Y-32.2520
G01 X43.1463 Y-32.2673
G01 X43.1596 Y-32.3043
G01 X43.1654 Y-32.3194
G01 X43.1719 Y-32.3342
G01 X43.1887 Y-32.3697
G01 X43.1960 Y-32.3842
G01 X43.2040 Y-32.3983
G01 X43.2242 Y-32.4320
G01 X43.2329 Y-32.4457
G01 X43.2422 Y-32.4589
G01 X43.2656 Y-32.4905
G01 X43.2755 Y-32.5032
G01 X43.2861 Y-32.5155
G01 X43.3172 Y-32.5497
G01 X43.4012 Y-32.6349
G01 X43.3709 Y-32.6854
G01 X43.3592 Y-32.7067
G01 X43.3082 Y-32.8145
G01 X43.2992 Y-32.8370
G01 X43.2619 Y-32.9417
G01 X43.2551 Y-32.9650
G01 X43.2301 Y-33.0650
G01 X43.2265 Y-33.0808
G01 X43.2237 Y-33.0967
G01 X43.2086 Y-33.1987
G01 X43.2066 Y-33.2147
G01 X43.2055 Y-33.2309
G01 X43.2004 Y-33.3338
G01 X43.2000 Y-33.3500
G01 X43.2000 Y-34.2500
G01 X43.2004 Y-34.2662
G01 X43.2055 Y-34.3691
G01 X43.2066 Y-34.3853
G01 X43.2086 Y-34.4013
G01 X43.2237 Y-34.5033
G01 X43.2282 Y-34.5271
G01 X43.2551 Y-34.6350
G01 X43.2594 Y-34.6506
G01 X43.2645 Y-34.6660
G01 X43.2936 Y-34.7473
G01 X42.2129 Y-33.6666
G01 X42.2249 Y-33.6334
G01 X42.2300 Y-33.6181
G01 X42.2343 Y-33.6025
G01 X42.2438 Y-33.5628
G01 X42.2502 Y-33.5225
G01 X42.2522 Y-33.5065
G01 X42.2534 Y-33.4903
G01 X42.2549 Y-33.4577
G01 X42.2550 Y-32.1504
G01 X42.2534 Y-32.1097
G01 X42.2522 Y-32.0935
G01 X42.2502 Y-32.0775
G01 X42.2453 Y-32.0452
G01 X42.2422 Y-32.0293
G01 X42.2343 Y-31.9975
G01 X42.2300 Y-31.9819
G01 X42.2249 Y-31.9666
G01 X42.2108 Y-31.9283
G01 X42.2043 Y-31.9135
G01 X42.1865 Y-31.8768
G01 X42.1785 Y-31.8627
G01 X42.1616 Y-31.8347
G01 X42.1526 Y-31.8213
G01 X42.1332 Y-31.7950
G01 X42.1232 Y-31.7822
G01 X42.1127 Y-31.7699
G01 X42.0907 Y-31.7458
G01 X42.0792 Y-31.7343
G01 X42.0490 Y-31.7070
G01 X42.0365 Y-31.6967
G01 X42.0037 Y-31.6724
G01 X41.9903 Y-31.6634
G01 X41.9553 Y-31.6424
G01 X41.9410 Y-31.6348
G01 X41.9041 Y-31.6174
G01 X41.8892 Y-31.6112
G01 X41.8508 Y-31.5974
G01 X41.8353 Y-31.5927
G01 X41.7957 Y-31.5828
G01 X41.7798 Y-31.5797
G01 X41.7395 Y-31.5737
G01 X41.7234 Y-31.5721
G01 X41.6908 Y-31.5704
G01 X41.6746 Y-31.5700
G01 X40.8504 Y-31.5700
G01 X40.8342 Y-31.5704
G01 X40.8016 Y-31.5721
G01 X40.7775 Y-31.5748
G01 X40.7372 Y-31.5812
G01 X40.7214 Y-31.5847
G01 X40.6897 Y-31.5927
G01 X40.6666 Y-31.6001
G01 X40.6283 Y-31.6142
G01 X40.5913 Y-31.6313
G01 X40.5697 Y-31.6424
G01 X40.5302 Y-31.6664
G01 X40.5302 Y-30.8000
G01 X40.5298 Y-30.7838
G01 X40.5279 Y-30.7446
G01 X40.5267 Y-30.7284
G01 X40.5247 Y-30.7123
G01 X40.5189 Y-30.6735
G01 X40.5162 Y-30.6575
G01 X40.5126 Y-30.6417
G01 X40.5031 Y-30.6036
G01 X40.4987 Y-30.5880
G01 X40.4937 Y-30.5726
G01 X40.4804 Y-30.5357
G01 X40.4746 Y-30.5206
G01 X40.4680 Y-30.5057
G01 X40.4513 Y-30.4702
G01 X40.4440 Y-30.4558
G01 X40.4360 Y-30.4417
G01 X40.4158 Y-30.4080
G01 X40.4071 Y-30.3943
G01 X40.3978 Y-30.3811
G01 X40.3744 Y-30.3495
G01 X40.3644 Y-30.3368
G01 X40.3539 Y-30.3245
G01 X40.3275 Y-30.2954
G01 X40.3163 Y-30.2837
G01 X39.6811 Y-29.6485
G01 X39.6947 Y-29.6361
G01 X39.7061 Y-29.6247
G01 X39.7775 Y-29.5460
G01 X39.7881 Y-29.5337
G01 X39.7981 Y-29.5210
G01 X39.8565 Y-29.4422
G01 X39.8703 Y-29.4221
G01 X39.9250 Y-29.3311
G01 X39.9330 Y-29.3170
G01 X39.9402 Y-29.3025
G01 X39.9822 Y-29.2138
G01 X39.9888 Y-29.1990
G01 X39.9946 Y-29.1839
G01 X40.0300 Y-29.0846
G00 Z0.7000
G00 X43.2898 Y-29.6996
G01 F30.00
G01 Z-0.0700
G01 F120.00
G01 X43.2898 Y-32.0400
G01 X43.2919 Y-32.0866
G01 X43.2929 Y-32.0976
G01 X43.2991 Y-32.1401
G01 X43.3020 Y-32.1545
G01 X43.3135 Y-32.1997
G01 X43.3290 Y-32.2437
G01 X43.3347 Y-32.2573
G01 X43.3548 Y-32.2994
G01 X43.3825 Y-32.3457
G01 X43.4147 Y-32.3890
G01 X43.4484 Y-32.4264
G01 X43.6345 Y-32.6126
G01 X43.5822 Y-32.6833
G01 X43.5253 Y-32.7779
G01 X43.5184 Y-32.7909
G01 X43.4713 Y-32.8908
G01 X43.4317 Y-33.0017
G01 X43.4047 Y-33.1087
G01 X43.4018 Y-33.1231
G01 X43.3858 Y-33.2324
G01 X43.3800 Y-33.3500
G01 X43.3800 Y-34.2537
G01 X43.3852 Y-34.3603
G01 X43.3867 Y-34.3749
G01 X43.4031 Y-34.4841
G01 X43.4306 Y-34.5948
G01 X43.4340 Y-34.6053
G01 X43.4713 Y-34.7092
G01 X43.5217 Y-34.8157
G01 X43.5822 Y-34.9167
G01 X43.6524 Y-35.0113
G01 X43.7315 Y-35.0985
G01 X43.8187 Y-35.1776
G01 X43.9133 Y-35.2478
G01 X44.0143 Y-35.3083
G01 X44.1208 Y-35.3587
G01 X44.2317 Y-35.3983
G01 X44.3459 Y-35.4269
G01 X44.4624 Y-35.4442
G01 X44.5800 Y-35.4500
G01 X44.6976 Y-35.4442
G01 X44.8141 Y-35.4269
G01 X44.9248 Y-35.3994
G01 X44.9353 Y-35.3960
G01 X45.0392 Y-35.3587
G01 X45.1457 Y-35.3083
G01 X45.2467 Y-35.2478
G01 X45.3355 Y-35.1821
G01 X45.3468 Y-35.1728
G01 X45.4285 Y-35.0985
G01 X45.5028 Y-35.0168
G01 X45.5121 Y-35.0055
G01 X45.5735 Y-34.9227
G01 X45.5817 Y-34.9105
G01 X45.6383 Y-34.8157
G01 X45.6857 Y-34.7160
G01 X45.6900 Y-34.7058
G01 X45.7283 Y-34.5983
G01 X45.7553 Y-34.4913
G01 X45.7582 Y-34.4769
G01 X45.7733 Y-34.3749
G01 X45.7748 Y-34.3603
G01 X45.7800 Y-34.2500
G01 X45.7800 Y-33.3500
G01 X45.7745 Y-33.2360
G01 X45.7733 Y-33.2251
G01 X45.7569 Y-33.1159
G01 X45.7303 Y-33.0088
G01 X45.7260 Y-32.9947
G01 X45.6913 Y-32.8976
G01 X45.6857 Y-32.8840
G01 X45.6383 Y-32.7843
G01 X45.5778 Y-32.6833
G01 X45.5076 Y-32.5887
G01 X45.4311 Y-32.5041
G01 X45.4232 Y-32.4964
G01 X45.3468 Y-32.4272
G01 X45.3355 Y-32.4179
G01 X45.2467 Y-32.3522
G01 X45.1521 Y-32.2953
G01 X45.1424 Y-32.2900
G01 X45.0392 Y-32.2413
G01 X44.9319 Y-32.2028
G01 X44.9212 Y-32.1997
G01 X44.8177 Y-32.1738
G01 X44.8069 Y-32.1718
G01 X44.7400 Y-32.1619
G01 X44.3902 Y-31.8121
G01 X44.3902 Y-29.6996
G01 X44.4789 Y-29.6462
G01 X44.5696 Y-29.5790
G01 X44.6532 Y-29.5032
G01 X44.7242 Y-29.4251
G01 X44.7335 Y-29.4137
G01 X44.7920 Y-29.3349
G01 X44.8001 Y-29.3227
G01 X44.8542 Y-29.2321
G01 X44.8995 Y-29.1368
G01 X44.9038 Y-29.1267
G01 X44.9405 Y-29.0238
G01 X44.9663 Y-28.9215
G01 X44.9692 Y-28.9071
G01 X44.9845 Y-28.8027
G01 X44.9900 Y-28.6900
G01 X44.9900 Y-28.1863
G01 X44.9845 Y-28.0773
G01 X44.9692 Y-27.9729
G01 X44.9663 Y-27.9585
G01 X44.9405 Y-27.8562
G01 X44.9051 Y-27.7568
G01 X44.8995 Y-27.7432
G01 X44.8542 Y-27.6479
G01 X44.7962 Y-27.5511
G01 X44.7335 Y-27.4663
G01 X44.7242 Y-27.4549
G01 X44.6532 Y-27.3768
G01 X44.5696 Y-27.3010
G01 X44.4789 Y-27.2338
G01 X44.3885 Y-27.1794
G01 X44.3755 Y-27.1725
G01 X44.2868 Y-27.1305
G01 X44.2767 Y-27.1262
G01 X44.1738 Y-27.0895
G01 X44.0644 Y-27.0621
G01 X43.9527 Y-27.0455
G01 X43.8400 Y-27.0400
G01 X43.7273 Y-27.0455
G01 X43.6156 Y-27.0621
G01 X43.5062 Y-27.0895
G01 X43.3999 Y-27.1275
G01 X43.2979 Y-27.1758
G01 X43.2011 Y-27.2338
G01 X43.1104 Y-27.3010
G01 X43.0268 Y-27.3768
G01 X42.9510 Y-27.4604
G01 X42.8838 Y-27.5511
G01 X42.8258 Y-27.6479
G01 X42.7805 Y-27.7432
G01 X42.7762 Y-27.7533
G01 X42.7395 Y-27.8562
G01 X42.7121 Y-27.9656
G01 X42.6955 Y-28.0773
G01 X42.6900 Y-28.1863
G01 X42.6900 Y-28.6900
G01 X42.6950 Y-28.7954
G01 X42.6964 Y-28.8100
G01 X42.7121 Y-28.9144
G01 X42.7385 Y-29.0203
G01 X42.7418 Y-29.0308
G01 X42.7775 Y-29.1301
G01 X42.8258 Y-29.2321
G01 X42.8838 Y-29.3289
G01 X42.9510 Y-29.4196
G01 X43.0268 Y-29.5032
G01 X43.1104 Y-29.5790
G01 X43.2011 Y-29.6462
G01 X43.2898 Y-29.6996
G00 Z0.7000
G00 X45.1100 Y-29.0846
G01 F30.00
G01 Z-0.0700
G01 F120.00
G01 X45.1454 Y-29.1839
G01 X45.1512 Y-29.1990
G01 X45.1578 Y-29.2138
G01 X45.1998 Y-29.3025
G01 X45.2070 Y-29.3170
G01 X45.2150 Y-29.3311
G01 X45.2655 Y-29.4152
G01 X45.2741 Y-29.4289
G01 X45.2835 Y-29.4422
G01 X45.3419 Y-29.5210
G01 X45.3519 Y-29.5337
G01 X45.3625 Y-29.5460
G01 X45.4284 Y-29.6187
G01 X45.4395 Y-29.6305
G01 X45.4513 Y-29.6416
G01 X45.5240 Y-29.7075
G01 X45.5363 Y-29.7181
G01 X45.5490 Y-29.7281
G01 X45.6278 Y-29.7865
G01 X45.6411 Y-29.7959
G01 X45.6498 Y-29.8015
G01 X45.6498 Y-31.7800
G01 X45.6502 Y-31.7962
G01 X45.6521 Y-31.8354
G01 X45.6533 Y-31.8516
G01 X45.6553 Y-31.8676
G01 X45.6611 Y-31.9065
G01 X45.6655 Y-31.9304
G01 X45.6790 Y-31.9842
G01 X45.6863 Y-32.0073
G01 X45.6996 Y-32.0443
G01 X45.7054 Y-32.0594
G01 X45.7119 Y-32.0742
G01 X45.7287 Y-32.1097
G01 X45.7360 Y-32.1242
G01 X45.7440 Y-32.1383
G01 X45.7642 Y-32.1720
G01 X45.7729 Y-32.1857
G01 X45.7822 Y-32.1989
G01 X45.8056 Y-32.2305
G01 X45.8155 Y-32.2432
G01 X45.8261 Y-32.2555
G01 X45.8580 Y-32.2905
G01 X46.0482 Y-32.4809
G01 X45.9819 Y-32.5701
G01 X45.9726 Y-32.5833
G01 X45.9639 Y-32.5970
G01 X45.9109 Y-32.6854
G01 X45.9029 Y-32.6995
G01 X45.8957 Y-32.7139
G01 X45.8500 Y-32.8106
G01 X45.8043 Y-32.7139
G01 X45.7971 Y-32.6995
G01 X45.7891 Y-32.6854
G01 X45.7361 Y-32.5970
G01 X45.7274 Y-32.5833
G01 X45.7181 Y-32.5701
G01 X45.6567 Y-32.4873
G01 X45.6468 Y-32.4745
G01 X45.6362 Y-32.4623
G01 X45.5670 Y-32.3859
G01 X45.5558 Y-32.3742
G01 X45.5441 Y-32.3630
G01 X45.4677 Y-32.2938
G01 X45.4555 Y-32.2832
G01 X45.4427 Y-32.2733
G01 X45.3599 Y-32.2119
G01 X45.3467 Y-32.2026
G01 X45.3330 Y-32.1939
G01 X45.2446 Y-32.1409
G01 X45.2305 Y-32.1329
G01 X45.2161 Y-32.1257
G01 X45.1229 Y-32.0816
G01 X45.1081 Y-32.0750
G01 X45.0930 Y-32.0692
G01 X44.9960 Y-32.0345
G01 X44.9806 Y-32.0294
G01 X44.9650 Y-32.0251
G01 X44.8571 Y-31.9982
G01 X44.8413 Y-31.9950
G01 X44.8252 Y-31.9926
G01 X44.5702 Y-31.7375
G01 X44.5702 Y-29.8015
G01 X44.5789 Y-29.7959
G01 X44.5922 Y-29.7865
G01 X44.6710 Y-29.7281
G01 X44.6837 Y-29.7181
G01 X44.6960 Y-29.7075
G01 X44.7687 Y-29.6416
G01 X44.7805 Y-29.6305
G01 X44.7916 Y-29.6187
G01 X44.8575 Y-29.5460
G01 X44.8681 Y-29.5337
G01 X44.8781 Y-29.5210
G01 X44.9365 Y-29.4422
G01 X44.9459 Y-29.4289
G01 X44.9545 Y-29.4152
G01 X45.0050 Y-29.3311
G01 X45.0130 Y-29.3170
G01 X45.0202 Y-29.3025
G01 X45.0622 Y-29.2138
G01 X45.0688 Y-29.1990
G01 X45.0746 Y-29.1839
G01 X45.1100 Y-29.0846
G00 Z0.7000
G00 X55.9898 Y-27.1804
G01 F30.00
G01 Z-0.0700
G01 F120.00
G01 X55.9011 Y-27.2338
G01 X55.8104 Y-27.3010
G01 X55.7268 Y-27.3768
G01 X55.6510 Y-27.4604
G01 X55.5838 Y-27.5511
G01 X55.5258 Y-27.6479
G01 X55.4775 Y-27.7499
G01 X55.4418 Y-27.8492
G01 X55.4385 Y-27.8597
G01 X55.4121 Y-27.9656
G01 X55.3964 Y-28.0700
G01 X55.3950 Y-28.0846
G01 X55.3900 Y-28.1900
G01 X55.3900 Y-28.6937
G01 X55.3955 Y-28.8027
G01 X55.4121 Y-28.9144
G01 X55.4395 Y-29.0238
G01 X55.4762 Y-29.1267
G01 X55.4805 Y-29.1368
G01 X55.5258 Y-29.2321
G01 X55.5838 Y-29.3289
G01 X55.6510 Y-29.4196
G01 X55.7268 Y-29.5032
G01 X55.8104 Y-29.5790
G01 X55.9011 Y-29.6462
G01 X55.9979 Y-29.7042
G01 X56.0999 Y-29.7525
G01 X56.2062 Y-29.7905
G01 X56.3156 Y-29.8179
G01 X56.4273 Y-29.8345
G01 X56.5400 Y-29.8400
G01 X56.6527 Y-29.8345
G01 X56.7644 Y-29.8179
G01 X56.8738 Y-29.7905
G01 X56.9767 Y-29.7538
G01 X56.9868 Y-29.7495
G01 X57.0755 Y-29.7075
G01 X57.0885 Y-29.7006
G01 X57.1789 Y-29.6462
G01 X57.2696 Y-29.5790
G01 X57.3532 Y-29.5032
G01 X57.4242 Y-29.4251
G01 X57.4335 Y-29.4137
G01 X57.4962 Y-29.3289
G01 X57.5542 Y-29.2321
G01 X57.5995 Y-29.1368
G01 X57.6051 Y-29.1232
G01 X57.6405 Y-29.0238
G01 X57.6663 Y-28.9215
G01 X57.6692 Y-28.9071
G01 X57.6845 Y-28.8027
G01 X57.6900 Y-28.6937
G01 X57.6900 Y-28.1900
G01 X57.6845 Y-28.0773
G01 X57.6692 Y-27.9729
G01 X57.6663 Y-27.9585
G01 X57.6405 Y-27.8562
G01 X57.6038 Y-27.7533
G01 X57.5995 Y-27.7432
G01 X57.5542 Y-27.6479
G01 X57.5001 Y-27.5573
G01 X57.4920 Y-27.5451
G01 X57.4335 Y-27.4663
G01 X57.4242 Y-27.4549
G01 X57.3532 Y-27.3768
G01 X57.2696 Y-27.3010
G01 X57.1789 Y-27.2338
G01 X57.0902 Y-27.1804
G01 X57.0902 Y-26.4379
G01 X60.9390 Y-22.5891
G01 X60.9753 Y-22.5491
G01 X61.0032 Y-22.5117
G01 X61.0095 Y-22.5026
G01 X61.0316 Y-22.4658
G01 X61.0385 Y-22.4528
G01 X61.0583 Y-22.4106
G01 X61.0754 Y-22.3632
G01 X61.0785 Y-22.3526
G01 X61.0889 Y-22.3110
G01 X61.0903 Y-22.3037
G01 X61.0938 Y-22.2801
G01 X61.1053 Y-22.2558
G01 X61.1097 Y-22.2457
G01 X61.1242 Y-22.2052
G01 X61.1285 Y-22.1911
G01 X61.1380 Y-22.1531
G01 X61.1403 Y-22.1422
G01 X61.1466 Y-22.0998
G01 X61.1481 Y-22.0851
G01 X61.1502 Y-22.0385
G01 X61.1502 Y-20.0279
G01 X61.2000 Y-19.9781
G01 X61.2000 Y-20.5487
G01 X61.2020 Y-20.5847
G01 X61.2065 Y-20.6168
G01 X61.2094 Y-20.6312
G01 X61.2174 Y-20.6626
G01 X61.2308 Y-20.7000
G01 X61.2478 Y-20.7359
G01 X61.2683 Y-20.7700
G01 X61.2919 Y-20.8019
G01 X61.3186 Y-20.8314
G01 X61.3481 Y-20.8581
G01 X61.3800 Y-20.8817
G01 X61.4077 Y-20.8985
G01 X61.4174 Y-20.9039
G01 X61.4466 Y-20.9177
G01 X61.4569 Y-20.9218
G01 X61.4874 Y-20.9326
G01 X61.5188 Y-20.9406
G01 X61.5332 Y-20.9435
G01 X61.5653 Y-20.9480
G01 X61.6050 Y-20.9500
G01 X62.7987 Y-20.9500
G01 X62.8347 Y-20.9480
G01 X62.8740 Y-20.9422
G01 X62.9126 Y-20.9326
G01 X62.9431 Y-20.9218
G01 X62.9534 Y-20.9177
G01 X62.9826 Y-20.9039
G01 X62.9923 Y-20.8985
G01 X63.0200 Y-20.8817
G01 X63.0491 Y-20.8604
G01 X63.0575 Y-20.8533
G01 X63.0814 Y-20.8314
G01 X63.1033 Y-20.8075
G01 X63.1126 Y-20.7961
G01 X63.1317 Y-20.7700
G01 X63.1485 Y-20.7423
G01 X63.1555 Y-20.7293
G01 X63.1692 Y-20.7000
G01 X63.1803 Y-20.6696
G01 X63.1845 Y-20.6555
G01 X63.1922 Y-20.6240
G01 X63.1971 Y-20.5920
G01 X63.1986 Y-20.5774
G01 X63.2000 Y-20.5450
G01 X63.2000 Y-19.1366
G01 X63.2865 Y-19.0501
G01 X64.0630 Y-19.0502
G01 X64.0683 Y-19.0699
G01 X64.0791 Y-19.0999
G01 X64.0834 Y-19.1101
G01 X64.0939 Y-19.1322
G01 X64.0990 Y-19.1420
G01 X64.1173 Y-19.1724
G01 X64.1362 Y-19.1981
G01 X64.1455 Y-19.2095
G01 X64.1620 Y-19.2276
G01 X64.1697 Y-19.2355
G01 X64.1961 Y-19.2593
G01 X64.2216 Y-19.2784
G01 X64.2338 Y-19.2866
G01 X64.2612 Y-19.3028
G01 X64.2967 Y-19.3196
G01 X64.3266 Y-19.3305
G01 X64.3407 Y-19.3348
G01 X64.3645 Y-19.3407
G01 X64.3753 Y-19.3430
G01 X64.4104 Y-19.3481
G01 X64.4496 Y-19.3500
G01 X65.5541 Y-19.3500
G01 X65.5896 Y-19.3481
G01 X65.6284 Y-19.3423
G01 X65.6664 Y-19.3328
G01 X65.6965 Y-19.3222
G01 X65.7067 Y-19.3181
G01 X65.7388 Y-19.3028
G01 X65.7662 Y-19.2866
G01 X65.7784 Y-19.2784
G01 X65.8039 Y-19.2593
G01 X65.8276 Y-19.2380
G01 X65.8380 Y-19.2276
G01 X65.8593 Y-19.2039
G01 X65.8784 Y-19.1784
G01 X65.8866 Y-19.1662
G01 X65.9028 Y-19.1388
G01 X65.9166 Y-19.1101
G01 X65.9222 Y-19.0965
G01 X65.9328 Y-19.0664
G01 X65.9407 Y-19.0355
G01 X65.9436 Y-19.0211
G01 X65.9481 Y-18.9896
G01 X65.9500 Y-18.9504
G01 X65.9500 Y-18.2496
G01 X65.9481 Y-18.2104
G01 X65.9423 Y-18.1716
G01 X65.9348 Y-18.1407
G01 X65.9305 Y-18.1266
G01 X65.9209 Y-18.1001
G01 X65.9166 Y-18.0899
G01 X65.9028 Y-18.0612
G01 X65.8827 Y-18.0276
G01 X65.8593 Y-17.9961
G01 X65.8355 Y-17.9697
G01 X65.8276 Y-17.9620
G01 X65.8067 Y-17.9431
G01 X65.7981 Y-17.9362
G01 X65.7784 Y-17.9216
G01 X65.7693 Y-17.9153
G01 X65.7452 Y-17.9008
G01 X65.7322 Y-17.8939
G01 X65.7101 Y-17.8834
G01 X65.6999 Y-17.8791
G01 X65.6734 Y-17.8695
G01 X65.6629 Y-17.8662
G01 X65.6284 Y-17.8577
G01 X65.5969 Y-17.8528
G01 X65.5859 Y-17.8516
G01 X65.5504 Y-17.8500
G01 X64.4459 Y-17.8500
G01 X64.4104 Y-17.8519
G01 X64.3753 Y-17.8570
G01 X64.3645 Y-17.8593
G01 X64.3407 Y-17.8652
G01 X64.3266 Y-17.8695
G01 X64.2967 Y-17.8804
G01 X64.2612 Y-17.8972
G01 X64.2276 Y-17.9173
G01 X64.1990 Y-17.9384
G01 X64.1905 Y-17.9455
G01 X64.1724 Y-17.9620
G01 X64.1620 Y-17.9724
G01 X64.1455 Y-17.9905
G01 X64.1384 Y-17.9990
G01 X64.1216 Y-18.0216
G01 X64.1153 Y-18.0307
G01 X64.0972 Y-18.0612
G01 X64.0819 Y-18.0933
G01 X64.0778 Y-18.1035
G01 X64.0683 Y-18.1301
G01 X64.0630 Y-18.1499
G01 X63.1000 Y-18.1499
G01 X63.0628 Y-18.1515
G01 X63.0491 Y-18.1396
G01 X63.0260 Y-18.1225
G01 X63.0169 Y-18.1162
G01 X62.9859 Y-18.0978
G01 X62.9567 Y-18.0838
G01 X62.9466 Y-18.0795
G01 X62.9126 Y-18.0674
G01 X62.8740 Y-18.0578
G01 X62.8347 Y-18.0520
G01 X62.8024 Y-18.0502
G01 X61.6050 Y-18.0500
G01 X61.5676 Y-18.0517
G01 X61.5340 Y-18.0563
G01 X61.5238 Y-18.0583
G01 X61.4975 Y-18.0646
G01 X61.4652 Y-18.0750
G01 X61.4555 Y-18.0786
G01 X61.4307 Y-18.0895
G01 X61.4183 Y-18.0957
G01 X61.3918 Y-18.1107
G01 X61.3609 Y-18.1318
G01 X61.3322 Y-18.1557
G01 X61.3081 Y-18.1796
G01 X61.3012 Y-18.1874
G01 X61.2818 Y-18.2109
G01 X61.2607 Y-18.2418
G01 X61.2425 Y-18.2745
G01 X61.2300 Y-18.3023
G01 X61.2261 Y-18.3119
G01 X61.2175 Y-18.3375
G01 X61.2146 Y-18.3475
G01 X61.2076 Y-18.3772
G01 X61.2058 Y-18.3874
G01 X61.2021 Y-18.4142
G01 X61.2012 Y-18.4245
G01 X61.2000 Y-18.4515
G01 X61.2000 Y-18.4877
G01 X61.1894 Y-18.4917
G01 X61.1827 Y-18.4947
G01 X61.1472 Y-18.5115
G01 X61.1374 Y-18.5165
G01 X61.0943 Y-18.5425
G01 X61.0538 Y-18.5724
G01 X61.0454 Y-18.5795
G01 X61.0109 Y-18.6109
G01 X60.8720 Y-18.7499
G01 X59.1500 Y-18.7498
G01 X59.1498 Y-18.6422
G01 X59.1486 Y-18.6178
G01 X59.1477 Y-18.6068
G01 X59.1436 Y-18.5789
G01 X59.1416 Y-18.5680
G01 X59.1328 Y-18.5336
G01 X59.1196 Y-18.4967
G01 X59.1028 Y-18.4612
G01 X59.0866 Y-18.4338
G01 X59.0806 Y-18.4246
G01 X59.0638 Y-18.4019
G01 X59.0569 Y-18.3933
G01 X59.0355 Y-18.3697
G01 X59.0276 Y-18.3620
G01 X59.0067 Y-18.3431
G01 X58.9981 Y-18.3362
G01 X58.9724 Y-18.3173
G01 X58.9452 Y-18.3008
G01 X58.9355 Y-18.2955
G01 X58.9067 Y-18.2819
G01 X58.8965 Y-18.2778
G01 X58.8699 Y-18.2683
G01 X58.8593 Y-18.2652
G01 X58.8284 Y-18.2577
G01 X58.7932 Y-18.2523
G01 X58.7822 Y-18.2514
G01 X58.7504 Y-18.2500
G01 X58.0496 Y-18.2500
G01 X58.0104 Y-18.2519
G01 X57.9716 Y-18.2577
G01 X57.9407 Y-18.2652
G01 X57.9266 Y-18.2695
G01 X57.9001 Y-18.2791
G01 X57.8899 Y-18.2834
G01 X57.8612 Y-18.2972
G01 X57.8276 Y-18.3173
G01 X57.7961 Y-18.3407
G01 X57.7697 Y-18.3645
G01 X57.7620 Y-18.3724
G01 X57.7431 Y-18.3933
G01 X57.7362 Y-18.4019
G01 X57.7216 Y-18.4216
G01 X57.7153 Y-18.4307
G01 X57.7008 Y-18.4548
G01 X57.6939 Y-18.4678
G01 X57.6834 Y-18.4899
G01 X57.6791 Y-18.5001
G01 X57.6695 Y-18.5266
G01 X57.6662 Y-18.5371
G01 X57.6577 Y-18.5716
G01 X57.6528 Y-18.6031
G01 X57.6516 Y-18.6141
G01 X57.6500 Y-18.6496
G01 X57.6500 Y-19.7504
G01 X57.6514 Y-19.7822
G01 X57.6528 Y-19.7969
G01 X57.6577 Y-19.8284
G01 X57.6652 Y-19.8593
G01 X57.6683 Y-19.8699
G01 X57.6804 Y-19.9033
G01 X57.6939 Y-19.9322
G01 X57.6990 Y-19.9420
G01 X57.7153 Y-19.9693
G01 X57.7216 Y-19.9784
G01 X57.7407 Y-20.0039
G01 X57.7620 Y-20.0276
G01 X57.7724 Y-20.0380
G01 X57.7961 Y-20.0593
G01 X57.8216 Y-20.0784
G01 X57.8307 Y-20.0847
G01 X57.8580 Y-20.1010
G01 X57.8678 Y-20.1061
G01 X57.8967 Y-20.1196
G01 X57.9266 Y-20.1305
G01 X57.9371 Y-20.1338
G01 X57.9680 Y-20.1416
G01 X57.9789 Y-20.1436
G01 X58.0104 Y-20.1481
G01 X58.0422 Y-20.1498
G01 X58.7504 Y-20.1500
G01 X58.7896 Y-20.1481
G01 X58.8284 Y-20.1423
G01 X58.8664 Y-20.1328
G01 X58.9033 Y-20.1196
G01 X58.9388 Y-20.1028
G01 X58.9724 Y-20.0827
G01 X59.0039 Y-20.0593
G01 X59.0330 Y-20.0330
G01 X59.0593 Y-20.0039
G01 X59.0827 Y-19.9724
G01 X59.1028 Y-19.9388
G01 X59.1196 Y-19.9033
G01 X59.1328 Y-19.8664
G01 X59.1423 Y-19.8284
G01 X59.1481 Y-19.7896
G01 X59.1498 Y-19.7578
G01 X59.1500 Y-19.6501
G01 X60.0708 Y-19.6502
G01 X60.0604 Y-19.6927
G01 X60.0534 Y-19.7388
G01 X60.0519 Y-19.7534
G01 X60.0498 Y-19.8000
G01 X60.0498 Y-21.8604
G01 X60.0403 Y-21.8814
G01 X60.0258 Y-21.9218
G01 X60.0225 Y-21.9324
G01 X60.0167 Y-21.9552
G01 X56.1509 Y-25.8209
G01 X56.1195 Y-25.8554
G01 X56.1124 Y-25.8638
G01 X56.0825 Y-25.9043
G01 X56.0584 Y-25.9442
G01 X56.0515 Y-25.9572
G01 X56.0317 Y-25.9994
G01 X56.0158 Y-26.0433
G01 X56.0115 Y-26.0574
G01 X56.0004 Y-26.1027
G01 X55.9924 Y-26.1561
G01 X55.9898 Y-26.2100
G01 X55.9898 Y-27.1804
G00 Z0.7000
G00 X38.3700 Y-41.4285
G01 F30.00
G01 Z-0.0700
G01 F120.00
G01 X38.3529 Y-41.4260
G01 X38.3367 Y-41.4244
G01 X38.3162 Y-41.4233
G01 X38.3000 Y-41.4229
G01 X38.2838 Y-41.4233
G01 X38.2633 Y-41.4244
G01 X38.2471 Y-41.4260
G01 X38.2300 Y-41.4285
G01 X38.2300 Y-40.3715
G01 X38.2471 Y-40.3740
G01 X38.2633 Y-40.3756
G01 X38.2838 Y-40.3767
G01 X38.3000 Y-40.3771
G01 X38.3162 Y-40.3767
G01 X38.3367 Y-40.3756
G01 X38.3529 Y-40.3740
G01 X38.3700 Y-40.3715
G01 X38.3700 Y-41.4285
G00 Z0.7000
G00 X34.4474 Y-41.3498
G01 F30.00
G01 Z-0.0700
G01 F120.00
G01 X34.5576 Y-41.3442
G01 X34.6669 Y-41.3282
G01 X34.6813 Y-41.3253
G01 X34.7812 Y-41.3003
G01 X34.7953 Y-41.2960
G01 X34.8992 Y-41.2587
G01 X35.0057 Y-41.2083
G01 X35.1067 Y-41.1478
G01 X35.1898 Y-41.0864
G01 X35.4217 Y-41.3183
G01 X35.4544 Y-41.3480
G01 X35.4899 Y-41.3743
G01 X35.5278 Y-41.3970
G01 X35.5677 Y-41.4159
G01 X35.6023 Y-41.4285
G01 X35.6129 Y-41.4318
G01 X35.6486 Y-41.4407
G01 X35.6594 Y-41.4428
G01 X35.6959 Y-41.4480
G01 X35.7363 Y-41.4501
G01 X36.5500 Y-41.4502
G01 X36.5519 Y-41.4896
G01 X36.5564 Y-41.5211
G01 X36.5593 Y-41.5355
G01 X36.5662 Y-41.5629
G01 X36.5695 Y-41.5734
G01 X36.5804 Y-41.6033
G01 X36.5972 Y-41.6388
G01 X36.6173 Y-41.6724
G01 X36.6362 Y-41.6981
G01 X36.6431 Y-41.7067
G01 X36.6620 Y-41.7276
G01 X36.6724 Y-41.7380
G01 X36.6961 Y-41.7593
G01 X36.7276 Y-41.7827
G01 X36.7612 Y-41.8028
G01 X36.7899 Y-41.8166
G01 X36.8035 Y-41.8222
G01 X36.8266 Y-41.8305
G01 X36.8371 Y-41.8338
G01 X36.8716 Y-41.8423
G01 X36.9031 Y-41.8472
G01 X36.9141 Y-41.8484
G01 X36.9459 Y-41.8500
G01 X37.6504 Y-41.8500
G01 X37.6822 Y-41.8486
G01 X37.6969 Y-41.8472
G01 X37.7284 Y-41.8423
G01 X37.7664 Y-41.8328
G01 X37.8033 Y-41.8196
G01 X37.8322 Y-41.8061
G01 X37.8452 Y-41.7992
G01 X37.8724 Y-41.7827
G01 X37.8981 Y-41.7638
G01 X37.9095 Y-41.7545
G01 X37.9330 Y-41.7330
G01 X37.9545 Y-41.7095
G01 X37.9638 Y-41.6981
G01 X37.9827 Y-41.6724
G01 X37.9992 Y-41.6452
G01 X38.0061 Y-41.6322
G01 X38.0196 Y-41.6033
G01 X38.0317 Y-41.5699
G01 X38.0348 Y-41.5593
G01 X38.0407 Y-41.5355
G01 X38.0430 Y-41.5247
G01 X38.0481 Y-41.4896
G01 X38.0500 Y-41.4504
G01 X38.0500 Y-40.3496
G01 X38.0486 Y-40.3178
G01 X38.0472 Y-40.3031
G01 X38.0423 Y-40.2716
G01 X38.0328 Y-40.2336
G01 X38.0222 Y-40.2035
G01 X38.0166 Y-40.1899
G01 X38.0028 Y-40.1612
G01 X37.9866 Y-40.1338
G01 X37.9784 Y-40.1216
G01 X37.9593 Y-40.0961
G01 X37.9380 Y-40.0724
G01 X37.9276 Y-40.0620
G01 X37.9039 Y-40.0407
G01 X37.8784 Y-40.0216
G01 X37.8662 Y-40.0134
G01 X37.8388 Y-39.9972
G01 X37.8101 Y-39.9834
G01 X37.7965 Y-39.9778
G01 X37.7664 Y-39.9672
G01 X37.7355 Y-39.9593
G01 X37.7211 Y-39.9564
G01 X37.6896 Y-39.9519
G01 X37.6504 Y-39.9500
G01 X36.9496 Y-39.9500
G01 X36.9104 Y-39.9519
G01 X36.8789 Y-39.9564
G01 X36.8645 Y-39.9593
G01 X36.8336 Y-39.9672
G01 X36.7967 Y-39.9804
G01 X36.7612 Y-39.9972
G01 X36.7338 Y-40.0134
G01 X36.7246 Y-40.0194
G01 X36.7019 Y-40.0362
G01 X36.6933 Y-40.0431
G01 X36.6697 Y-40.0645
G01 X36.6620 Y-40.0724
G01 X36.6407 Y-40.0961
G01 X36.6216 Y-40.1216
G01 X36.6153 Y-40.1307
G01 X36.5990 Y-40.1580
G01 X36.5939 Y-40.1678
G01 X36.5804 Y-40.1967
G01 X36.5672 Y-40.2336
G01 X36.5577 Y-40.2716
G01 X36.5523 Y-40.3068
G01 X36.5514 Y-40.3178
G01 X36.5500 Y-40.3496
G01 X36.5500 Y-40.5499
G01 X35.9265 Y-40.5499
G01 X35.6349 Y-40.2583
G01 X35.6400 Y-40.1500
G01 X35.6400 Y-39.2463
G01 X35.6342 Y-39.1324
G01 X35.6182 Y-39.0231
G01 X35.6153 Y-39.0087
G01 X35.5883 Y-38.9017
G01 X35.5513 Y-38.7976
G01 X35.5457 Y-38.7840
G01 X35.5016 Y-38.6909
G01 X35.4947 Y-38.6779
G01 X35.4378 Y-38.5833
G01 X35.3721 Y-38.4945
G01 X35.3628 Y-38.4832
G01 X35.2936 Y-38.4068
G01 X35.2832 Y-38.3964
G01 X35.2013 Y-38.3224
G01 X35.1067 Y-38.2522
G01 X35.0121 Y-38.1953
G01 X34.9991 Y-38.1884
G01 X34.8992 Y-38.1413
G01 X34.7883 Y-38.1017
G01 X34.6741 Y-38.0731
G01 X34.5649 Y-38.0567
G01 X34.5503 Y-38.0552
G01 X34.4400 Y-38.0500
G01 X34.3297 Y-38.0552
G01 X34.3151 Y-38.0567
G01 X34.2059 Y-38.0731
G01 X34.0917 Y-38.1017
G01 X33.9808 Y-38.1413
G01 X33.8809 Y-38.1884
G01 X33.8679 Y-38.1953
G01 X33.7733 Y-38.2522
G01 X33.6845 Y-38.3179
G01 X33.6732 Y-38.3272
G01 X33.5968 Y-38.3964
G01 X33.5864 Y-38.4068
G01 X33.5124 Y-38.4887
G01 X33.4422 Y-38.5833
G01 X33.3817 Y-38.6843
G01 X33.3343 Y-38.7840
G01 X33.3300 Y-38.7942
G01 X33.2917 Y-38.9017
G01 X33.2647 Y-39.0087
G01 X33.2618 Y-39.0231
G01 X33.2467 Y-39.1251
G01 X33.2452 Y-39.1397
G01 X33.2400 Y-39.2500
G01 X33.2400 Y-40.1500
G01 X33.2458 Y-40.2676
G01 X33.2631 Y-40.3841
G01 X33.2917 Y-40.4983
G01 X33.3313 Y-40.6092
G01 X33.3817 Y-40.7157
G01 X33.4422 Y-40.8167
G01 X33.5124 Y-40.9113
G01 X33.5915 Y-40.9985
G01 X33.6732 Y-41.0728
G01 X33.6845 Y-41.0821
G01 X33.7733 Y-41.1478
G01 X33.8679 Y-41.2047
G01 X33.8809 Y-41.2116
G01 X33.9740 Y-41.2557
G01 X33.9876 Y-41.2613
G01 X34.0917 Y-41.2983
G01 X34.2059 Y-41.3269
G01 X34.3224 Y-41.3442
G01 X34.4326 Y-41.3498
G01 X34.4474 Y-41.3498
G00 Z0.7000
G00 X33.4502 Y-34.9674
G01 F30.00
G01 Z-0.0700
G01 F120.00
G01 X33.4519 Y-34.9982
G01 X33.4575 Y-35.0361
G01 X33.4668 Y-35.0732
G01 X33.4770 Y-35.1024
G01 X33.4827 Y-35.1160
G01 X33.4927 Y-35.1373
G01 X33.4978 Y-35.1471
G01 X33.5157 Y-35.1767
G01 X33.5362 Y-35.2045
G01 X33.5433 Y-35.2130
G01 X33.5592 Y-35.2304
G01 X33.5696 Y-35.2408
G01 X33.5926 Y-35.2615
G01 X33.6233 Y-35.2843
G01 X33.6562 Y-35.3039
G01 X33.6840 Y-35.3173
G01 X33.6976 Y-35.3230
G01 X33.7198 Y-35.3309
G01 X33.7303 Y-35.3342
G01 X33.7603 Y-35.3417
G01 X33.7712 Y-35.3438
G01 X33.8018 Y-35.3481
G01 X33.8363 Y-35.3500
G01 X34.8134 Y-35.3500
G01 X39.4134 Y-39.9500
G01 X38.9459 Y-39.9500
G01 X38.9104 Y-39.9519
G01 X38.8789 Y-39.9564
G01 X38.8645 Y-39.9593
G01 X38.8407 Y-39.9652
G01 X38.8301 Y-39.9683
G01 X38.8001 Y-39.9791
G01 X38.7899 Y-39.9834
G01 X38.7612 Y-39.9972
G01 X38.7338 Y-40.0134
G01 X38.7216 Y-40.0216
G01 X38.6961 Y-40.0407
G01 X38.6670 Y-40.0670
G01 X38.6455 Y-40.0905
G01 X38.6362 Y-40.1019
G01 X38.6173 Y-40.1276
G01 X38.6008 Y-40.1548
G01 X38.5939 Y-40.1678
G01 X38.5804 Y-40.1967
G01 X38.5672 Y-40.2336
G01 X38.5577 Y-40.2716
G01 X38.5528 Y-40.3031
G01 X38.5514 Y-40.3178
G01 X38.5500 Y-40.3496
G01 X38.5500 Y-41.4504
G01 X38.5519 Y-41.4896
G01 X38.5570 Y-41.5247
G01 X38.5593 Y-41.5355
G01 X38.5652 Y-41.5593
G01 X38.5683 Y-41.5699
G01 X38.5804 Y-41.6033
G01 X38.5939 Y-41.6322
G01 X38.6008 Y-41.6452
G01 X38.6173 Y-41.6724
G01 X38.6362 Y-41.6981
G01 X38.6455 Y-41.7095
G01 X38.6670 Y-41.7330
G01 X38.6905 Y-41.7545
G01 X38.7019 Y-41.7638
G01 X38.7276 Y-41.7827
G01 X38.7548 Y-41.7992
G01 X38.7678 Y-41.8061
G01 X38.7967 Y-41.8196
G01 X38.8301 Y-41.8317
G01 X38.8407 Y-41.8348
G01 X38.8645 Y-41.8407
G01 X38.8789 Y-41.8436
G01 X38.9104 Y-41.8481
G01 X38.9459 Y-41.8500
G01 X39.6504 Y-41.8500
G01 X39.6859 Y-41.8484
G01 X39.6969 Y-41.8472
G01 X39.7211 Y-41.8436
G01 X39.7355 Y-41.8407
G01 X39.7664 Y-41.8328
G01 X39.8033 Y-41.8196
G01 X39.8388 Y-41.8028
G01 X39.8662 Y-41.7866
G01 X39.8784 Y-41.7784
G01 X39.8981 Y-41.7638
G01 X39.9067 Y-41.7569
G01 X39.9330 Y-41.7330
G01 X39.9569 Y-41.7067
G01 X39.9638 Y-41.6981
G01 X39.9784 Y-41.6784
G01 X39.9866 Y-41.6662
G01 X40.0028 Y-41.6388
G01 X40.0196 Y-41.6033
G01 X40.0328 Y-41.5664
G01 X40.0416 Y-41.5320
G01 X40.0436 Y-41.5211
G01 X40.0481 Y-41.4896
G01 X40.0500 Y-41.4504
G01 X40.0500 Y-40.7866
G01 X40.1500 Y-40.6866
G01 X41.0817 Y-41.6183
G01 X41.1116 Y-41.6456
G01 X41.1202 Y-41.6525
G01 X41.1499 Y-41.6743
G01 X41.1814 Y-41.6934
G01 X41.1944 Y-41.7003
G01 X41.2244 Y-41.7144
G01 X41.2346 Y-41.7185
G01 X41.2693 Y-41.7308
G01 X41.3122 Y-41.7415
G01 X41.3559 Y-41.7480
G01 X41.3926 Y-41.7500
G01 X48.4074 Y-41.7500
G01 X48.4441 Y-41.7480
G01 X48.4806 Y-41.7428
G01 X48.4950 Y-41.7399
G01 X48.5307 Y-41.7308
G01 X48.5723 Y-41.7159
G01 X48.6056 Y-41.7003
G01 X48.6186 Y-41.6934
G01 X48.6439 Y-41.6782
G01 X48.6531 Y-41.6722
G01 X48.6856 Y-41.6480
G01 X48.7157 Y-41.6209
G01 X48.9865 Y-41.3501
G01 X49.9241 Y-41.3502
G01 X49.9318 Y-41.3599
G01 X49.9499 Y-41.3799
G01 X49.9578 Y-41.3876
G01 X49.9780 Y-41.4056
G01 X50.0056 Y-41.4260
G01 X50.0286 Y-41.4400
G01 X50.0383 Y-41.4454
G01 X50.0593 Y-41.4554
G01 X50.0695 Y-41.4597
G01 X50.0949 Y-41.4688
G01 X50.1055 Y-41.4719
G01 X50.1281 Y-41.4775
G01 X50.1390 Y-41.4795
G01 X50.1657 Y-41.4833
G01 X50.1926 Y-41.4848
G01 X51.8037 Y-41.4850
G01 X51.8343 Y-41.4833
G01 X51.8610 Y-41.4795
G01 X51.8755 Y-41.4767
G01 X51.8981 Y-41.4710
G01 X51.9051 Y-41.4688
G01 X51.9339 Y-41.4584
G01 X51.9617 Y-41.4454
G01 X51.9682 Y-41.4419
G01 X51.9882 Y-41.4300
G01 X52.0005 Y-41.4218
G01 X52.0220 Y-41.4056
G01 X52.0475 Y-41.3825
G01 X52.0706 Y-41.3570
G01 X52.0868 Y-41.3355
G01 X52.0950 Y-41.3232
G01 X52.1069 Y-41.3032
G01 X52.1104 Y-41.2967
G01 X52.1234 Y-41.2689
G01 X52.1338 Y-41.2401
G01 X52.1360 Y-41.2331
G01 X52.1417 Y-41.2105
G01 X52.1445 Y-41.1960
G01 X52.1483 Y-41.1693
G01 X52.1500 Y-41.1387
G01 X52.1500 Y-40.7313
G01 X52.1483 Y-40.7007
G01 X52.1433 Y-40.6667
G01 X52.1349 Y-40.6334
G01 X52.1247 Y-40.6045
G01 X52.1219 Y-40.5977
G01 X52.1120 Y-40.5766
G01 X52.1050 Y-40.5636
G01 X52.0910 Y-40.5406
G01 X52.0706 Y-40.5130
G01 X52.0501 Y-40.4901
G01 X52.0422 Y-40.4824
G01 X52.0220 Y-40.4644
G01 X51.9975 Y-40.4461
G01 X51.9914 Y-40.4420
G01 X51.9714 Y-40.4300
G01 X51.9584 Y-40.4230
G01 X51.9339 Y-40.4116
G01 X51.9051 Y-40.4012
G01 X51.8981 Y-40.3990
G01 X51.8755 Y-40.3933
G01 X51.8647 Y-40.3911
G01 X51.8343 Y-40.3867
G01 X51.8074 Y-40.3852
G01 X50.1963 Y-40.3850
G01 X50.1657 Y-40.3867
G01 X50.1390 Y-40.3905
G01 X50.1245 Y-40.3933
G01 X50.1019 Y-40.3990
G01 X50.0949 Y-40.4012
G01 X50.0661 Y-40.4116
G01 X50.0383 Y-40.4246
G01 X50.0318 Y-40.4281
G01 X50.0118 Y-40.4400
G01 X49.9973 Y-40.4499
G01 X48.8000 Y-40.4499
G01 X48.7632 Y-40.4515
G01 X48.7522 Y-40.4524
G01 X48.7122 Y-40.4585
G01 X48.6764 Y-40.4673
G01 X48.6658 Y-40.4703
G01 X48.6312 Y-40.4827
G01 X48.6210 Y-40.4871
G01 X48.5878 Y-40.5030
G01 X48.5561 Y-40.5218
G01 X48.5439 Y-40.5300
G01 X48.5144 Y-40.5520
G01 X48.4843 Y-40.5791
G01 X48.2135 Y-40.8499
G01 X41.5865 Y-40.8499
G01 X35.3500 Y-34.6134
G01 X35.3500 Y-34.2363
G01 X35.3487 Y-34.2091
G01 X35.3477 Y-34.1981
G01 X35.3432 Y-34.1675
G01 X35.3409 Y-34.1567
G01 X35.3332 Y-34.1268
G01 X35.3203 Y-34.0908
G01 X35.3039 Y-34.0562
G01 X35.2843 Y-34.0233
G01 X35.2615 Y-33.9926
G01 X35.2358 Y-33.9642
G01 X35.2074 Y-33.9385
G01 X35.1827 Y-33.9200
G01 X35.1705 Y-33.9118
G01 X35.1471 Y-33.8978
G01 X35.1373 Y-33.8927
G01 X35.1092 Y-33.8797
G01 X35.0732 Y-33.8668
G01 X35.0361 Y-33.8575
G01 X35.0055 Y-33.8528
G01 X34.9909 Y-33.8513
G01 X34.9600 Y-33.8500
G01 X33.8326 Y-33.8502
G01 X33.8018 Y-33.8519
G01 X33.7712 Y-33.8562
G01 X33.7567 Y-33.8591
G01 X33.7268 Y-33.8668
G01 X33.6976 Y-33.8770
G01 X33.6840 Y-33.8827
G01 X33.6562 Y-33.8961
G01 X33.6295 Y-33.9118
G01 X33.6173 Y-33.9200
G01 X33.5926 Y-33.9385
G01 X33.5642 Y-33.9642
G01 X33.5385 Y-33.9926
G01 X33.5157 Y-34.0233
G01 X33.4961 Y-34.0562
G01 X33.4797 Y-34.0908
G01 X33.4668 Y-34.1268
G01 X33.4591 Y-34.1567
G01 X33.4568 Y-34.1675
G01 X33.4519 Y-34.2018
G01 X33.4500 Y-34.2400
G01 X33.4502 Y-34.9674
G00 Z0.7000
G00 X26.3487 Y-11.5135
G01 F30.00
G01 Z-0.0700
G01 F120.00
G01 X26.3474 Y-11.5000
G01 X26.3580 Y-11.3922
G01 X26.3895 Y-11.2885
G01 X26.4405 Y-11.1930
G01 X26.5092 Y-11.1093
G01 X26.5225 Y-11.0983
G01 X26.5399 Y-11.0824
G01 X30.0113 Y-7.6110
G01 X30.0272 Y-7.5936
G01 X30.0341 Y-7.5850
G01 X30.0458 Y-7.5690
G01 X30.0597 Y-7.5457
G01 X30.0699 Y-7.5245
G01 X30.0740 Y-7.5142
G01 X30.0805 Y-7.4955
G01 X30.0855 Y-7.4763
G01 X30.0878 Y-7.4655
G01 X30.0907 Y-7.4459
G01 X30.0917 Y-7.4349
G01 X30.0924 Y-7.4151
G01 X30.0917 Y-7.3952
G01 X30.0907 Y-7.3842
G01 X30.0878 Y-7.3646
G01 X30.0855 Y-7.3538
G01 X30.0805 Y-7.3346
G01 X30.0740 Y-7.3159
G01 X30.0699 Y-7.3057
G01 X30.0614 Y-7.2877
G01 X30.0561 Y-7.2780
G01 X30.0457 Y-7.2611
G01 X30.0341 Y-7.2451
G01 X30.0272 Y-7.2365
G01 X30.0113 Y-7.2191
G01 X29.9960 Y-7.2051
G01 X29.9728 Y-7.1769
G01 X29.9595 Y-7.1622
G01 X29.9543 Y-7.1570
G01 X29.9396 Y-7.1437
G01 X29.9310 Y-7.1368
G01 X29.9149 Y-7.1251
G01 X29.8980 Y-7.1147
G01 X29.8883 Y-7.1094
G01 X29.8704 Y-7.1009
G01 X29.8602 Y-7.0968
G01 X29.8414 Y-7.0903
G01 X29.8222 Y-7.0853
G01 X29.8078 Y-7.0825
G01 X29.7845 Y-7.0794
G01 X29.7610 Y-7.0784
G01 X29.7339 Y-7.0797
G01 X29.7070 Y-7.0837
G01 X29.6841 Y-7.0893
G01 X29.6618 Y-7.0968
G01 X29.6482 Y-7.1025
G01 X29.6272 Y-7.1129
G01 X29.6102 Y-7.1231
G01 X29.6040 Y-7.1272
G01 X29.5852 Y-7.1413
G01 X29.5651 Y-7.1596
G01 X29.5468 Y-7.1797
G01 X29.5349 Y-7.1955
G01 X29.5286 Y-7.2046
G01 X29.5203 Y-7.2185
G01 X29.5088 Y-7.2395
G01 X29.4776 Y-7.2776
G01 X29.4395 Y-7.3088
G01 X29.3961 Y-7.3320
G01 X29.3490 Y-7.3463
G01 X29.2882 Y-7.3523
G01 X29.2501 Y-7.3518
G01 X29.2501 Y-7.1963
G01 X29.2724 Y-7.1827
G01 X29.3010 Y-7.1616
G01 X29.3095 Y-7.1545
G01 X29.3330 Y-7.1330
G01 X29.3545 Y-7.1095
G01 X29.3638 Y-7.0981
G01 X29.3827 Y-7.0724
G01 X29.4010 Y-7.0420
G01 X29.4061 Y-7.0322
G01 X29.4196 Y-7.0033
G01 X29.4305 Y-6.9734
G01 X29.4348 Y-6.9593
G01 X29.4423 Y-6.9284
G01 X29.4472 Y-6.8969
G01 X29.4486 Y-6.8822
G01 X29.4500 Y-6.8504
G01 X29.4500 Y-5.7496
G01 X29.4488 Y-5.7196
G01 X29.4479 Y-5.7093
G01 X29.4438 Y-5.6796
G01 X29.4418 Y-5.6694
G01 X29.4347 Y-5.6402
G01 X29.4254 Y-5.6118
G01 X29.4204 Y-5.5988
G01 X29.4081 Y-5.5715
G01 X29.3937 Y-5.5452
G01 X29.3883 Y-5.5363
G01 X29.3693 Y-5.5088
G01 X29.3503 Y-5.4856
G01 X29.3433 Y-5.4779
G01 X29.3221 Y-5.4567
G01 X29.3144 Y-5.4497
G01 X29.2884 Y-5.4287
G01 X29.2637 Y-5.4117
G01 X29.2501 Y-5.4037
G01 X29.2501 Y-5.2482
G01 X29.2882 Y-5.2477
G01 X29.3490 Y-5.2537
G01 X29.3961 Y-5.2680
G01 X29.4395 Y-5.2912
G01 X29.4776 Y-5.3224
G01 X29.5088 Y-5.3605
G01 X29.5184 Y-5.3784
G01 X29.5286 Y-5.3954
G01 X29.5423 Y-5.4145
G01 X29.5492 Y-5.4231
G01 X29.5651 Y-5.4404
G01 X29.5824 Y-5.4563
G01 X29.5910 Y-5.4632
G01 X29.6102 Y-5.4769
G01 X29.6304 Y-5.4889
G01 X29.6550 Y-5.5005
G01 X29.6806 Y-5.5097
G01 X29.6998 Y-5.5147
G01 X29.7142 Y-5.5175
G01 X29.7375 Y-5.5206
G01 X29.7610 Y-5.5216
G01 X29.7845 Y-5.5206
G01 X29.7955 Y-5.5194
G01 X29.8151 Y-5.5163
G01 X29.8343 Y-5.5116
G01 X29.8449 Y-5.5086
G01 X29.8636 Y-5.5019
G01 X29.8738 Y-5.4975
G01 X29.8916 Y-5.4889
G01 X29.9087 Y-5.4788
G01 X29.9180 Y-5.4728
G01 X29.9339 Y-5.4610
G01 X29.9396 Y-5.4563
G01 X29.9543 Y-5.4430
G01 X29.9595 Y-5.4378
G01 X29.9728 Y-5.4231
G01 X29.9955 Y-5.3955
G01 X30.0714 Y-5.3332
G01 X30.1580 Y-5.2870
G01 X30.2604 Y-5.2557
G01 X30.2824 Y-5.2474
G01 X30.3003 Y-5.2389
G01 X30.3068 Y-5.2355
G01 X30.3238 Y-5.2253
G01 X30.3329 Y-5.2190
G01 X30.3488 Y-5.2071
G01 X30.3636 Y-5.1939
G01 X30.3715 Y-5.1862
G01 X30.3848 Y-5.1715
G01 X30.3895 Y-5.1658
G01 X30.4013 Y-5.1498
G01 X30.4073 Y-5.1406
G01 X30.4173 Y-5.1235
G01 X30.4275 Y-5.1023
G01 X30.4316 Y-5.0920
G01 X30.4381 Y-5.0733
G01 X30.4431 Y-5.0541
G01 X30.4454 Y-5.0433
G01 X30.4487 Y-5.0200
G01 X30.4501 Y-4.9929
G01 X30.4501 Y-4.4406
G01 X30.4490 Y-4.4171
G01 X30.4474 Y-4.4000
G01 X30.4580 Y-4.2922
G01 X30.4895 Y-4.1885
G01 X30.5405 Y-4.0930
G01 X30.6093 Y-4.0093
G01 X30.6225 Y-3.9983
G01 X30.6399 Y-3.9824
G01 X30.9689 Y-3.6533
G01 X30.9846 Y-3.6358
G01 X31.0008 Y-3.6139
G01 X31.0148 Y-3.5906
G01 X31.0250 Y-3.5694
G01 X31.0278 Y-3.5626
G01 X31.0345 Y-3.5439
G01 X31.0366 Y-3.5369
G01 X31.0414 Y-3.5177
G01 X31.0429 Y-3.5104
G01 X31.0458 Y-3.4908
G01 X31.0473 Y-3.4674
G01 X31.0475 Y-2.8632
G01 X31.0585 Y-2.7519
G01 X31.0870 Y-2.6580
G01 X31.1332 Y-2.5714
G01 X31.1955 Y-2.4955
G01 X31.2714 Y-2.4332
G01 X31.3580 Y-2.3870
G01 X31.4519 Y-2.3585
G01 X31.5632 Y-2.3475
G01 X32.2368 Y-2.3475
G01 X32.3481 Y-2.3585
G01 X32.4420 Y-2.3870
G01 X32.5286 Y-2.4332
G01 X32.6044 Y-2.4955
G01 X32.6760 Y-2.5829
G01 X32.6858 Y-2.5958
G01 X32.7015 Y-2.6133
G01 X32.7094 Y-2.6210
G01 X32.7242 Y-2.6342
G01 X32.7430 Y-2.6483
G01 X32.7523 Y-2.6543
G01 X32.7694 Y-2.6644
G01 X32.7906 Y-2.6745
G01 X32.8008 Y-2.6786
G01 X32.8231 Y-2.6862
G01 X32.8459 Y-2.6918
G01 X32.8692 Y-2.6953
G01 X32.8802 Y-2.6963
G01 X32.9037 Y-2.6970
G01 X32.9272 Y-2.6958
G01 X32.9468 Y-2.6930
G01 X32.9577 Y-2.6910
G01 X32.9804 Y-2.6852
G01 X33.0026 Y-2.6774
G01 X33.0128 Y-2.6730
G01 X33.0306 Y-2.6644
G01 X33.0508 Y-2.6524
G01 X33.0600 Y-2.6461
G01 X33.0758 Y-2.6342
G01 X33.0933 Y-2.6185
G01 X33.1010 Y-2.6106
G01 X33.1142 Y-2.5958
G01 X33.1254 Y-2.5810
G01 X33.1955 Y-2.4955
G01 X33.2714 Y-2.4332
G01 X33.3580 Y-2.3870
G01 X33.4519 Y-2.3585
G01 X33.5632 Y-2.3475
G01 X34.2368 Y-2.3475
G01 X34.3481 Y-2.3585
G01 X34.4420 Y-2.3870
G01 X34.5286 Y-2.4332
G01 X34.6045 Y-2.4955
G01 X34.6668 Y-2.5714
G01 X34.7130 Y-2.6580
G01 X34.7420 Y-2.7534
G01 X34.7498 Y-2.7756
G01 X34.7541 Y-2.7858
G01 X34.7628 Y-2.8036
G01 X34.7767 Y-2.8269
G01 X34.7906 Y-2.8459
G01 X34.7978 Y-2.8543
G01 X34.8112 Y-2.8689
G01 X34.8285 Y-2.8848
G01 X34.8372 Y-2.8917
G01 X34.8532 Y-2.9034
G01 X34.8733 Y-2.9156
G01 X34.8831 Y-2.9207
G01 X34.9045 Y-2.9303
G01 X34.9232 Y-2.9370
G01 X34.9302 Y-2.9392
G01 X34.9495 Y-2.9440
G01 X34.9567 Y-2.9454
G01 X34.9763 Y-2.9483
G01 X34.9873 Y-2.9493
G01 X35.0071 Y-2.9501
G01 X35.4594 Y-2.9501
G01 X35.4829 Y-2.9490
G01 X35.5000 Y-2.9474
G01 X35.6078 Y-2.9580
G01 X35.7115 Y-2.9895
G01 X35.8070 Y-3.0405
G01 X35.8907 Y-3.1093
G01 X35.9017 Y-3.1225
G01 X35.9176 Y-3.1399
G01 X37.5549 Y-4.7771
G01 X37.5696 Y-4.7905
G01 X37.5753 Y-4.7951
G01 X37.5912 Y-4.8069
G01 X37.5974 Y-4.8110
G01 X37.6144 Y-4.8212
G01 X37.6209 Y-4.8247
G01 X37.6388 Y-4.8332
G01 X37.6456 Y-4.8360
G01 X37.6643 Y-4.8427
G01 X37.6713 Y-4.8448
G01 X37.6906 Y-4.8496
G01 X37.6978 Y-4.8511
G01 X37.7174 Y-4.8540
G01 X37.7247 Y-4.8547
G01 X37.7445 Y-4.8557
G01 X37.7519 Y-4.8557
G01 X37.7754 Y-4.8544
G01 X37.7986 Y-4.8511
G01 X37.8094 Y-4.8488
G01 X37.8321 Y-4.8427
G01 X37.8542 Y-4.8346
G01 X37.8755 Y-4.8247
G01 X37.8959 Y-4.8130
G01 X37.9082 Y-4.8048
G01 X37.9240 Y-4.7928
G01 X37.9388 Y-4.7796
G01 X37.9467 Y-4.7719
G01 X37.9576 Y-4.7600
G01 X38.0489 Y-4.6489
G01 X38.1016 Y-4.6057
G01 X38.1163 Y-4.5924
G01 X38.1240 Y-4.5845
G01 X38.1348 Y-4.5725
G01 X38.1417 Y-4.5638
G01 X38.1534 Y-4.5478
G01 X38.1637 Y-4.5309
G01 X38.1690 Y-4.5212
G01 X38.1775 Y-4.5033
G01 X38.1803 Y-4.4965
G01 X38.1870 Y-4.4778
G01 X38.1892 Y-4.4708
G01 X38.1940 Y-4.4515
G01 X38.1954 Y-4.4443
G01 X38.1983 Y-4.4247
G01 X38.1990 Y-4.4174
G01 X38.2000 Y-4.3976
G01 X38.2000 Y-4.3629
G01 X38.1990 Y-4.3431
G01 X38.1983 Y-4.3357
G01 X38.1954 Y-4.3161
G01 X38.1931 Y-4.3053
G01 X38.1881 Y-4.2861
G01 X38.1816 Y-4.2674
G01 X38.1775 Y-4.2571
G01 X38.1707 Y-4.2425
G01 X38.1656 Y-4.2327
G01 X38.1554 Y-4.2157
G01 X38.1513 Y-4.2096
G01 X38.1395 Y-4.1937
G01 X38.1324 Y-4.1852
G01 X38.1189 Y-4.1706
G01 X38.0988 Y-4.1524
G01 X38.0769 Y-4.1362
G01 X38.0600 Y-4.1258
G01 X38.0470 Y-4.1189
G01 X38.0256 Y-4.1092
G01 X38.0069 Y-4.1025
G01 X37.9963 Y-4.0995
G01 X37.9771 Y-4.0948
G01 X37.9571 Y-4.0917
G01 X37.8613 Y-4.0626
G01 X37.7738 Y-4.0158
G01 X37.6971 Y-3.9529
G01 X37.6342 Y-3.8762
G01 X37.5874 Y-3.7887
G01 X37.5586 Y-3.6937
G01 X37.5475 Y-3.5814
G01 X37.5475 Y-2.4186
G01 X37.5586 Y-2.3063
G01 X37.5874 Y-2.2113
G01 X37.6342 Y-2.1238
G01 X37.6971 Y-2.0471
G01 X37.7738 Y-1.9842
G01 X37.8613 Y-1.9374
G01 X37.9563 Y-1.9086
G01 X38.0686 Y-1.8975
G01 X40.1314 Y-1.8975
G01 X40.2437 Y-1.9086
G01 X40.3387 Y-1.9374
G01 X40.4262 Y-1.9842
G01 X40.5029 Y-2.0471
G01 X40.5658 Y-2.1238
G01 X40.6126 Y-2.2113
G01 X40.6414 Y-2.3063
G01 X40.6525 Y-2.4186
G01 X40.6525 Y-3.5814
G01 X40.6414 Y-3.6937
G01 X40.6126 Y-3.7887
G01 X40.5658 Y-3.8762
G01 X40.5029 Y-3.9529
G01 X40.4262 Y-4.0158
G01 X40.3813 Y-4.0399
G01 X40.3642 Y-4.0499
G01 X40.3549 Y-4.0559
G01 X40.3361 Y-4.0700
G01 X40.3186 Y-4.0857
G01 X40.3109 Y-4.0936
G01 X40.2977 Y-4.1084
G01 X40.2815 Y-4.1303
G01 X40.2675 Y-4.1536
G01 X40.2589 Y-4.1715
G01 X40.2532 Y-4.1851
G01 X40.2457 Y-4.2073
G01 X40.2401 Y-4.2302
G01 X40.2365 Y-4.2534
G01 X40.2350 Y-4.2769
G01 X40.2350 Y-4.2916
G01 X40.2361 Y-4.3114
G01 X40.2401 Y-4.3383
G01 X40.2467 Y-4.3646
G01 X40.2545 Y-4.3868
G01 X40.2642 Y-4.4082
G01 X40.2711 Y-4.4212
G01 X40.2836 Y-4.4412
G01 X40.2954 Y-4.4571
G01 X40.3001 Y-4.4628
G01 X40.3134 Y-4.4775
G01 X40.3213 Y-4.4852
G01 X40.3361 Y-4.4984
G01 X40.3519 Y-4.5103
G01 X40.3610 Y-4.5166
G01 X40.3780 Y-4.5268
G01 X40.4475 Y-4.5640
G01 X40.5511 Y-4.6489
G01 X40.6360 Y-4.7525
G01 X40.6991 Y-4.8706
G01 X40.7380 Y-4.9987
G01 X40.7525 Y-5.1456
G01 X40.7525 Y-6.8544
G01 X40.7380 Y-7.0013
G01 X40.6991 Y-7.1294
G01 X40.6360 Y-7.2475
G01 X40.5511 Y-7.3511
G01 X40.4475 Y-7.4360
G01 X40.3294 Y-7.4991
G01 X40.2013 Y-7.5380
G01 X40.0544 Y-7.5525
G01 X38.5456 Y-7.5525
G01 X38.3987 Y-7.5380
G01 X38.2706 Y-7.4991
G01 X38.1525 Y-7.4360
G01 X38.0489 Y-7.3511
G01 X37.9640 Y-7.2475
G01 X37.9009 Y-7.1294
G01 X37.8620 Y-7.0013
G01 X37.8475 Y-6.8544
G01 X37.8475 Y-6.7044
G01 X37.8462 Y-6.6810
G01 X37.8422 Y-6.6541
G01 X37.8366 Y-6.6312
G01 X37.8333 Y-6.6207
G01 X37.8264 Y-6.6021
G01 X37.8181 Y-6.5841
G01 X37.8130 Y-6.5743
G01 X37.8008 Y-6.5542
G01 X37.7892 Y-6.5382
G01 X37.7823 Y-6.5295
G01 X37.7664 Y-6.5122
G01 X37.7462 Y-6.4940
G01 X37.7304 Y-6.4820
G01 X37.7213 Y-6.4757
G01 X37.7043 Y-6.4656
G01 X37.6930 Y-6.4595
G01 X37.6093 Y-6.3907
G01 X37.5983 Y-6.3775
G01 X37.5824 Y-6.3601
G01 X35.3534 Y-4.1311
G01 X35.3332 Y-4.1128
G01 X35.3114 Y-4.0966
G01 X35.2881 Y-4.0827
G01 X35.2669 Y-4.0725
G01 X35.2566 Y-4.0684
G01 X35.2379 Y-4.0619
G01 X35.2115 Y-4.0553
G01 X35.1846 Y-4.0513
G01 X35.1574 Y-4.0499
G01 X34.9283 Y-4.0499
G01 X34.9085 Y-4.0507
G01 X34.8939 Y-4.0522
G01 X34.8707 Y-4.0560
G01 X34.8479 Y-4.0619
G01 X34.8292 Y-4.0684
G01 X34.8189 Y-4.0725
G01 X34.8010 Y-4.0810
G01 X34.7945 Y-4.0844
G01 X34.7775 Y-4.0946
G01 X34.7684 Y-4.1009
G01 X34.7525 Y-4.1128
G01 X34.7324 Y-4.1311
G01 X34.7141 Y-4.1512
G01 X34.6979 Y-4.1731
G01 X34.6857 Y-4.1932
G01 X34.6668 Y-4.2286
G01 X34.6045 Y-4.3045
G01 X34.5286 Y-4.3668
G01 X34.4420 Y-4.4130
G01 X34.3481 Y-4.4415
G01 X34.2368 Y-4.4525
G01 X33.5632 Y-4.4525
G01 X33.4519 Y-4.4415
G01 X33.3580 Y-4.4130
G01 X33.2714 Y-4.3668
G01 X33.1956 Y-4.3045
G01 X33.1240 Y-4.2171
G01 X33.1142 Y-4.2042
G01 X33.1010 Y-4.1894
G01 X33.0933 Y-4.1815
G01 X33.0758 Y-4.1658
G01 X33.0570 Y-4.1517
G01 X33.0370 Y-4.1393
G01 X33.0273 Y-4.1339
G01 X33.0060 Y-4.1240
G01 X32.9804 Y-4.1148
G01 X32.9541 Y-4.1082
G01 X32.9272 Y-4.1042
G01 X32.9000 Y-4.1029
G01 X32.8728 Y-4.1042
G01 X32.8459 Y-4.1082
G01 X32.8196 Y-4.1148
G01 X32.7940 Y-4.1240
G01 X32.7694 Y-4.1356
G01 X32.7461 Y-4.1496
G01 X32.7271 Y-4.1635
G01 X32.7214 Y-4.1682
G01 X32.7067 Y-4.1815
G01 X32.7015 Y-4.1867
G01 X32.6882 Y-4.2014
G01 X32.6746 Y-4.2190
G01 X32.6045 Y-4.3045
G01 X32.5286 Y-4.3668
G01 X32.4420 Y-4.4130
G01 X32.3481 Y-4.4415
G01 X32.2368 Y-4.4525
G01 X31.8363 Y-4.4525
G01 X31.8165 Y-4.4535
G01 X31.8055 Y-4.4547
G01 X31.7860 Y-4.4578
G01 X31.7667 Y-4.4625
G01 X31.7561 Y-4.4655
G01 X31.7374 Y-4.4722
G01 X31.7272 Y-4.4766
G01 X31.7094 Y-4.4852
G01 X31.6923 Y-4.4952
G01 X31.6830 Y-4.5013
G01 X31.6671 Y-4.5131
G01 X31.6587 Y-4.5202
G01 X31.6467 Y-4.5311
G01 X31.6285 Y-4.5493
G01 X31.6152 Y-4.5640
G01 X31.6083 Y-4.5726
G01 X31.5966 Y-4.5886
G01 X31.5844 Y-4.6087
G01 X31.5740 Y-4.6298
G01 X31.5697 Y-4.6399
G01 X31.5619 Y-4.6621
G01 X31.5553 Y-4.6885
G01 X31.5513 Y-4.7154
G01 X31.5499 Y-4.7426
G01 X31.5499 Y-5.7237
G01 X31.5510 Y-5.7472
G01 X31.5525 Y-5.7632
G01 X31.5525 Y-6.8368
G01 X31.5415 Y-6.9481
G01 X31.5130 Y-7.0420
G01 X31.4810 Y-7.1021
G01 X31.4725 Y-7.1201
G01 X31.4684 Y-7.1303
G01 X31.4630 Y-7.1455
G01 X31.4599 Y-7.1561
G01 X31.4553 Y-7.1754
G01 X31.4522 Y-7.1950
G01 X31.4510 Y-7.2060
G01 X31.4499 Y-7.2295
G01 X31.4499 Y-7.4594
G01 X31.4510 Y-7.4829
G01 X31.4526 Y-7.5000
G01 X31.4420 Y-7.6078
G01 X31.4105 Y-7.7115
G01 X31.3595 Y-7.8070
G01 X31.2907 Y-7.8907
G01 X31.2775 Y-7.9017
G01 X31.2601 Y-7.9176
G01 X27.9506 Y-11.2272
G01 X27.9349 Y-11.2447
G01 X27.9208 Y-11.2635
G01 X27.9084 Y-11.2834
G01 X27.9014 Y-11.2964
G01 X27.8931 Y-11.3144
G01 X27.8840 Y-11.3400
G01 X27.8774 Y-11.3664
G01 X27.8738 Y-11.3896
G01 X27.8731 Y-11.3970
G01 X27.8721 Y-11.4168
G01 X27.8721 Y-11.4241
G01 X27.8731 Y-11.4439
G01 X27.8738 Y-11.4513
G01 X27.8767 Y-11.4709
G01 X27.8820 Y-11.4938
G01 X27.8863 Y-11.5079
G01 X27.8918 Y-11.5231
G01 X27.8961 Y-11.5332
G01 X27.9065 Y-11.5543
G01 X27.9167 Y-11.5713
G01 X27.9208 Y-11.5774
G01 X27.9349 Y-11.5962
G01 X27.9532 Y-11.6164
G01 X27.9733 Y-11.6346
G01 X27.9952 Y-11.6508
G01 X28.0185 Y-11.6648
G01 X28.0431 Y-11.6764
G01 X28.0687 Y-11.6856
G01 X28.0914 Y-11.6914
G01 X28.1023 Y-11.6934
G01 X28.1219 Y-11.6962
G01 X28.1491 Y-11.6975
G01 X29.2864 Y-11.6975
G01 X29.4075 Y-11.7094
G01 X29.5109 Y-11.7408
G01 X29.6062 Y-11.7917
G01 X29.6897 Y-11.8603
G01 X29.7583 Y-11.9438
G01 X29.7975 Y-12.0171
G01 X29.8077 Y-12.0341
G01 X29.8139 Y-12.0432
G01 X29.8259 Y-12.0590
G01 X29.8391 Y-12.0738
G01 X29.8468 Y-12.0817
G01 X29.8643 Y-12.0974
G01 X29.8831 Y-12.1115
G01 X29.8924 Y-12.1176
G01 X29.9095 Y-12.1276
G01 X29.9340 Y-12.1392
G01 X29.9596 Y-12.1484
G01 X29.9788 Y-12.1534
G01 X29.9896 Y-12.1557
G01 X30.0129 Y-12.1590
G01 X30.0364 Y-12.1603
G01 X30.0474 Y-12.1601
G01 X30.0672 Y-12.1590
G01 X30.0941 Y-12.1550
G01 X30.1205 Y-12.1484
G01 X30.1392 Y-12.1419
G01 X30.1528 Y-12.1362
G01 X30.1739 Y-12.1258
G01 X30.1940 Y-12.1136
G01 X30.2158 Y-12.0974
G01 X30.2360 Y-12.0792
G01 X30.2517 Y-12.0621
G01 X30.4422 Y-11.9057
G01 X30.6594 Y-11.7896
G01 X30.8950 Y-11.7181
G01 X31.1400 Y-11.6940
G01 X31.3850 Y-11.7181
G01 X31.6206 Y-11.7896
G01 X31.8378 Y-11.9057
G01 X32.0281 Y-12.0619
G01 X32.1982 Y-12.2691
G01 X32.2141 Y-12.2864
G01 X32.2342 Y-12.3046
G01 X32.2561 Y-12.3208
G01 X32.2730 Y-12.3312
G01 X32.2860 Y-12.3381
G01 X32.3074 Y-12.3478
G01 X32.3296 Y-12.3556
G01 X32.3523 Y-12.3615
G01 X32.3755 Y-12.3653
G01 X32.3902 Y-12.3667
G01 X32.4137 Y-12.3675
G01 X32.4335 Y-12.3665
G01 X32.4408 Y-12.3658
G01 X32.4641 Y-12.3622
G01 X32.4904 Y-12.3556
G01 X32.5160 Y-12.3464
G01 X32.5406 Y-12.3348
G01 X32.5639 Y-12.3208
G01 X32.5829 Y-12.3069
G01 X32.5886 Y-12.3023
G01 X32.6033 Y-12.2890
G01 X32.6085 Y-12.2838
G01 X32.6218 Y-12.2691
G01 X32.7919 Y-12.0619
G01 X32.9822 Y-11.9057
G01 X33.1994 Y-11.7896
G01 X33.4350 Y-11.7181
G01 X33.6800 Y-11.6940
G01 X33.9250 Y-11.7181
G01 X34.1606 Y-11.7896
G01 X34.3778 Y-11.9057
G01 X34.5681 Y-12.0619
G01 X34.7337 Y-12.2638
G01 X34.7461 Y-12.2798
G01 X34.7597 Y-12.2947
G01 X34.7650 Y-12.2999
G01 X34.7799 Y-12.3133
G01 X34.7857 Y-12.3180
G01 X34.8049 Y-12.3320
G01 X34.8254 Y-12.3442
G01 X34.8353 Y-12.3493
G01 X34.8571 Y-12.3589
G01 X34.8796 Y-12.3666
G01 X34.9027 Y-12.3723
G01 X34.9263 Y-12.3759
G01 X34.9374 Y-12.3770
G01 X34.9612 Y-12.3777
G01 X34.9886 Y-12.3760
G01 X35.0158 Y-12.3716
G01 X35.0388 Y-12.3655
G01 X35.0612 Y-12.3575
G01 X35.0749 Y-12.3516
G01 X35.0960 Y-12.3406
G01 X35.1130 Y-12.3300
G01 X35.1191 Y-12.3257
G01 X35.1379 Y-12.3110
G01 X35.1526 Y-12.2973
G01 X35.1604 Y-12.2893
G01 X35.1735 Y-12.2741
G01 X35.3174 Y-12.0900
G01 X35.5025 Y-11.9305
G01 X35.6699 Y-11.8357
G01 X35.6699 Y-11.9403
G01 X35.5811 Y-11.9938
G01 X35.4963 Y-12.0565
G01 X35.4849 Y-12.0658
G01 X35.4068 Y-12.1368
G01 X35.3358 Y-12.2149
G01 X35.3265 Y-12.2263
G01 X35.2638 Y-12.3111
G01 X35.2058 Y-12.4079
G01 X35.1605 Y-12.5032
G01 X35.1549 Y-12.5168
G01 X35.1195 Y-12.6162
G01 X35.0937 Y-12.7185
G01 X35.0908 Y-12.7329
G01 X35.0755 Y-12.8373
G01 X35.0700 Y-12.9500
G01 X35.0700 Y-13.4500
G01 X35.0755 Y-13.5627
G01 X35.0908 Y-13.6671
G01 X35.0937 Y-13.6815
G01 X35.1195 Y-13.7838
G01 X35.1549 Y-13.8832
G01 X35.1605 Y-13.8968
G01 X35.2058 Y-13.9921
G01 X35.2599 Y-14.0827
G01 X35.2680 Y-14.0949
G01 X35.3265 Y-14.1737
G01 X35.3358 Y-14.1851
G01 X35.4068 Y-14.2632
G01 X35.4904 Y-14.3390
G01 X35.5811 Y-14.4062
G01 X35.6699 Y-14.4597
G01 X35.6699 Y-14.5643
G01 X35.5025 Y-14.4695
G01 X35.3174 Y-14.3100
G01 X35.1735 Y-14.1259
G01 X35.1604 Y-14.1107
G01 X35.1526 Y-14.1027
G01 X35.1379 Y-14.0890
G01 X35.1191 Y-14.0743
G01 X35.1130 Y-14.0700
G01 X35.0960 Y-14.0594
G01 X35.0749 Y-14.0484
G01 X35.0612 Y-14.0425
G01 X35.0388 Y-14.0345
G01 X35.0158 Y-14.0284
G01 X34.9886 Y-14.0240
G01 X34.9612 Y-14.0223
G01 X34.9374 Y-14.0230
G01 X34.9263 Y-14.0241
G01 X34.9027 Y-14.0277
G01 X34.8796 Y-14.0334
G01 X34.8571 Y-14.0411
G01 X34.8353 Y-14.0507
G01 X34.8254 Y-14.0558
G01 X34.8049 Y-14.0680
G01 X34.7857 Y-14.0820
G01 X34.7799 Y-14.0867
G01 X34.7650 Y-14.1001
G01 X34.7597 Y-14.1053
G01 X34.7461 Y-14.1202
G01 X34.7324 Y-14.1379
G01 X34.5681 Y-14.3381
G01 X34.3778 Y-14.4943
G01 X34.1606 Y-14.6104
G01 X33.9250 Y-14.6819
G01 X33.6800 Y-14.7060
G01 X33.4350 Y-14.6819
G01 X33.1994 Y-14.6104
G01 X32.9822 Y-14.4943
G01 X32.7919 Y-14.3381
G01 X32.6218 Y-14.1309
G01 X32.6059 Y-14.1136
G01 X32.5858 Y-14.0954
G01 X32.5639 Y-14.0792
G01 X32.5438 Y-14.0670
G01 X32.5373 Y-14.0635
G01 X32.5194 Y-14.0550
G01 X32.4974 Y-14.0467
G01 X32.4869 Y-14.0434
G01 X32.4712 Y-14.0394
G01 X32.4568 Y-14.0365
G01 X32.4335 Y-14.0335
G01 X32.4137 Y-14.0325
G01 X32.4063 Y-14.0325
G01 X32.3828 Y-14.0338
G01 X32.3559 Y-14.0378
G01 X32.3296 Y-14.0444
G01 X32.3108 Y-14.0509
G01 X32.2972 Y-14.0565
G01 X32.2762 Y-14.0670
G01 X32.2561 Y-14.0792
G01 X32.2342 Y-14.0954
G01 X32.2141 Y-14.1136
G01 X32.1982 Y-14.1309
G01 X32.0281 Y-14.3381
G01 X31.8378 Y-14.4943
G01 X31.6206 Y-14.6104
G01 X31.3850 Y-14.6819
G01 X31.1400 Y-14.7060
G01 X30.8950 Y-14.6819
G01 X30.6594 Y-14.6104
G01 X30.4422 Y-14.4943
G01 X30.2517 Y-14.3379
G01 X30.2360 Y-14.3208
G01 X30.2158 Y-14.3026
G01 X30.1940 Y-14.2864
G01 X30.1771 Y-14.2760
G01 X30.1674 Y-14.2707
G01 X30.1461 Y-14.2608
G01 X30.1240 Y-14.2527
G01 X30.1134 Y-14.2496
G01 X30.0941 Y-14.2450
G01 X30.0709 Y-14.2414
G01 X30.0474 Y-14.2399
G01 X30.0364 Y-14.2397
G01 X30.0129 Y-14.2410
G01 X29.9896 Y-14.2443
G01 X29.9667 Y-14.2496
G01 X29.9561 Y-14.2527
G01 X29.9340 Y-14.2608
G01 X29.9127 Y-14.2707
G01 X29.8924 Y-14.2824
G01 X29.8831 Y-14.2885
G01 X29.8643 Y-14.3026
G01 X29.8468 Y-14.3183
G01 X29.8391 Y-14.3262
G01 X29.8236 Y-14.3438
G01 X29.8097 Y-14.3628
G01 X29.7975 Y-14.3829
G01 X29.7583 Y-14.4562
G01 X29.6897 Y-14.5397
G01 X29.6062 Y-14.6083
G01 X29.5109 Y-14.6592
G01 X29.4075 Y-14.6906
G01 X29.2864 Y-14.7025
G01 X27.9136 Y-14.7025
G01 X27.7885 Y-14.6902
G01 X27.7774 Y-14.6878
G01 X27.7541 Y-14.6845
G01 X27.7343 Y-14.6833
G01 X27.7233 Y-14.6832
G01 X27.6998 Y-14.6845
G01 X27.6766 Y-14.6878
G01 X27.6537 Y-14.6931
G01 X27.6396 Y-14.6974
G01 X27.6210 Y-14.7042
G01 X27.5964 Y-14.7159
G01 X27.5731 Y-14.7299
G01 X27.5570 Y-14.7415
G01 X27.5484 Y-14.7484
G01 X27.5337 Y-14.7617
G01 X27.5260 Y-14.7696
G01 X27.5128 Y-14.7845
G01 X27.4966 Y-14.8063
G01 X27.4863 Y-14.8232
G01 X27.4809 Y-14.8329
G01 X27.4725 Y-14.8508
G01 X27.4696 Y-14.8576
G01 X27.4630 Y-14.8763
G01 X27.4599 Y-14.8869
G01 X27.4553 Y-14.9062
G01 X27.4522 Y-14.9258
G01 X27.4509 Y-14.9367
G01 X27.4500 Y-14.9565
G01 X27.4499 Y-17.9574
G01 X27.4507 Y-17.9773
G01 X27.4517 Y-17.9883
G01 X27.4553 Y-18.0115
G01 X27.4619 Y-18.0379
G01 X27.4710 Y-18.0635
G01 X27.4793 Y-18.0815
G01 X27.4863 Y-18.0944
