(G-CODE GENERATED BY FLATCAM v8.994 - www.flatcam.org - Version Date: 2020/11/7)

(Name: pid_smt_oven-F_Cu.gbr_iso_combined_1_cnc)
(Type: G-code from Geometry)
(Units: MM)

(Created on Monday, 25 October 2021 at 20:32)

(This preprocessor is the default preprocessor used by FlatCAM.)
(It is made to work with MACH3 compatible motion controllers.)

(TOOL DIAMETER: 0.35 mm)
(Feedrate_XY: 100.0 mm/min)
(Feedrate_Z: 30.0 mm/min)
(Feedrate rapids 1500.0 mm/min)

(Z_Cut: -0.0651 mm)
(Z_Move: 0.7 mm)
(Z Start: None mm)
(Z End: 25.0 mm)
(X,Y End: None mm)
(Steps per circle: 64)
(Preprocessor Geometry: default)

(X range:    1.9226 ...   66.0273  mm)
(Y range:  -43.3748 ...   -1.9225  mm)

(Spindle Speed: 12000.0 RPM)
G21
G90
G94

$1=255		
G01 F100.00

M5
G00 Z2.0000
G00 X0.0000 Y0.0000
T1
M6    
(MSG, Change to Tool Dia = 0.3500)
M0
G00 Z2.0000

M03 S12000.0
G01 F100.00
G00 X55.0252 Y-42.4136
G01 F30.00
G01 Z-0.0651
G01 F100.00
G01 X55.0268 Y-42.4418
G01 X55.0322 Y-42.4782
G01 X55.0411 Y-42.5139
G01 X55.0520 Y-42.5445
G01 X55.0552 Y-42.5525
G01 X55.0654 Y-42.5741
G01 X55.0735 Y-42.5892
G01 X55.0859 Y-42.6097
G01 X55.0906 Y-42.6169
G01 X55.1048 Y-42.6361
G01 X55.1129 Y-42.6462
G01 X55.1348 Y-42.6702
G01 X55.1621 Y-42.6949
G01 X55.1917 Y-42.7168
G01 X55.2158 Y-42.7315
G01 X55.2309 Y-42.7396
G01 X55.2525 Y-42.7498
G01 X55.2645 Y-42.7545
G01 X55.2870 Y-42.7626
G01 X55.2953 Y-42.7650
G01 X55.3185 Y-42.7709
G01 X55.3311 Y-42.7736
G01 X55.3632 Y-42.7782
G01 X55.4000 Y-42.7800
G01 X57.0000 Y-42.7800
G01 X57.0368 Y-42.7782
G01 X57.0732 Y-42.7728
G01 X57.1047 Y-42.7650
G01 X57.1170 Y-42.7612
G01 X57.1435 Y-42.7515
G01 X57.1691 Y-42.7396
G01 X57.1805 Y-42.7336
G01 X57.2083 Y-42.7168
G01 X57.2345 Y-42.6976
G01 X57.2444 Y-42.6893
G01 X57.2652 Y-42.6702
G01 X57.2843 Y-42.6494
G01 X57.2926 Y-42.6395
G01 X57.3118 Y-42.6133
G01 X57.3286 Y-42.5855
G01 X57.3346 Y-42.5741
G01 X57.3465 Y-42.5485
G01 X57.3562 Y-42.5220
G01 X57.3611 Y-42.5056
G01 X57.3669 Y-42.4824
G01 X57.3686 Y-42.4739
G01 X57.3732 Y-42.4418
G01 X57.3749 Y-42.4093
G01 X57.3749 Y-42.0007
G01 X57.3732 Y-41.9682
G01 X57.3678 Y-41.9318
G01 X57.3589 Y-41.8961
G01 X57.3495 Y-41.8695
G01 X57.3448 Y-41.8575
G01 X57.3307 Y-41.8282
G01 X57.3118 Y-41.7967
G01 X57.2926 Y-41.7705
G01 X57.2871 Y-41.7638
G01 X57.2711 Y-41.7461
G01 X57.2589 Y-41.7339
G01 X57.2379 Y-41.7151
G01 X57.2119 Y-41.6956
G01 X57.2047 Y-41.6909
G01 X57.1842 Y-41.6785
G01 X57.1691 Y-41.6704
G01 X57.1435 Y-41.6585
G01 X57.1089 Y-41.6461
G01 X57.0732 Y-41.6372
G01 X57.0453 Y-41.6329
G01 X57.0325 Y-41.6314
G01 X57.0000 Y-41.6300
G01 X55.4000 Y-41.6300
G01 X55.3632 Y-41.6318
G01 X55.3268 Y-41.6372
G01 X55.2953 Y-41.6450
G01 X55.2830 Y-41.6488
G01 X55.2565 Y-41.6585
G01 X55.2309 Y-41.6704
G01 X55.2195 Y-41.6764
G01 X55.1953 Y-41.6909
G01 X55.1846 Y-41.6981
G01 X55.1621 Y-41.7151
G01 X55.1379 Y-41.7368
G01 X55.1289 Y-41.7461
G01 X55.1101 Y-41.7671
G01 X55.0931 Y-41.7896
G01 X55.0859 Y-41.8003
G01 X55.0693 Y-41.8282
G01 X55.0570 Y-41.8536
G01 X55.0520 Y-41.8655
G01 X55.0411 Y-41.8961
G01 X55.0322 Y-41.9318
G01 X55.0268 Y-41.9682
G01 X55.0252 Y-41.9964
G01 X55.0252 Y-42.4136
G00 Z0.7000
G00 X55.0252 Y-42.4136
G01 F30.00
G01 Z-0.0651
G01 F100.00
G01 X55.0268 Y-42.4418
G01 X55.0322 Y-42.4782
G01 X55.0411 Y-42.5139
G01 X55.0520 Y-42.5445
G01 X55.0552 Y-42.5525
G01 X55.0654 Y-42.5741
G01 X55.0735 Y-42.5892
G01 X55.0859 Y-42.6097
G01 X55.0906 Y-42.6169
G01 X55.1048 Y-42.6361
G01 X55.1129 Y-42.6462
G01 X55.1348 Y-42.6702
G01 X55.1621 Y-42.6949
G01 X55.1917 Y-42.7168
G01 X55.2158 Y-42.7315
G01 X55.2309 Y-42.7396
G01 X55.2525 Y-42.7498
G01 X55.2645 Y-42.7545
G01 X55.2870 Y-42.7626
G01 X55.2953 Y-42.7650
G01 X55.3185 Y-42.7709
G01 X55.3311 Y-42.7736
G01 X55.3632 Y-42.7782
G01 X55.4000 Y-42.7800
G01 X57.0000 Y-42.7800
G01 X57.0368 Y-42.7782
G01 X57.0732 Y-42.7728
G01 X57.1047 Y-42.7650
G01 X57.1170 Y-42.7612
G01 X57.1435 Y-42.7515
G01 X57.1691 Y-42.7396
G01 X57.1805 Y-42.7336
G01 X57.2083 Y-42.7168
G01 X57.2345 Y-42.6976
G01 X57.2444 Y-42.6893
G01 X57.2652 Y-42.6702
G01 X57.2843 Y-42.6494
G01 X57.2926 Y-42.6395
G01 X57.3118 Y-42.6133
G01 X57.3286 Y-42.5855
G01 X57.3346 Y-42.5741
G01 X57.3465 Y-42.5485
G01 X57.3562 Y-42.5220
G01 X57.3611 Y-42.5056
G01 X57.3669 Y-42.4824
G01 X57.3686 Y-42.4739
G01 X57.3732 Y-42.4418
G01 X57.3749 Y-42.4093
G01 X57.3749 Y-42.0007
G01 X57.3732 Y-41.9682
G01 X57.3678 Y-41.9318
G01 X57.3589 Y-41.8961
G01 X57.3495 Y-41.8695
G01 X57.3448 Y-41.8575
G01 X57.3307 Y-41.8282
G01 X57.3118 Y-41.7967
G01 X57.2926 Y-41.7705
G01 X57.2871 Y-41.7638
G01 X57.2711 Y-41.7461
G01 X57.2589 Y-41.7339
G01 X57.2379 Y-41.7151
G01 X57.2119 Y-41.6956
G01 X57.2047 Y-41.6909
G01 X57.1842 Y-41.6785
G01 X57.1691 Y-41.6704
G01 X57.1435 Y-41.6585
G01 X57.1089 Y-41.6461
G01 X57.0732 Y-41.6372
G01 X57.0453 Y-41.6329
G01 X57.0325 Y-41.6314
G01 X57.0000 Y-41.6300
G01 X55.4000 Y-41.6300
G01 X55.3632 Y-41.6318
G01 X55.3268 Y-41.6372
G01 X55.2953 Y-41.6450
G01 X55.2830 Y-41.6488
G01 X55.2565 Y-41.6585
G01 X55.2309 Y-41.6704
G01 X55.2195 Y-41.6764
G01 X55.1953 Y-41.6909
G01 X55.1846 Y-41.6981
G01 X55.1621 Y-41.7151
G01 X55.1379 Y-41.7368
G01 X55.1289 Y-41.7461
G01 X55.1101 Y-41.7671
G01 X55.0931 Y-41.7896
G01 X55.0859 Y-41.8003
G01 X55.0693 Y-41.8282
G01 X55.0570 Y-41.8536
G01 X55.0520 Y-41.8655
G01 X55.0411 Y-41.8961
G01 X55.0322 Y-41.9318
G01 X55.0268 Y-41.9682
G01 X55.0252 Y-41.9964
G01 X55.0252 Y-42.4136
G00 Z0.7000
G00 X55.0252 Y-41.1436
G01 F30.00
G01 Z-0.0651
G01 F100.00
G01 X55.0268 Y-41.1718
G01 X55.0322 Y-41.2082
G01 X55.0411 Y-41.2439
G01 X55.0520 Y-41.2745
G01 X55.0552 Y-41.2825
G01 X55.0654 Y-41.3041
G01 X55.0735 Y-41.3192
G01 X55.0859 Y-41.3397
G01 X55.0906 Y-41.3469
G01 X55.1048 Y-41.3661
G01 X55.1129 Y-41.3762
G01 X55.1348 Y-41.4002
G01 X55.1621 Y-41.4249
G01 X55.1917 Y-41.4468
G01 X55.2158 Y-41.4615
G01 X55.2309 Y-41.4696
G01 X55.2525 Y-41.4798
G01 X55.2645 Y-41.4845
G01 X55.2870 Y-41.4926
G01 X55.2953 Y-41.4950
G01 X55.3185 Y-41.5009
G01 X55.3311 Y-41.5036
G01 X55.3632 Y-41.5082
G01 X55.4000 Y-41.5100
G01 X57.0000 Y-41.5100
G01 X57.0368 Y-41.5082
G01 X57.0732 Y-41.5028
G01 X57.1047 Y-41.4950
G01 X57.1170 Y-41.4912
G01 X57.1435 Y-41.4815
G01 X57.1691 Y-41.4696
G01 X57.1805 Y-41.4636
G01 X57.2083 Y-41.4468
G01 X57.2345 Y-41.4276
G01 X57.2444 Y-41.4193
G01 X57.2652 Y-41.4002
G01 X57.2843 Y-41.3794
G01 X57.2926 Y-41.3695
G01 X57.3118 Y-41.3433
G01 X57.3286 Y-41.3155
G01 X57.3346 Y-41.3041
G01 X57.3465 Y-41.2785
G01 X57.3562 Y-41.2520
G01 X57.3611 Y-41.2356
G01 X57.3669 Y-41.2124
G01 X57.3686 Y-41.2039
G01 X57.3732 Y-41.1718
G01 X57.3749 Y-41.1393
G01 X57.3749 Y-40.7307
G01 X57.3732 Y-40.6982
G01 X57.3678 Y-40.6618
G01 X57.3589 Y-40.6261
G01 X57.3495 Y-40.5995
G01 X57.3448 Y-40.5875
G01 X57.3307 Y-40.5582
G01 X57.3118 Y-40.5267
G01 X57.2926 Y-40.5005
G01 X57.2871 Y-40.4938
G01 X57.2711 Y-40.4761
G01 X57.2589 Y-40.4639
G01 X57.2379 Y-40.4451
G01 X57.2119 Y-40.4256
G01 X57.2047 Y-40.4209
G01 X57.1842 Y-40.4085
G01 X57.1691 Y-40.4004
G01 X57.1435 Y-40.3885
G01 X57.1089 Y-40.3761
G01 X57.0732 Y-40.3672
G01 X57.0453 Y-40.3629
G01 X57.0325 Y-40.3614
G01 X57.0000 Y-40.3600
G01 X55.4000 Y-40.3600
G01 X55.3632 Y-40.3618
G01 X55.3268 Y-40.3672
G01 X55.2953 Y-40.3750
G01 X55.2830 Y-40.3788
G01 X55.2565 Y-40.3885
G01 X55.2309 Y-40.4004
G01 X55.2195 Y-40.4064
G01 X55.1953 Y-40.4209
G01 X55.1846 Y-40.4281
G01 X55.1621 Y-40.4451
G01 X55.1379 Y-40.4668
G01 X55.1289 Y-40.4761
G01 X55.1101 Y-40.4971
G01 X55.0931 Y-40.5196
G01 X55.0859 Y-40.5303
G01 X55.0693 Y-40.5582
G01 X55.0570 Y-40.5836
G01 X55.0520 Y-40.5955
G01 X55.0411 Y-40.6261
G01 X55.0322 Y-40.6618
G01 X55.0268 Y-40.6982
G01 X55.0252 Y-40.7264
G01 X55.0252 Y-41.1436
G00 Z0.7000
G00 X55.0252 Y-39.8736
G01 F30.00
G01 Z-0.0651
G01 F100.00
G01 X55.0268 Y-39.9018
G01 X55.0322 Y-39.9382
G01 X55.0411 Y-39.9739
G01 X55.0520 Y-40.0045
G01 X55.0552 Y-40.0125
G01 X55.0654 Y-40.0341
G01 X55.0735 Y-40.0492
G01 X55.0859 Y-40.0697
G01 X55.0906 Y-40.0769
G01 X55.1048 Y-40.0961
G01 X55.1129 Y-40.1062
G01 X55.1348 Y-40.1302
G01 X55.1621 Y-40.1549
G01 X55.1917 Y-40.1768
G01 X55.2158 Y-40.1915
G01 X55.2309 Y-40.1996
G01 X55.2525 Y-40.2098
G01 X55.2645 Y-40.2145
G01 X55.2870 Y-40.2226
G01 X55.2953 Y-40.2250
G01 X55.3185 Y-40.2309
G01 X55.3311 Y-40.2336
G01 X55.3632 Y-40.2382
G01 X55.4000 Y-40.2400
G01 X57.0000 Y-40.2400
G01 X57.0368 Y-40.2382
G01 X57.0732 Y-40.2328
G01 X57.1047 Y-40.2250
G01 X57.1170 Y-40.2212
G01 X57.1435 Y-40.2115
G01 X57.1691 Y-40.1996
G01 X57.1805 Y-40.1936
G01 X57.2083 Y-40.1768
G01 X57.2345 Y-40.1576
G01 X57.2444 Y-40.1493
G01 X57.2652 Y-40.1302
G01 X57.2843 Y-40.1094
G01 X57.2926 Y-40.0995
G01 X57.3118 Y-40.0733
G01 X57.3286 Y-40.0455
G01 X57.3346 Y-40.0341
G01 X57.3465 Y-40.0085
G01 X57.3562 Y-39.9820
G01 X57.3611 Y-39.9656
G01 X57.3669 Y-39.9424
G01 X57.3686 Y-39.9339
G01 X57.3732 Y-39.9018
G01 X57.3749 Y-39.8693
G01 X57.3749 Y-39.4607
G01 X57.3732 Y-39.4282
G01 X57.3678 Y-39.3918
G01 X57.3589 Y-39.3561
G01 X57.3495 Y-39.3295
G01 X57.3448 Y-39.3175
G01 X57.3307 Y-39.2882
G01 X57.3118 Y-39.2567
G01 X57.2926 Y-39.2305
G01 X57.2871 Y-39.2238
G01 X57.2711 Y-39.2061
G01 X57.2589 Y-39.1939
G01 X57.2379 Y-39.1751
G01 X57.2119 Y-39.1556
G01 X57.2047 Y-39.1509
G01 X57.1842 Y-39.1385
G01 X57.1691 Y-39.1304
G01 X57.1435 Y-39.1185
G01 X57.1089 Y-39.1061
G01 X57.0732 Y-39.0972
G01 X57.0453 Y-39.0929
G01 X57.0325 Y-39.0914
G01 X57.0000 Y-39.0900
G01 X55.4000 Y-39.0900
G01 X55.3632 Y-39.0918
G01 X55.3268 Y-39.0972
G01 X55.2953 Y-39.1050
G01 X55.2830 Y-39.1088
G01 X55.2565 Y-39.1185
G01 X55.2309 Y-39.1304
G01 X55.2195 Y-39.1364
G01 X55.1953 Y-39.1509
G01 X55.1846 Y-39.1581
G01 X55.1621 Y-39.1751
G01 X55.1379 Y-39.1968
G01 X55.1289 Y-39.2061
G01 X55.1101 Y-39.2271
G01 X55.0931 Y-39.2496
G01 X55.0859 Y-39.2603
G01 X55.0693 Y-39.2882
G01 X55.0570 Y-39.3136
G01 X55.0520 Y-39.3255
G01 X55.0411 Y-39.3561
G01 X55.0322 Y-39.3918
G01 X55.0268 Y-39.4282
G01 X55.0252 Y-39.4564
G01 X55.0252 Y-39.8736
G00 Z0.7000
G00 X61.3751 Y-40.9271
G01 F30.00
G01 Z-0.0651
G01 F100.00
G01 X61.3752 Y-40.8104
G01 X61.3898 Y-40.8010
G01 X61.4164 Y-40.7813
G01 X61.4230 Y-40.7759
G01 X61.4444 Y-40.7566
G01 X61.4536 Y-40.7476
G01 X61.4759 Y-40.7230
G01 X61.4839 Y-40.7130
G01 X61.5034 Y-40.6863
G01 X61.5206 Y-40.6580
G01 X61.5268 Y-40.6467
G01 X61.5427 Y-40.6129
G01 X61.5567 Y-40.5737
G01 X61.5650 Y-40.5416
G01 X61.5676 Y-40.5290
G01 X61.5725 Y-40.4963
G01 X61.5740 Y-40.4751
G01 X61.6260 Y-40.4751
G01 X61.6274 Y-40.6861
G01 X61.6217 Y-40.7441
G01 X61.6088 Y-40.7865
G01 X61.5879 Y-40.8256
G01 X61.5598 Y-40.8598
G01 X61.5256 Y-40.8879
G01 X61.4865 Y-40.9088
G01 X61.4441 Y-40.9217
G01 X61.3871 Y-40.9273
G01 X61.3751 Y-40.9271
G00 Z0.7000
G00 X61.5740 Y-38.2751
G01 F30.00
G01 Z-0.0651
G01 F100.00
G01 X61.6260 Y-38.2751
G01 X61.6274 Y-38.4861
G01 X61.6217 Y-38.5441
G01 X61.6088 Y-38.5865
G01 X61.5844 Y-38.6321
G01 X61.5734 Y-38.6501
G01 X61.5672 Y-38.6614
G01 X61.5582 Y-38.6805
G01 X61.5549 Y-38.6884
G01 X61.5478 Y-38.7082
G01 X61.5453 Y-38.7164
G01 X61.5393 Y-38.7411
G01 X61.5349 Y-38.7704
G01 X61.5335 Y-38.7957
G01 X61.5335 Y-38.8043
G01 X61.5343 Y-38.8210
G01 X61.5360 Y-38.8381
G01 X61.5385 Y-38.8547
G01 X61.5402 Y-38.8631
G01 X61.5465 Y-38.8877
G01 X61.5549 Y-38.9116
G01 X61.5600 Y-38.9234
G01 X61.5691 Y-38.9424
G01 X61.5844 Y-38.9679
G01 X61.6088 Y-39.0135
G01 X61.6217 Y-39.0559
G01 X61.6274 Y-39.1139
G01 X61.6260 Y-39.3249
G01 X61.5740 Y-39.3249
G01 X61.5725 Y-39.3037
G01 X61.5676 Y-39.2710
G01 X61.5650 Y-39.2584
G01 X61.5579 Y-39.2305
G01 X61.5540 Y-39.2182
G01 X61.5427 Y-39.1871
G01 X61.5268 Y-39.1533
G01 X61.5206 Y-39.1420
G01 X61.5034 Y-39.1137
G01 X61.4813 Y-39.0836
G01 X61.4730 Y-39.0737
G01 X61.4536 Y-39.0524
G01 X61.4444 Y-39.0434
G01 X61.4252 Y-39.0260
G01 X61.4252 Y-38.5740
G01 X61.4444 Y-38.5566
G01 X61.4536 Y-38.5476
G01 X61.4730 Y-38.5263
G01 X61.4813 Y-38.5164
G01 X61.5034 Y-38.4863
G01 X61.5206 Y-38.4580
G01 X61.5268 Y-38.4467
G01 X61.5427 Y-38.4129
G01 X61.5540 Y-38.3818
G01 X61.5579 Y-38.3695
G01 X61.5650 Y-38.3416
G01 X61.5676 Y-38.3290
G01 X61.5725 Y-38.2963
G01 X61.5740 Y-38.2751
G00 Z0.7000
G00 X61.5740 Y-36.0751
G01 F30.00
G01 Z-0.0651
G01 F100.00
G01 X61.6260 Y-36.0751
G01 X61.6274 Y-36.2861
G01 X61.6217 Y-36.3441
G01 X61.6088 Y-36.3865
G01 X61.5844 Y-36.4321
G01 X61.5734 Y-36.4501
G01 X61.5672 Y-36.4614
G01 X61.5582 Y-36.4805
G01 X61.5549 Y-36.4884
G01 X61.5478 Y-36.5082
G01 X61.5453 Y-36.5164
G01 X61.5393 Y-36.5411
G01 X61.5349 Y-36.5704
G01 X61.5335 Y-36.5957
G01 X61.5335 Y-36.6043
G01 X61.5343 Y-36.6210
G01 X61.5360 Y-36.6381
G01 X61.5385 Y-36.6547
G01 X61.5402 Y-36.6631
G01 X61.5465 Y-36.6877
G01 X61.5549 Y-36.7116
G01 X61.5600 Y-36.7234
G01 X61.5691 Y-36.7424
G01 X61.5844 Y-36.7679
G01 X61.6088 Y-36.8135
G01 X61.6217 Y-36.8559
G01 X61.6274 Y-36.9139
G01 X61.6260 Y-37.1249
G01 X61.5740 Y-37.1249
G01 X61.5725 Y-37.1037
G01 X61.5676 Y-37.0710
G01 X61.5650 Y-37.0584
G01 X61.5579 Y-37.0305
G01 X61.5540 Y-37.0182
G01 X61.5427 Y-36.9871
G01 X61.5268 Y-36.9533
G01 X61.5206 Y-36.9420
G01 X61.5034 Y-36.9137
G01 X61.4813 Y-36.8836
G01 X61.4730 Y-36.8737
G01 X61.4536 Y-36.8524
G01 X61.4444 Y-36.8434
G01 X61.4252 Y-36.8260
G01 X61.4252 Y-36.3740
G01 X61.4444 Y-36.3566
G01 X61.4536 Y-36.3476
G01 X61.4730 Y-36.3263
G01 X61.4813 Y-36.3164
G01 X61.5034 Y-36.2863
G01 X61.5206 Y-36.2580
G01 X61.5268 Y-36.2467
G01 X61.5427 Y-36.2129
G01 X61.5540 Y-36.1818
G01 X61.5579 Y-36.1695
G01 X61.5650 Y-36.1416
G01 X61.5676 Y-36.1290
G01 X61.5725 Y-36.0963
G01 X61.5740 Y-36.0751
G00 Z0.7000
G00 X61.3751 Y-34.5896
G01 F30.00
G01 Z-0.0651
G01 F100.00
G01 X61.3751 Y-34.4729
G01 X61.3871 Y-34.4727
G01 X61.4441 Y-34.4783
G01 X61.4865 Y-34.4912
G01 X61.5256 Y-34.5121
G01 X61.5598 Y-34.5402
G01 X61.5879 Y-34.5744
G01 X61.6088 Y-34.6135
G01 X61.6217 Y-34.6559
G01 X61.6274 Y-34.7139
G01 X61.6260 Y-34.9249
G01 X61.5740 Y-34.9249
G01 X61.5725 Y-34.9037
G01 X61.5676 Y-34.8710
G01 X61.5650 Y-34.8584
G01 X61.5567 Y-34.8263
G01 X61.5427 Y-34.7871
G01 X61.5268 Y-34.7533
G01 X61.5206 Y-34.7420
G01 X61.5034 Y-34.7137
G01 X61.4839 Y-34.6870
G01 X61.4759 Y-34.6770
G01 X61.4536 Y-34.6524
G01 X61.4476 Y-34.6464
G01 X61.4263 Y-34.6270
G01 X61.4164 Y-34.6187
G01 X61.3898 Y-34.5990
G01 X61.3751 Y-34.5896
G00 Z0.7000
G00 X61.6286 Y-29.8648
G01 F30.00
G01 Z-0.0651
G01 F100.00
G01 X61.7266 Y-29.8600
G01 X61.7437 Y-29.8583
G01 X61.8492 Y-29.8424
G01 X61.9528 Y-29.8167
G01 X61.9692 Y-29.8117
G01 X62.0697 Y-29.7756
G01 X62.1739 Y-29.7263
G01 X62.2728 Y-29.6670
G01 X62.3586 Y-29.6036
G01 X62.3719 Y-29.5927
G01 X62.4509 Y-29.5209
G01 X62.5227 Y-29.4419
G01 X62.5336 Y-29.4286
G01 X62.5945 Y-29.3463
G01 X62.6016 Y-29.3355
G01 X62.6563 Y-29.2439
G01 X62.7056 Y-29.1397
G01 X62.7444 Y-29.0311
G01 X62.7705 Y-28.9276
G01 X62.7732 Y-28.9150
G01 X62.7893 Y-28.8052
G01 X62.7949 Y-28.6943
G01 X62.7950 Y-28.1900
G01 X62.7893 Y-28.0748
G01 X62.7724 Y-27.9608
G01 X62.7444 Y-27.8489
G01 X62.7056 Y-27.7403
G01 X62.6563 Y-27.6361
G01 X62.5970 Y-27.5372
G01 X62.5283 Y-27.4446
G01 X62.4509 Y-27.3591
G01 X62.3654 Y-27.2817
G01 X62.2728 Y-27.2130
G01 X62.1739 Y-27.1537
G01 X62.0697 Y-27.1044
G01 X61.9611 Y-27.0656
G01 X61.8492 Y-27.0376
G01 X61.7352 Y-27.0207
G01 X61.6200 Y-27.0150
G01 X61.5134 Y-27.0200
G01 X61.4963 Y-27.0217
G01 X61.3908 Y-27.0376
G01 X61.2872 Y-27.0633
G01 X61.2708 Y-27.0683
G01 X61.1703 Y-27.1044
G01 X61.0661 Y-27.1537
G01 X60.9672 Y-27.2130
G01 X60.8814 Y-27.2764
G01 X60.8681 Y-27.2873
G01 X60.7891 Y-27.3591
G01 X60.7173 Y-27.4381
G01 X60.7064 Y-27.4514
G01 X60.6455 Y-27.5337
G01 X60.6384 Y-27.5445
G01 X60.5837 Y-27.6361
G01 X60.5344 Y-27.7403
G01 X60.4956 Y-27.8489
G01 X60.4695 Y-27.9524
G01 X60.4668 Y-27.9650
G01 X60.4507 Y-28.0748
G01 X60.4451 Y-28.1857
G01 X60.4450 Y-28.6900
G01 X60.4507 Y-28.8052
G01 X60.4676 Y-28.9192
G01 X60.4956 Y-29.0311
G01 X60.5344 Y-29.1397
G01 X60.5837 Y-29.2439
G01 X60.6430 Y-29.3428
G01 X60.7117 Y-29.4354
G01 X60.7891 Y-29.5209
G01 X60.8746 Y-29.5983
G01 X60.9672 Y-29.6670
G01 X61.0661 Y-29.7263
G01 X61.1703 Y-29.7756
G01 X61.2789 Y-29.8144
G01 X61.3908 Y-29.8424
G01 X61.5048 Y-29.8593
G01 X61.6114 Y-29.8648
G01 X61.6286 Y-29.8648
G00 Z0.7000
G00 X64.1686 Y-29.8648
G01 F30.00
G01 Z-0.0651
G01 F100.00
G01 X64.2666 Y-29.8600
G01 X64.2837 Y-29.8583
G01 X64.3892 Y-29.8424
G01 X64.4928 Y-29.8167
G01 X64.5092 Y-29.8117
G01 X64.6097 Y-29.7756
G01 X64.7139 Y-29.7263
G01 X64.8128 Y-29.6670
G01 X64.8986 Y-29.6036
G01 X64.9119 Y-29.5927
G01 X64.9909 Y-29.5209
G01 X65.0627 Y-29.4419
G01 X65.0736 Y-29.4286
G01 X65.1345 Y-29.3463
G01 X65.1416 Y-29.3355
G01 X65.1963 Y-29.2439
G01 X65.2456 Y-29.1397
G01 X65.2844 Y-29.0311
G01 X65.3105 Y-28.9276
G01 X65.3132 Y-28.9150
G01 X65.3293 Y-28.8052
G01 X65.3349 Y-28.6943
G01 X65.3350 Y-28.1900
G01 X65.3293 Y-28.0748
G01 X65.3124 Y-27.9608
G01 X65.2844 Y-27.8489
G01 X65.2456 Y-27.7403
G01 X65.1963 Y-27.6361
G01 X65.1370 Y-27.5372
G01 X65.0683 Y-27.4446
G01 X64.9909 Y-27.3591
G01 X64.9054 Y-27.2817
G01 X64.8128 Y-27.2130
G01 X64.7139 Y-27.1537
G01 X64.6097 Y-27.1044
G01 X64.5011 Y-27.0656
G01 X64.3892 Y-27.0376
G01 X64.2752 Y-27.0207
G01 X64.1600 Y-27.0150
G01 X64.0534 Y-27.0200
G01 X64.0363 Y-27.0217
G01 X63.9308 Y-27.0376
G01 X63.8272 Y-27.0633
G01 X63.8108 Y-27.0683
G01 X63.7103 Y-27.1044
G01 X63.6061 Y-27.1537
G01 X63.5072 Y-27.2130
G01 X63.4214 Y-27.2764
G01 X63.4081 Y-27.2873
G01 X63.3291 Y-27.3591
G01 X63.2573 Y-27.4381
G01 X63.2464 Y-27.4514
G01 X63.1855 Y-27.5337
G01 X63.1784 Y-27.5445
G01 X63.1237 Y-27.6361
G01 X63.0744 Y-27.7403
G01 X63.0356 Y-27.8489
G01 X63.0095 Y-27.9524
G01 X63.0068 Y-27.9650
G01 X62.9907 Y-28.0748
G01 X62.9851 Y-28.1857
G01 X62.9850 Y-28.6900
G01 X62.9907 Y-28.8052
G01 X63.0076 Y-28.9192
G01 X63.0356 Y-29.0311
G01 X63.0744 Y-29.1397
G01 X63.1237 Y-29.2439
G01 X63.1830 Y-29.3428
G01 X63.2517 Y-29.4354
G01 X63.3291 Y-29.5209
G01 X63.4146 Y-29.5983
G01 X63.5072 Y-29.6670
G01 X63.6061 Y-29.7263
G01 X63.7103 Y-29.7756
G01 X63.8189 Y-29.8144
G01 X63.9308 Y-29.8424
G01 X64.0448 Y-29.8593
G01 X64.1514 Y-29.8648
G01 X64.1686 Y-29.8648
G00 Z0.7000
G00 X62.7751 Y-25.2259
G01 F30.00
G01 Z-0.0651
G01 F100.00
G01 X62.7751 Y-25.1750
G01 X63.0030 Y-25.1750
G01 X63.0537 Y-25.2257
G01 X63.0360 Y-25.2274
G01 X62.7751 Y-25.2259
G00 Z0.7000
G00 X61.1246 Y-24.2751
G01 F30.00
G01 Z-0.0651
G01 F100.00
G01 X61.1750 Y-24.2751
G01 X61.1751 Y-24.9703
G01 X61.1756 Y-24.9822
G01 X61.1771 Y-24.9950
G01 X61.1790 Y-25.0068
G01 X61.1817 Y-25.0184
G01 X61.1853 Y-25.0308
G01 X61.1893 Y-25.0420
G01 X61.1944 Y-25.0538
G01 X61.1997 Y-25.0645
G01 X61.2102 Y-25.0821
G01 X61.2198 Y-25.0952
G01 X61.2332 Y-25.1107
G01 X61.2449 Y-25.1219
G01 X61.2582 Y-25.1328
G01 X61.2679 Y-25.1398
G01 X61.2751 Y-25.1444
G01 X61.2893 Y-25.1523
G01 X61.3080 Y-25.1607
G01 X61.3233 Y-25.1660
G01 X61.3432 Y-25.1710
G01 X61.3592 Y-25.1735
G01 X61.3754 Y-25.1748
G01 X61.6249 Y-25.1750
G01 X61.6249 Y-25.2259
G01 X61.3640 Y-25.2274
G01 X61.3059 Y-25.2217
G01 X61.2635 Y-25.2088
G01 X61.2244 Y-25.1879
G01 X61.1902 Y-25.1598
G01 X61.1621 Y-25.1256
G01 X61.1412 Y-25.0865
G01 X61.1283 Y-25.0441
G01 X61.1226 Y-24.9856
G01 X61.1246 Y-24.2751
G00 Z0.7000
G00 X62.7751 Y-22.1741
G01 F30.00
G01 Z-0.0651
G01 F100.00
G01 X63.0360 Y-22.1726
G01 X63.0941 Y-22.1783
G01 X63.1365 Y-22.1912
G01 X63.1756 Y-22.2121
G01 X63.2098 Y-22.2402
G01 X63.2379 Y-22.2744
G01 X63.2588 Y-22.3135
G01 X63.2717 Y-22.3559
G01 X63.2774 Y-22.4144
G01 X63.2754 Y-23.1249
G01 X63.2250 Y-23.1249
G01 X63.2249 Y-22.4297
G01 X63.2244 Y-22.4178
G01 X63.2229 Y-22.4050
G01 X63.2210 Y-22.3932
G01 X63.2183 Y-22.3816
G01 X63.2147 Y-22.3692
G01 X63.2107 Y-22.3580
G01 X63.2056 Y-22.3462
G01 X63.2003 Y-22.3355
G01 X63.1898 Y-22.3179
G01 X63.1802 Y-22.3048
G01 X63.1668 Y-22.2893
G01 X63.1551 Y-22.2781
G01 X63.1418 Y-22.2672
G01 X63.1321 Y-22.2602
G01 X63.1249 Y-22.2556
G01 X63.1107 Y-22.2477
G01 X63.0920 Y-22.2393
G01 X63.0767 Y-22.2340
G01 X63.0568 Y-22.2290
G01 X63.0408 Y-22.2265
G01 X63.0246 Y-22.2252
G01 X62.7751 Y-22.2250
G01 X62.7751 Y-22.1741
G00 Z0.7000
G00 X63.9729 Y-21.1751
G01 F30.00
G01 Z-0.0651
G01 F100.00
G01 X64.0896 Y-21.1751
G01 X64.0990 Y-21.1898
G01 X64.1187 Y-21.2164
G01 X64.1241 Y-21.2230
G01 X64.1434 Y-21.2444
G01 X64.1524 Y-21.2536
G01 X64.1770 Y-21.2759
G01 X64.1870 Y-21.2839
G01 X64.2137 Y-21.3034
G01 X64.2420 Y-21.3206
G01 X64.2533 Y-21.3268
G01 X64.2871 Y-21.3427
G01 X64.3263 Y-21.3567
G01 X64.3584 Y-21.3650
G01 X64.3710 Y-21.3676
G01 X64.4037 Y-21.3725
G01 X64.4249 Y-21.3740
G01 X64.4249 Y-21.4260
G01 X64.2139 Y-21.4274
G01 X64.1559 Y-21.4217
G01 X64.1135 Y-21.4088
G01 X64.0744 Y-21.3879
G01 X64.0402 Y-21.3598
G01 X64.0121 Y-21.3256
G01 X63.9912 Y-21.2865
G01 X63.9783 Y-21.2441
G01 X63.9727 Y-21.1871
G01 X63.9729 Y-21.1751
G00 Z0.7000
G00 X65.5751 Y-21.4260
G01 F30.00
G01 Z-0.0651
G01 F100.00
G01 X65.5751 Y-21.3740
G01 X65.5963 Y-21.3725
G01 X65.6290 Y-21.3676
G01 X65.6416 Y-21.3650
G01 X65.6737 Y-21.3567
G01 X65.7129 Y-21.3427
G01 X65.7467 Y-21.3268
G01 X65.7580 Y-21.3206
G01 X65.7863 Y-21.3034
G01 X65.8130 Y-21.2839
G01 X65.8230 Y-21.2759
G01 X65.8476 Y-21.2536
G01 X65.8536 Y-21.2476
G01 X65.8730 Y-21.2263
G01 X65.8813 Y-21.2164
G01 X65.9010 Y-21.1898
G01 X65.9104 Y-21.1751
G01 X66.0271 Y-21.1751
G01 X66.0273 Y-21.1871
G01 X66.0217 Y-21.2441
G01 X66.0088 Y-21.2865
G01 X65.9879 Y-21.3256
G01 X65.9598 Y-21.3598
G01 X65.9256 Y-21.3879
G01 X65.8865 Y-21.4088
G01 X65.8441 Y-21.4217
G01 X65.7861 Y-21.4274
G01 X65.5751 Y-21.4260
G00 Z0.7000
G00 X64.1686 Y-14.6248
G01 F30.00
G01 Z-0.0651
G01 F100.00
G01 X64.2666 Y-14.6200
G01 X64.2837 Y-14.6183
G01 X64.3892 Y-14.6024
G01 X64.4928 Y-14.5767
G01 X64.5092 Y-14.5717
G01 X64.6097 Y-14.5356
G01 X64.7139 Y-14.4863
G01 X64.8128 Y-14.4270
G01 X64.8986 Y-14.3636
G01 X64.9119 Y-14.3527
G01 X64.9909 Y-14.2809
G01 X65.0627 Y-14.2019
G01 X65.0736 Y-14.1886
G01 X65.1345 Y-14.1063
G01 X65.1416 Y-14.0955
G01 X65.1963 Y-14.0039
G01 X65.2456 Y-13.8997
G01 X65.2844 Y-13.7911
G01 X65.3105 Y-13.6876
G01 X65.3132 Y-13.6750
G01 X65.3293 Y-13.5652
G01 X65.3349 Y-13.4543
G01 X65.3350 Y-12.9500
G01 X65.3293 Y-12.8348
G01 X65.3124 Y-12.7208
G01 X65.2844 Y-12.6089
G01 X65.2456 Y-12.5003
G01 X65.1963 Y-12.3961
G01 X65.1370 Y-12.2972
G01 X65.0683 Y-12.2046
G01 X64.9909 Y-12.1191
G01 X64.9054 Y-12.0417
G01 X64.8128 Y-11.9730
G01 X64.7139 Y-11.9137
G01 X64.6097 Y-11.8644
G01 X64.5011 Y-11.8256
G01 X64.3892 Y-11.7976
G01 X64.2752 Y-11.7807
G01 X64.1600 Y-11.7750
G01 X64.0534 Y-11.7800
G01 X64.0363 Y-11.7817
G01 X63.9308 Y-11.7976
G01 X63.8272 Y-11.8233
G01 X63.8108 Y-11.8283
G01 X63.7103 Y-11.8644
G01 X63.6061 Y-11.9137
G01 X63.5072 Y-11.9730
G01 X63.4214 Y-12.0364
G01 X63.4081 Y-12.0473
G01 X63.3291 Y-12.1191
G01 X63.2573 Y-12.1981
G01 X63.2464 Y-12.2114
G01 X63.1855 Y-12.2937
G01 X63.1784 Y-12.3045
G01 X63.1237 Y-12.3961
G01 X63.0744 Y-12.5003
G01 X63.0356 Y-12.6089
G01 X63.0095 Y-12.7124
G01 X63.0068 Y-12.7250
G01 X62.9907 Y-12.8348
G01 X62.9851 Y-12.9457
G01 X62.9850 Y-13.4500
G01 X62.9907 Y-13.5652
G01 X63.0076 Y-13.6792
G01 X63.0356 Y-13.7911
G01 X63.0744 Y-13.8997
G01 X63.1237 Y-14.0039
G01 X63.1830 Y-14.1028
G01 X63.2517 Y-14.1954
G01 X63.3291 Y-14.2809
G01 X63.4146 Y-14.3583
G01 X63.5072 Y-14.4270
G01 X63.6061 Y-14.4863
G01 X63.7103 Y-14.5356
G01 X63.8189 Y-14.5744
G01 X63.9308 Y-14.6024
G01 X64.0448 Y-14.6193
G01 X64.1514 Y-14.6248
G01 X64.1686 Y-14.6248
G00 Z0.7000
G00 X61.6286 Y-14.6248
G01 F30.00
G01 Z-0.0651
G01 F100.00
G01 X61.7266 Y-14.6200
G01 X61.7437 Y-14.6183
G01 X61.8492 Y-14.6024
G01 X61.9528 Y-14.5767
G01 X61.9692 Y-14.5717
G01 X62.0697 Y-14.5356
G01 X62.1739 Y-14.4863
G01 X62.2728 Y-14.4270
G01 X62.3586 Y-14.3636
G01 X62.3719 Y-14.3527
G01 X62.4509 Y-14.2809
G01 X62.5227 Y-14.2019
G01 X62.5336 Y-14.1886
G01 X62.5945 Y-14.1063
G01 X62.6016 Y-14.0955
G01 X62.6563 Y-14.0039
G01 X62.7056 Y-13.8997
G01 X62.7444 Y-13.7911
G01 X62.7705 Y-13.6876
G01 X62.7732 Y-13.6750
G01 X62.7893 Y-13.5652
G01 X62.7949 Y-13.4543
G01 X62.7950 Y-12.9500
G01 X62.7893 Y-12.8348
G01 X62.7724 Y-12.7208
G01 X62.7444 Y-12.6089
G01 X62.7056 Y-12.5003
G01 X62.6563 Y-12.3961
G01 X62.5970 Y-12.2972
G01 X62.5283 Y-12.2046
G01 X62.4509 Y-12.1191
G01 X62.3654 Y-12.0417
G01 X62.2728 Y-11.9730
G01 X62.1739 Y-11.9137
G01 X62.0697 Y-11.8644
G01 X61.9611 Y-11.8256
G01 X61.8492 Y-11.7976
G01 X61.7352 Y-11.7807
G01 X61.6200 Y-11.7750
G01 X61.5134 Y-11.7800
G01 X61.4963 Y-11.7817
G01 X61.3908 Y-11.7976
G01 X61.2872 Y-11.8233
G01 X61.2708 Y-11.8283
G01 X61.1703 Y-11.8644
G01 X61.0661 Y-11.9137
G01 X60.9672 Y-11.9730
G01 X60.8814 Y-12.0364
G01 X60.8681 Y-12.0473
G01 X60.7891 Y-12.1191
G01 X60.7173 Y-12.1981
G01 X60.7064 Y-12.2114
G01 X60.6455 Y-12.2937
G01 X60.6384 Y-12.3045
G01 X60.5837 Y-12.3961
G01 X60.5344 Y-12.5003
G01 X60.4956 Y-12.6089
G01 X60.4695 Y-12.7124
G01 X60.4668 Y-12.7250
G01 X60.4507 Y-12.8348
G01 X60.4451 Y-12.9457
G01 X60.4450 Y-13.4500
G01 X60.4507 Y-13.5652
G01 X60.4676 Y-13.6792
G01 X60.4956 Y-13.7911
G01 X60.5344 Y-13.8997
G01 X60.5837 Y-14.0039
G01 X60.6430 Y-14.1028
G01 X60.7117 Y-14.1954
G01 X60.7891 Y-14.2809
G01 X60.8746 Y-14.3583
G01 X60.9672 Y-14.4270
G01 X61.0661 Y-14.4863
G01 X61.1703 Y-14.5356
G01 X61.2789 Y-14.5744
G01 X61.3908 Y-14.6024
G01 X61.5048 Y-14.6193
G01 X61.6114 Y-14.6248
G01 X61.6286 Y-14.6248
G00 Z0.7000
G00 X59.0886 Y-14.6248
G01 F30.00
G01 Z-0.0651
G01 F100.00
G01 X59.1866 Y-14.6200
G01 X59.2037 Y-14.6183
G01 X59.3092 Y-14.6024
G01 X59.4128 Y-14.5767
G01 X59.4292 Y-14.5717
G01 X59.5297 Y-14.5356
G01 X59.6339 Y-14.4863
G01 X59.7328 Y-14.4270
G01 X59.8186 Y-14.3636
G01 X59.8319 Y-14.3527
G01 X59.9109 Y-14.2809
G01 X59.9827 Y-14.2019
G01 X59.9936 Y-14.1886
G01 X60.0545 Y-14.1063
G01 X60.0616 Y-14.0955
G01 X60.1163 Y-14.0039
G01 X60.1656 Y-13.8997
G01 X60.2044 Y-13.7911
G01 X60.2305 Y-13.6876
G01 X60.2332 Y-13.6750
G01 X60.2493 Y-13.5652
G01 X60.2549 Y-13.4543
G01 X60.2550 Y-12.9500
G01 X60.2493 Y-12.8348
G01 X60.2324 Y-12.7208
G01 X60.2044 Y-12.6089
G01 X60.1656 Y-12.5003
G01 X60.1163 Y-12.3961
G01 X60.0570 Y-12.2972
G01 X59.9883 Y-12.2046
G01 X59.9109 Y-12.1191
G01 X59.8254 Y-12.0417
G01 X59.7328 Y-11.9730
G01 X59.6339 Y-11.9137
G01 X59.5297 Y-11.8644
G01 X59.4211 Y-11.8256
G01 X59.3092 Y-11.7976
G01 X59.1952 Y-11.7807
G01 X59.0800 Y-11.7750
G01 X58.9734 Y-11.7800
G01 X58.9563 Y-11.7817
G01 X58.8508 Y-11.7976
G01 X58.7472 Y-11.8233
G01 X58.7308 Y-11.8283
G01 X58.6303 Y-11.8644
G01 X58.5261 Y-11.9137
G01 X58.4272 Y-11.9730
G01 X58.3414 Y-12.0364
G01 X58.3281 Y-12.0473
G01 X58.2491 Y-12.1191
G01 X58.1773 Y-12.1981
G01 X58.1664 Y-12.2114
G01 X58.1055 Y-12.2937
G01 X58.0984 Y-12.3045
G01 X58.0437 Y-12.3961
G01 X57.9944 Y-12.5003
G01 X57.9556 Y-12.6089
G01 X57.9295 Y-12.7124
G01 X57.9268 Y-12.7250
G01 X57.9107 Y-12.8348
G01 X57.9051 Y-12.9457
G01 X57.9050 Y-13.4500
G01 X57.9107 Y-13.5652
G01 X57.9276 Y-13.6792
G01 X57.9556 Y-13.7911
G01 X57.9944 Y-13.8997
G01 X58.0437 Y-14.0039
G01 X58.1030 Y-14.1028
G01 X58.1717 Y-14.1954
G01 X58.2491 Y-14.2809
G01 X58.3346 Y-14.3583
G01 X58.4272 Y-14.4270
G01 X58.5261 Y-14.4863
G01 X58.6303 Y-14.5356
G01 X58.7389 Y-14.5744
G01 X58.8508 Y-14.6024
G01 X58.9648 Y-14.6193
G01 X59.0714 Y-14.6248
G01 X59.0886 Y-14.6248
G00 Z0.7000
G00 X55.8647 Y-11.9894
G01 F30.00
G01 Z-0.0651
G01 F100.00
G01 X55.7946 Y-12.0417
G01 X55.7091 Y-12.1191
G01 X55.6317 Y-12.2046
G01 X55.5630 Y-12.2972
G01 X55.5037 Y-12.3961
G01 X55.4544 Y-12.5003
G01 X55.4156 Y-12.6089
G01 X55.3885 Y-12.7166
G01 X55.3861 Y-12.7292
G01 X55.3707 Y-12.8348
G01 X55.3651 Y-12.9457
G01 X55.3650 Y-13.4500
G01 X55.3700 Y-13.5566
G01 X55.3717 Y-13.5737
G01 X55.3861 Y-13.6708
G01 X55.3895 Y-13.6876
G01 X55.4156 Y-13.7911
G01 X55.4514 Y-13.8916
G01 X55.4561 Y-13.9036
G01 X55.5037 Y-14.0039
G01 X55.5630 Y-14.1028
G01 X55.6317 Y-14.1954
G01 X55.7091 Y-14.2809
G01 X55.7946 Y-14.3583
G01 X55.8872 Y-14.4270
G01 X55.9861 Y-14.4863
G01 X56.0903 Y-14.5356
G01 X56.1989 Y-14.5744
G01 X56.3108 Y-14.6024
G01 X56.4248 Y-14.6193
G01 X56.5400 Y-14.6250
G01 X56.6552 Y-14.6193
G01 X56.7692 Y-14.6024
G01 X56.8811 Y-14.5744
G01 X56.9816 Y-14.5386
G01 X56.9936 Y-14.5339
G01 X57.0939 Y-14.4863
G01 X57.1855 Y-14.4316
G01 X57.1998 Y-14.4220
G01 X57.2854 Y-14.3583
G01 X57.3646 Y-14.2868
G01 X57.3768 Y-14.2746
G01 X57.4483 Y-14.1954
G01 X57.5120 Y-14.1098
G01 X57.5216 Y-14.0955
G01 X57.5763 Y-14.0039
G01 X57.6221 Y-13.9075
G01 X57.6286 Y-13.8916
G01 X57.6644 Y-13.7911
G01 X57.6905 Y-13.6876
G01 X57.6939 Y-13.6708
G01 X57.7083 Y-13.5737
G01 X57.7100 Y-13.5566
G01 X57.7150 Y-13.4500
G01 X57.7148 Y-12.9414
G01 X57.7093 Y-12.8348
G01 X57.6939 Y-12.7292
G01 X57.6905 Y-12.7124
G01 X57.6644 Y-12.6089
G01 X57.6256 Y-12.5003
G01 X57.5801 Y-12.4038
G01 X57.5720 Y-12.3886
G01 X57.5216 Y-12.3045
G01 X57.5120 Y-12.2902
G01 X57.4483 Y-12.2046
G01 X57.3709 Y-12.1191
G01 X57.2854 Y-12.0417
G01 X57.2153 Y-11.9894
G01 X57.2153 Y-10.6397
G01 X58.5405 Y-9.3144
G01 X58.5820 Y-9.2684
G01 X58.6165 Y-9.2222
G01 X58.6260 Y-9.2079
G01 X58.6555 Y-9.1583
G01 X58.6838 Y-9.0984
G01 X58.7062 Y-9.0360
G01 X58.7223 Y-8.9717
G01 X58.7309 Y-8.9147
G01 X58.7326 Y-8.8976
G01 X58.7353 Y-8.8400
G01 X58.7353 Y-7.5720
G01 X58.7476 Y-7.5636
G01 X58.8371 Y-7.4969
G01 X58.9262 Y-7.4162
G01 X59.0069 Y-7.3271
G01 X59.0736 Y-7.2376
G01 X59.0831 Y-7.2233
G01 X59.1404 Y-7.1275
G01 X59.1883 Y-7.0266
G01 X59.1948 Y-7.0108
G01 X59.2323 Y-6.9056
G01 X59.2596 Y-6.7974
G01 X59.2629 Y-6.7805
G01 X59.2780 Y-6.6786
G01 X59.2797 Y-6.6615
G01 X59.2850 Y-6.5500
G01 X59.2850 Y-5.6500
G01 X59.2797 Y-5.5385
G01 X59.2780 Y-5.5214
G01 X59.2629 Y-5.4195
G01 X59.2596 Y-5.4026
G01 X59.2323 Y-5.2944
G01 X59.1933 Y-5.1852
G01 X59.1883 Y-5.1734
G01 X59.1404 Y-5.0725
G01 X59.0786 Y-4.9694
G01 X59.0069 Y-4.8729
G01 X58.9321 Y-4.7900
G01 X58.9200 Y-4.7779
G01 X58.8436 Y-4.7087
G01 X58.8304 Y-4.6978
G01 X58.7406 Y-4.6314
G01 X58.6449 Y-4.5739
G01 X58.6298 Y-4.5658
G01 X58.5288 Y-4.5182
G01 X58.4197 Y-4.4790
G01 X58.4073 Y-4.4755
G01 X58.2990 Y-4.4485
G01 X58.1801 Y-4.4309
G01 X58.0600 Y-4.4250
G01 X57.9399 Y-4.4309
G01 X57.8210 Y-4.4485
G01 X57.7044 Y-4.4777
G01 X57.5912 Y-4.5182
G01 X57.4825 Y-4.5696
G01 X57.3794 Y-4.6314
G01 X57.2829 Y-4.7031
G01 X57.1938 Y-4.7838
G01 X57.1131 Y-4.8729
G01 X57.0414 Y-4.9694
G01 X56.9796 Y-5.0725
G01 X56.9282 Y-5.1812
G01 X56.8890 Y-5.2903
G01 X56.8855 Y-5.3027
G01 X56.8604 Y-5.4026
G01 X56.8571 Y-5.4195
G01 X56.8409 Y-5.5299
G01 X56.8351 Y-5.6457
G01 X56.8351 Y-6.5543
G01 X56.8409 Y-6.6701
G01 X56.8571 Y-6.7805
G01 X56.8604 Y-6.7974
G01 X56.8877 Y-6.9056
G01 X56.9282 Y-7.0188
G01 X56.9796 Y-7.1275
G01 X57.0414 Y-7.2306
G01 X57.1131 Y-7.3271
G01 X57.1938 Y-7.4162
G01 X57.2829 Y-7.4969
G01 X57.3724 Y-7.5636
G01 X57.3847 Y-7.5720
G01 X57.3847 Y-8.5603
G01 X56.0595 Y-9.8856
G01 X56.0180 Y-9.9316
G01 X55.9786 Y-9.9849
G01 X55.9445 Y-10.0417
G01 X55.9178 Y-10.0976
G01 X55.9131 Y-10.1096
G01 X55.8938 Y-10.1640
G01 X55.8777 Y-10.2283
G01 X55.8680 Y-10.2938
G01 X55.8648 Y-10.3557
G01 X55.8647 Y-11.9894
G00 Z0.7000
G00 X53.3247 Y-11.9894
G01 F30.00
G01 Z-0.0651
G01 F100.00
G01 X53.2546 Y-12.0417
G01 X53.1691 Y-12.1191
G01 X53.0917 Y-12.2046
G01 X53.0230 Y-12.2972
G01 X52.9637 Y-12.3961
G01 X52.9144 Y-12.5003
G01 X52.8756 Y-12.6089
G01 X52.8485 Y-12.7166
G01 X52.8461 Y-12.7292
G01 X52.8307 Y-12.8348
G01 X52.8251 Y-12.9457
G01 X52.8250 Y-13.4500
G01 X52.8300 Y-13.5566
G01 X52.8317 Y-13.5737
G01 X52.8461 Y-13.6708
G01 X52.8495 Y-13.6876
G01 X52.8756 Y-13.7911
G01 X52.9114 Y-13.8916
G01 X52.9161 Y-13.9036
G01 X52.9637 Y-14.0039
G01 X53.0230 Y-14.1028
G01 X53.0917 Y-14.1954
G01 X53.1691 Y-14.2809
G01 X53.2546 Y-14.3583
G01 X53.3472 Y-14.4270
G01 X53.4461 Y-14.4863
G01 X53.5503 Y-14.5356
G01 X53.6589 Y-14.5744
G01 X53.7708 Y-14.6024
G01 X53.8848 Y-14.6193
G01 X54.0000 Y-14.6250
G01 X54.1152 Y-14.6193
G01 X54.2292 Y-14.6024
G01 X54.3411 Y-14.5744
G01 X54.4416 Y-14.5386
G01 X54.4536 Y-14.5339
G01 X54.5539 Y-14.4863
G01 X54.6455 Y-14.4316
G01 X54.6598 Y-14.4220
G01 X54.7454 Y-14.3583
G01 X54.8246 Y-14.2868
G01 X54.8368 Y-14.2746
G01 X54.9083 Y-14.1954
G01 X54.9720 Y-14.1098
G01 X54.9816 Y-14.0955
G01 X55.0363 Y-14.0039
G01 X55.0821 Y-13.9075
G01 X55.0886 Y-13.8916
G01 X55.1244 Y-13.7911
G01 X55.1505 Y-13.6876
G01 X55.1539 Y-13.6708
G01 X55.1683 Y-13.5737
G01 X55.1700 Y-13.5566
G01 X55.1750 Y-13.4500
G01 X55.1748 Y-12.9414
G01 X55.1693 Y-12.8348
G01 X55.1539 Y-12.7292
G01 X55.1505 Y-12.7124
G01 X55.1244 Y-12.6089
G01 X55.0856 Y-12.5003
G01 X55.0401 Y-12.4038
G01 X55.0320 Y-12.3886
G01 X54.9816 Y-12.3045
G01 X54.9720 Y-12.2902
G01 X54.9083 Y-12.2046
G01 X54.8309 Y-12.1191
G01 X54.7454 Y-12.0417
G01 X54.6753 Y-11.9894
G01 X54.6753 Y-10.1797
G01 X56.0005 Y-8.8544
G01 X56.0364 Y-8.8149
G01 X56.0473 Y-8.8016
G01 X56.0814 Y-8.7551
G01 X56.1113 Y-8.7058
G01 X56.1194 Y-8.6906
G01 X56.1438 Y-8.6384
G01 X56.1662 Y-8.5760
G01 X56.1823 Y-8.5117
G01 X56.1909 Y-8.4547
G01 X56.1924 Y-8.4419
G01 X56.1953 Y-8.3800
G01 X56.1953 Y-7.5720
G01 X56.2076 Y-7.5636
G01 X56.2971 Y-7.4969
G01 X56.3862 Y-7.4162
G01 X56.4669 Y-7.3271
G01 X56.5336 Y-7.2376
G01 X56.5431 Y-7.2233
G01 X56.6004 Y-7.1275
G01 X56.6483 Y-7.0266
G01 X56.6548 Y-7.0108
G01 X56.6923 Y-6.9056
G01 X56.7196 Y-6.7974
G01 X56.7229 Y-6.7805
G01 X56.7380 Y-6.6786
G01 X56.7397 Y-6.6615
G01 X56.7450 Y-6.5500
G01 X56.7450 Y-5.6500
G01 X56.7397 Y-5.5385
G01 X56.7380 Y-5.5214
G01 X56.7229 Y-5.4195
G01 X56.7196 Y-5.4026
G01 X56.6923 Y-5.2944
G01 X56.6533 Y-5.1852
G01 X56.6483 Y-5.1734
G01 X56.6004 Y-5.0725
G01 X56.5386 Y-4.9694
G01 X56.4669 Y-4.8729
G01 X56.3921 Y-4.7900
G01 X56.3800 Y-4.7779
G01 X56.3036 Y-4.7087
G01 X56.2904 Y-4.6978
G01 X56.2006 Y-4.6314
G01 X56.1049 Y-4.5739
G01 X56.0898 Y-4.5658
G01 X55.9888 Y-4.5182
G01 X55.8797 Y-4.4790
G01 X55.8673 Y-4.4755
G01 X55.7590 Y-4.4485
G01 X55.6401 Y-4.4309
G01 X55.5200 Y-4.4250
G01 X55.3999 Y-4.4309
G01 X55.2810 Y-4.4485
G01 X55.1644 Y-4.4777
G01 X55.0512 Y-4.5182
G01 X54.9425 Y-4.5696
G01 X54.8394 Y-4.6314
G01 X54.7429 Y-4.7031
G01 X54.6538 Y-4.7838
G01 X54.5731 Y-4.8729
G01 X54.5014 Y-4.9694
G01 X54.4396 Y-5.0725
G01 X54.3882 Y-5.1812
G01 X54.3490 Y-5.2903
G01 X54.3455 Y-5.3027
G01 X54.3204 Y-5.4026
G01 X54.3171 Y-5.4195
G01 X54.3009 Y-5.5299
G01 X54.2951 Y-5.6457
G01 X54.2951 Y-6.5543
G01 X54.3009 Y-6.6701
G01 X54.3178 Y-6.7848
G01 X54.3204 Y-6.7974
G01 X54.3477 Y-6.9056
G01 X54.3882 Y-7.0188
G01 X54.4396 Y-7.1275
G01 X54.5014 Y-7.2306
G01 X54.5731 Y-7.3271
G01 X54.6538 Y-7.4162
G01 X54.7429 Y-7.4969
G01 X54.8324 Y-7.5636
G01 X54.8447 Y-7.5720
G01 X54.8447 Y-8.1003
G01 X53.5195 Y-9.4256
G01 X53.4780 Y-9.4716
G01 X53.4386 Y-9.5249
G01 X53.4045 Y-9.5817
G01 X53.3796 Y-9.6337
G01 X53.3746 Y-9.6456
G01 X53.3538 Y-9.7040
G01 X53.3377 Y-9.7683
G01 X53.3280 Y-9.8338
G01 X53.3248 Y-9.8957
G01 X53.3247 Y-11.9894
G00 Z0.7000
G00 X50.7847 Y-11.9894
G01 F30.00
G01 Z-0.0651
G01 F100.00
G01 X50.7146 Y-12.0417
G01 X50.6291 Y-12.1191
G01 X50.5517 Y-12.2046
G01 X50.4830 Y-12.2972
G01 X50.4237 Y-12.3961
G01 X50.3744 Y-12.5003
G01 X50.3356 Y-12.6089
G01 X50.3085 Y-12.7166
G01 X50.3061 Y-12.7292
G01 X50.2907 Y-12.8348
G01 X50.2851 Y-12.9457
G01 X50.2850 Y-13.4500
G01 X50.2900 Y-13.5566
G01 X50.2917 Y-13.5737
G01 X50.3061 Y-13.6708
G01 X50.3095 Y-13.6876
G01 X50.3356 Y-13.7911
G01 X50.3714 Y-13.8916
G01 X50.3761 Y-13.9036
G01 X50.4237 Y-14.0039
G01 X50.4830 Y-14.1028
G01 X50.5517 Y-14.1954
G01 X50.6291 Y-14.2809
G01 X50.7146 Y-14.3583
G01 X50.8072 Y-14.4270
G01 X50.9061 Y-14.4863
G01 X51.0103 Y-14.5356
G01 X51.1189 Y-14.5744
G01 X51.2308 Y-14.6024
G01 X51.3448 Y-14.6193
G01 X51.4600 Y-14.6250
G01 X51.5752 Y-14.6193
G01 X51.6892 Y-14.6024
G01 X51.8011 Y-14.5744
G01 X51.9016 Y-14.5386
G01 X51.9136 Y-14.5339
G01 X52.0139 Y-14.4863
G01 X52.1055 Y-14.4316
G01 X52.1198 Y-14.4220
G01 X52.2054 Y-14.3583
G01 X52.2909 Y-14.2809
G01 X52.3627 Y-14.2019
G01 X52.3736 Y-14.1886
G01 X52.4370 Y-14.1028
G01 X52.4963 Y-14.0039
G01 X52.5421 Y-13.9075
G01 X52.5486 Y-13.8916
G01 X52.5844 Y-13.7911
G01 X52.6105 Y-13.6876
G01 X52.6139 Y-13.6708
G01 X52.6293 Y-13.5652
G01 X52.6348 Y-13.4586
G01 X52.6350 Y-12.9500
G01 X52.6300 Y-12.8434
G01 X52.6283 Y-12.8263
G01 X52.6124 Y-12.7208
G01 X52.5867 Y-12.6172
G01 X52.5831 Y-12.6048
G01 X52.5456 Y-12.5003
G01 X52.5001 Y-12.4038
G01 X52.4920 Y-12.3886
G01 X52.4416 Y-12.3045
G01 X52.4320 Y-12.2902
G01 X52.3683 Y-12.2046
G01 X52.2909 Y-12.1191
G01 X52.2054 Y-12.0417
G01 X52.1353 Y-11.9894
G01 X52.1353 Y-9.4197
G01 X53.4575 Y-8.0975
G01 X53.4964 Y-8.0549
G01 X53.5073 Y-8.0416
G01 X53.5414 Y-7.9951
G01 X53.5755 Y-7.9383
G01 X53.6038 Y-7.8784
G01 X53.6262 Y-7.8160
G01 X53.6423 Y-7.7517
G01 X53.6515 Y-7.6905
G01 X53.6526 Y-7.6776
G01 X53.6552 Y-7.6243
G01 X53.6553 Y-7.5720
G01 X53.6676 Y-7.5636
G01 X53.7571 Y-7.4969
G01 X53.8462 Y-7.4162
G01 X53.9269 Y-7.3271
G01 X53.9936 Y-7.2376
G01 X54.0031 Y-7.2233
G01 X54.0604 Y-7.1275
G01 X54.1083 Y-7.0266
G01 X54.1148 Y-7.0108
G01 X54.1523 Y-6.9056
G01 X54.1796 Y-6.7974
G01 X54.1829 Y-6.7805
G01 X54.1980 Y-6.6786
G01 X54.1997 Y-6.6615
G01 X54.2050 Y-6.5500
G01 X54.2050 Y-5.6500
G01 X54.1997 Y-5.5385
G01 X54.1980 Y-5.5214
G01 X54.1829 Y-5.4195
G01 X54.1796 Y-5.4026
G01 X54.1523 Y-5.2944
G01 X54.1133 Y-5.1852
G01 X54.1083 Y-5.1734
G01 X54.0604 Y-5.0725
G01 X53.9986 Y-4.9694
G01 X53.9269 Y-4.8729
G01 X53.8521 Y-4.7900
G01 X53.8400 Y-4.7779
G01 X53.7636 Y-4.7087
G01 X53.7504 Y-4.6978
G01 X53.6606 Y-4.6314
G01 X53.5649 Y-4.5739
G01 X53.5498 Y-4.5658
G01 X53.4488 Y-4.5182
G01 X53.3397 Y-4.4790
G01 X53.3273 Y-4.4755
G01 X53.2190 Y-4.4485
G01 X53.1001 Y-4.4309
G01 X52.9800 Y-4.4250
G01 X52.8599 Y-4.4309
G01 X52.7410 Y-4.4485
G01 X52.6244 Y-4.4777
G01 X52.5112 Y-4.5182
G01 X52.4025 Y-4.5696
G01 X52.2994 Y-4.6314
G01 X52.2029 Y-4.7031
G01 X52.1138 Y-4.7838
G01 X52.0331 Y-4.8729
G01 X51.9614 Y-4.9694
G01 X51.8996 Y-5.0725
G01 X51.8482 Y-5.1812
G01 X51.8090 Y-5.2903
G01 X51.8055 Y-5.3027
G01 X51.7804 Y-5.4026
G01 X51.7771 Y-5.4195
G01 X51.7609 Y-5.5299
G01 X51.7551 Y-5.6457
G01 X51.7551 Y-6.5543
G01 X51.7609 Y-6.6701
G01 X51.7778 Y-6.7848
G01 X51.7804 Y-6.7974
G01 X51.8055 Y-6.8973
G01 X51.8104 Y-6.9138
G01 X51.8482 Y-7.0188
G01 X51.8958 Y-7.1198
G01 X51.9017 Y-7.1312
G01 X51.9614 Y-7.2306
G01 X52.0331 Y-7.3271
G01 X52.1138 Y-7.4162
G01 X52.1740 Y-7.4711
G01 X50.9766 Y-8.6687
G01 X50.9408 Y-8.7083
G01 X50.9327 Y-8.7184
G01 X50.8986 Y-8.7649
G01 X50.8687 Y-8.8142
G01 X50.8606 Y-8.8294
G01 X50.8362 Y-8.8816
G01 X50.8138 Y-8.9440
G01 X50.7996 Y-8.9999
G01 X50.7963 Y-9.0167
G01 X50.7880 Y-9.0738
G01 X50.7847 Y-9.1400
G01 X50.7847 Y-11.9894
G00 Z0.7000
G00 X48.9286 Y-14.6248
G01 F30.00
G01 Z-0.0651
G01 F100.00
G01 X49.0266 Y-14.6200
G01 X49.0437 Y-14.6183
G01 X49.1492 Y-14.6024
G01 X49.2528 Y-14.5767
G01 X49.2692 Y-14.5717
G01 X49.3697 Y-14.5356
G01 X49.4739 Y-14.4863
G01 X49.5728 Y-14.4270
G01 X49.6586 Y-14.3636
G01 X49.6719 Y-14.3527
G01 X49.7509 Y-14.2809
G01 X49.8227 Y-14.2019
G01 X49.8336 Y-14.1886
G01 X49.8945 Y-14.1063
G01 X49.9016 Y-14.0955
G01 X49.9563 Y-14.0039
G01 X50.0056 Y-13.8997
G01 X50.0444 Y-13.7911
G01 X50.0705 Y-13.6876
G01 X50.0732 Y-13.6750
G01 X50.0893 Y-13.5652
G01 X50.0949 Y-13.4543
G01 X50.0950 Y-12.9500
G01 X50.0893 Y-12.8348
G01 X50.0724 Y-12.7208
G01 X50.0444 Y-12.6089
G01 X50.0056 Y-12.5003
G01 X49.9563 Y-12.3961
G01 X49.8970 Y-12.2972
G01 X49.8283 Y-12.2046
G01 X49.7509 Y-12.1191
G01 X49.6654 Y-12.0417
G01 X49.5728 Y-11.9730
G01 X49.4739 Y-11.9137
G01 X49.3697 Y-11.8644
G01 X49.2611 Y-11.8256
G01 X49.1492 Y-11.7976
G01 X49.0352 Y-11.7807
G01 X48.9200 Y-11.7750
G01 X48.8134 Y-11.7800
G01 X48.7963 Y-11.7817
G01 X48.6908 Y-11.7976
G01 X48.5872 Y-11.8233
G01 X48.5708 Y-11.8283
G01 X48.4703 Y-11.8644
G01 X48.3661 Y-11.9137
G01 X48.2672 Y-11.9730
G01 X48.1814 Y-12.0364
G01 X48.1681 Y-12.0473
G01 X48.0891 Y-12.1191
G01 X48.0173 Y-12.1981
G01 X48.0064 Y-12.2114
G01 X47.9455 Y-12.2937
G01 X47.9384 Y-12.3045
G01 X47.8837 Y-12.3961
G01 X47.8344 Y-12.5003
G01 X47.7956 Y-12.6089
G01 X47.7695 Y-12.7124
G01 X47.7668 Y-12.7250
G01 X47.7507 Y-12.8348
G01 X47.7451 Y-12.9457
G01 X47.7450 Y-13.4500
G01 X47.7507 Y-13.5652
G01 X47.7676 Y-13.6792
G01 X47.7956 Y-13.7911
G01 X47.8344 Y-13.8997
G01 X47.8837 Y-14.0039
G01 X47.9430 Y-14.1028
G01 X48.0117 Y-14.1954
G01 X48.0891 Y-14.2809
G01 X48.1746 Y-14.3583
G01 X48.2672 Y-14.4270
G01 X48.3661 Y-14.4863
G01 X48.4703 Y-14.5356
G01 X48.5789 Y-14.5744
G01 X48.6908 Y-14.6024
G01 X48.8048 Y-14.6193
G01 X48.9114 Y-14.6248
G01 X48.9286 Y-14.6248
G00 Z0.7000
G00 X45.7248 Y-11.9746
G01 F30.00
G01 Z-0.0651
G01 F100.00
G01 X45.6346 Y-12.0417
G01 X45.5491 Y-12.1191
G01 X45.4717 Y-12.2046
G01 X45.4030 Y-12.2972
G01 X45.3437 Y-12.3961
G01 X45.2944 Y-12.5003
G01 X45.2556 Y-12.6089
G01 X45.2285 Y-12.7166
G01 X45.2261 Y-12.7292
G01 X45.2107 Y-12.8348
G01 X45.2051 Y-12.9457
G01 X45.2050 Y-13.4500
G01 X45.2100 Y-13.5566
G01 X45.2117 Y-13.5737
G01 X45.2261 Y-13.6708
G01 X45.2295 Y-13.6876
G01 X45.2556 Y-13.7911
G01 X45.2914 Y-13.8916
G01 X45.2961 Y-13.9036
G01 X45.3437 Y-14.0039
G01 X45.4030 Y-14.1028
G01 X45.4717 Y-14.1954
G01 X45.5491 Y-14.2809
G01 X45.6346 Y-14.3583
G01 X45.7272 Y-14.4270
G01 X45.8261 Y-14.4863
G01 X45.9303 Y-14.5356
G01 X46.0389 Y-14.5744
G01 X46.1508 Y-14.6024
G01 X46.2648 Y-14.6193
G01 X46.3800 Y-14.6250
G01 X46.4952 Y-14.6193
G01 X46.6092 Y-14.6024
G01 X46.7211 Y-14.5744
G01 X46.8216 Y-14.5386
G01 X46.8336 Y-14.5339
G01 X46.9339 Y-14.4863
G01 X47.0328 Y-14.4270
G01 X47.1254 Y-14.3583
G01 X47.2109 Y-14.2809
G01 X47.2883 Y-14.1954
G01 X47.3570 Y-14.1028
G01 X47.4163 Y-14.0039
G01 X47.4639 Y-13.9036
G01 X47.4686 Y-13.8916
G01 X47.5017 Y-13.7992
G01 X47.5067 Y-13.7828
G01 X47.5324 Y-13.6792
G01 X47.5493 Y-13.5652
G01 X47.5550 Y-13.4500
G01 X47.5549 Y-12.9457
G01 X47.5493 Y-12.8348
G01 X47.5339 Y-12.7292
G01 X47.5305 Y-12.7124
G01 X47.5067 Y-12.6172
G01 X47.5017 Y-12.6008
G01 X47.4656 Y-12.5003
G01 X47.4163 Y-12.3961
G01 X47.3570 Y-12.2972
G01 X47.2910 Y-12.2079
G01 X47.2827 Y-12.1981
G01 X47.2109 Y-12.1191
G01 X47.1319 Y-12.0473
G01 X47.1186 Y-12.0364
G01 X47.0398 Y-11.9780
G01 X47.0292 Y-11.9707
G01 X46.9339 Y-11.9137
G01 X46.8336 Y-11.8661
G01 X46.8216 Y-11.8614
G01 X46.7252 Y-11.8269
G01 X46.7128 Y-11.8233
G01 X46.6751 Y-11.8139
G01 X46.6752 Y-10.7562
G01 X46.7129 Y-10.7427
G01 X46.7429 Y-10.7287
G01 X46.7543 Y-10.7228
G01 X46.7863 Y-10.7034
G01 X46.8198 Y-10.6786
G01 X46.8444 Y-10.6566
G01 X46.8536 Y-10.6476
G01 X46.8786 Y-10.6198
G01 X46.9034 Y-10.5863
G01 X46.9206 Y-10.5580
G01 X46.9268 Y-10.5467
G01 X46.9427 Y-10.5129
G01 X46.9554 Y-10.4777
G01 X46.9590 Y-10.4654
G01 X46.9668 Y-10.4332
G01 X46.9725 Y-10.3963
G01 X46.9736 Y-10.3835
G01 X46.9750 Y-10.3504
G01 X46.9750 Y-9.2496
G01 X46.9732 Y-9.2104
G01 X46.9691 Y-9.1796
G01 X46.9661 Y-9.1637
G01 X46.9599 Y-9.1373
G01 X46.9564 Y-9.1257
G01 X46.9463 Y-9.0962
G01 X46.9305 Y-9.0603
G01 X46.9114 Y-9.0261
G01 X46.8892 Y-8.9937
G01 X46.8642 Y-8.9635
G01 X46.8423 Y-8.9414
G01 X46.8304 Y-8.9305
G01 X46.8095 Y-8.9132
G01 X46.7997 Y-8.9060
G01 X46.7739 Y-8.8886
G01 X46.7397 Y-8.8695
G01 X46.7038 Y-8.8537
G01 X46.6705 Y-8.8424
G01 X46.6627 Y-8.8401
G01 X46.6363 Y-8.8339
G01 X46.6204 Y-8.8309
G01 X46.5896 Y-8.8268
G01 X46.5504 Y-8.8250
G01 X45.8496 Y-8.8250
G01 X45.8080 Y-8.8270
G01 X45.7752 Y-8.8317
G01 X45.7626 Y-8.8340
G01 X45.7263 Y-8.8433
G01 X45.6951 Y-8.8542
G01 X45.6832 Y-8.8590
G01 X45.6494 Y-8.8751
G01 X45.6173 Y-8.8942
G01 X45.6067 Y-8.9015
G01 X45.5802 Y-8.9214
G01 X45.5556 Y-8.9434
G01 X45.5464 Y-8.9524
G01 X45.5214 Y-8.9802
G01 X45.4990 Y-9.0102
G01 X45.4920 Y-9.0210
G01 X45.4751 Y-9.0494
G01 X45.4608 Y-9.0793
G01 X45.4557 Y-9.0911
G01 X45.4433 Y-9.1263
G01 X45.4340 Y-9.1626
G01 X45.4317 Y-9.1752
G01 X45.4270 Y-9.2080
G01 X45.4251 Y-9.2453
G01 X45.4250 Y-10.3504
G01 X45.4270 Y-10.3920
G01 X45.4324 Y-10.4290
G01 X45.4350 Y-10.4416
G01 X45.4433 Y-10.4737
G01 X45.4573 Y-10.5129
G01 X45.4732 Y-10.5467
G01 X45.4794 Y-10.5580
G01 X45.4966 Y-10.5863
G01 X45.5214 Y-10.6198
G01 X45.5464 Y-10.6476
G01 X45.5556 Y-10.6566
G01 X45.5802 Y-10.6786
G01 X45.6137 Y-10.7034
G01 X45.6457 Y-10.7228
G01 X45.6571 Y-10.7287
G01 X45.6871 Y-10.7427
G01 X45.7249 Y-10.7562
G01 X45.7248 Y-11.9746
G00 Z0.7000
G00 X43.8486 Y-14.6248
G01 F30.00
G01 Z-0.0651
G01 F100.00
G01 X43.9466 Y-14.6200
G01 X43.9637 Y-14.6183
G01 X44.0692 Y-14.6024
G01 X44.1728 Y-14.5767
G01 X44.1892 Y-14.5717
G01 X44.2897 Y-14.5356
G01 X44.3939 Y-14.4863
G01 X44.4928 Y-14.4270
G01 X44.5786 Y-14.3636
G01 X44.5919 Y-14.3527
G01 X44.6709 Y-14.2809
G01 X44.7427 Y-14.2019
G01 X44.7536 Y-14.1886
G01 X44.8145 Y-14.1063
G01 X44.8216 Y-14.0955
G01 X44.8763 Y-14.0039
G01 X44.9256 Y-13.8997
G01 X44.9644 Y-13.7911
G01 X44.9905 Y-13.6876
G01 X44.9932 Y-13.6750
G01 X45.0093 Y-13.5652
G01 X45.0149 Y-13.4543
G01 X45.0150 Y-12.9500
G01 X45.0093 Y-12.8348
G01 X44.9924 Y-12.7208
G01 X44.9644 Y-12.6089
G01 X44.9256 Y-12.5003
G01 X44.8763 Y-12.3961
G01 X44.8170 Y-12.2972
G01 X44.7483 Y-12.2046
G01 X44.6709 Y-12.1191
G01 X44.5854 Y-12.0417
G01 X44.4928 Y-11.9730
G01 X44.3939 Y-11.9137
G01 X44.2897 Y-11.8644
G01 X44.1811 Y-11.8256
G01 X44.0692 Y-11.7976
G01 X43.9552 Y-11.7807
G01 X43.8400 Y-11.7750
G01 X43.7334 Y-11.7800
G01 X43.7163 Y-11.7817
G01 X43.6108 Y-11.7976
G01 X43.5072 Y-11.8233
G01 X43.4908 Y-11.8283
G01 X43.3903 Y-11.8644
G01 X43.2861 Y-11.9137
G01 X43.1872 Y-11.9730
G01 X43.1014 Y-12.0364
G01 X43.0881 Y-12.0473
G01 X43.0091 Y-12.1191
G01 X42.9373 Y-12.1981
G01 X42.9264 Y-12.2114
G01 X42.8655 Y-12.2937
G01 X42.8584 Y-12.3045
G01 X42.8037 Y-12.3961
G01 X42.7544 Y-12.5003
G01 X42.7156 Y-12.6089
G01 X42.6895 Y-12.7124
G01 X42.6868 Y-12.7250
G01 X42.6707 Y-12.8348
G01 X42.6651 Y-12.9457
G01 X42.6650 Y-13.4500
G01 X42.6707 Y-13.5652
G01 X42.6876 Y-13.6792
G01 X42.7156 Y-13.7911
G01 X42.7544 Y-13.8997
G01 X42.8037 Y-14.0039
G01 X42.8630 Y-14.1028
G01 X42.9317 Y-14.1954
G01 X43.0091 Y-14.2809
G01 X43.0946 Y-14.3583
G01 X43.1872 Y-14.4270
G01 X43.2861 Y-14.4863
G01 X43.3903 Y-14.5356
G01 X43.4989 Y-14.5744
G01 X43.6108 Y-14.6024
G01 X43.7248 Y-14.6193
G01 X43.8314 Y-14.6248
G01 X43.8486 Y-14.6248
G00 Z0.7000
G00 X38.7686 Y-14.6248
G01 F30.00
G01 Z-0.0651
G01 F100.00
G01 X38.8666 Y-14.6200
G01 X38.8837 Y-14.6183
G01 X38.9892 Y-14.6024
G01 X39.0928 Y-14.5767
G01 X39.1092 Y-14.5717
G01 X39.2097 Y-14.5356
G01 X39.3139 Y-14.4863
G01 X39.4128 Y-14.4270
G01 X39.4986 Y-14.3636
G01 X39.5119 Y-14.3527
G01 X39.5909 Y-14.2809
G01 X39.6627 Y-14.2019
G01 X39.6736 Y-14.1886
G01 X39.7345 Y-14.1063
G01 X39.7416 Y-14.0955
G01 X39.7963 Y-14.0039
G01 X39.8456 Y-13.8997
G01 X39.8844 Y-13.7911
G01 X39.9105 Y-13.6876
G01 X39.9132 Y-13.6750
G01 X39.9293 Y-13.5652
G01 X39.9349 Y-13.4543
G01 X39.9350 Y-12.9500
G01 X39.9293 Y-12.8348
G01 X39.9124 Y-12.7208
G01 X39.8844 Y-12.6089
G01 X39.8456 Y-12.5003
G01 X39.7963 Y-12.3961
G01 X39.7370 Y-12.2972
G01 X39.6683 Y-12.2046
G01 X39.5909 Y-12.1191
G01 X39.5054 Y-12.0417
G01 X39.4128 Y-11.9730
G01 X39.3139 Y-11.9137
G01 X39.2097 Y-11.8644
G01 X39.1011 Y-11.8256
G01 X38.9892 Y-11.7976
G01 X38.8752 Y-11.7807
G01 X38.7600 Y-11.7750
G01 X38.6534 Y-11.7800
G01 X38.6363 Y-11.7817
G01 X38.5308 Y-11.7976
G01 X38.4272 Y-11.8233
G01 X38.4108 Y-11.8283
G01 X38.3103 Y-11.8644
G01 X38.2061 Y-11.9137
G01 X38.1072 Y-11.9730
G01 X38.0214 Y-12.0364
G01 X38.0081 Y-12.0473
G01 X37.9291 Y-12.1191
G01 X37.8573 Y-12.1981
G01 X37.8464 Y-12.2114
G01 X37.7855 Y-12.2937
G01 X37.7784 Y-12.3045
G01 X37.7237 Y-12.3961
G01 X37.6744 Y-12.5003
G01 X37.6356 Y-12.6089
G01 X37.6095 Y-12.7124
G01 X37.6068 Y-12.7250
G01 X37.5907 Y-12.8348
G01 X37.5851 Y-12.9457
G01 X37.5850 Y-13.4500
G01 X37.5907 Y-13.5652
G01 X37.6076 Y-13.6792
G01 X37.6356 Y-13.7911
G01 X37.6744 Y-13.8997
G01 X37.7237 Y-14.0039
G01 X37.7830 Y-14.1028
G01 X37.8517 Y-14.1954
G01 X37.9291 Y-14.2809
G01 X38.0146 Y-14.3583
G01 X38.1072 Y-14.4270
G01 X38.2061 Y-14.4863
G01 X38.3103 Y-14.5356
G01 X38.4189 Y-14.5744
G01 X38.5308 Y-14.6024
G01 X38.6448 Y-14.6193
G01 X38.7514 Y-14.6248
G01 X38.7686 Y-14.6248
G00 Z0.7000
G00 X36.6952 Y-16.2729
G01 F30.00
G01 Z-0.0651
G01 F100.00
G01 X36.8854 Y-16.2725
G01 X36.9441 Y-16.2783
G01 X36.9865 Y-16.2912
G01 X37.0256 Y-16.3121
G01 X37.0598 Y-16.3402
G01 X37.0879 Y-16.3744
G01 X37.1088 Y-16.4135
G01 X37.1217 Y-16.4559
G01 X37.1274 Y-16.5145
G01 X37.1254 Y-17.3249
G01 X37.0750 Y-17.3249
G01 X37.0750 Y-16.8108
G01 X37.0733 Y-16.7717
G01 X37.0722 Y-16.7589
G01 X37.0671 Y-16.7245
G01 X37.0638 Y-16.7076
G01 X37.0541 Y-16.6698
G01 X37.0380 Y-16.6249
G01 X37.0176 Y-16.5818
G01 X36.9977 Y-16.5482
G01 X36.9882 Y-16.5339
G01 X36.9647 Y-16.5026
G01 X36.9386 Y-16.4735
G01 X36.9265 Y-16.4614
G01 X36.8974 Y-16.4353
G01 X36.8591 Y-16.4069
G01 X36.8257 Y-16.3866
G01 X36.8105 Y-16.3785
G01 X36.7791 Y-16.3637
G01 X36.7671 Y-16.3589
G01 X36.7302 Y-16.3459
G01 X36.6952 Y-16.3369
G01 X36.6952 Y-16.2729
G00 Z0.7000
G00 X35.5751 Y-16.2748
G01 F30.00
G01 Z-0.0651
G01 F100.00
G01 X35.7448 Y-16.2745
G01 X35.7448 Y-16.3250
G01 X35.5751 Y-16.3250
G01 X35.5751 Y-16.2748
G00 Z0.7000
G00 X33.6886 Y-14.6248
G01 F30.00
G01 Z-0.0651
G01 F100.00
G01 X33.7866 Y-14.6200
G01 X33.8037 Y-14.6183
G01 X33.9092 Y-14.6024
G01 X34.0128 Y-14.5767
G01 X34.0292 Y-14.5717
G01 X34.1297 Y-14.5356
G01 X34.2339 Y-14.4863
G01 X34.3328 Y-14.4270
G01 X34.4186 Y-14.3636
G01 X34.4319 Y-14.3527
G01 X34.5109 Y-14.2809
G01 X34.5827 Y-14.2019
G01 X34.5936 Y-14.1886
G01 X34.6545 Y-14.1063
G01 X34.6616 Y-14.0955
G01 X34.7163 Y-14.0039
G01 X34.7656 Y-13.8997
G01 X34.8044 Y-13.7911
G01 X34.8305 Y-13.6876
G01 X34.8332 Y-13.6750
G01 X34.8493 Y-13.5652
G01 X34.8549 Y-13.4543
G01 X34.8550 Y-12.9500
G01 X34.8493 Y-12.8348
G01 X34.8324 Y-12.7208
G01 X34.8044 Y-12.6089
G01 X34.7656 Y-12.5003
G01 X34.7163 Y-12.3961
G01 X34.6570 Y-12.2972
G01 X34.5883 Y-12.2046
G01 X34.5109 Y-12.1191
G01 X34.4254 Y-12.0417
G01 X34.3328 Y-11.9730
G01 X34.2339 Y-11.9137
G01 X34.1297 Y-11.8644
G01 X34.0211 Y-11.8256
G01 X33.9092 Y-11.7976
G01 X33.7952 Y-11.7807
G01 X33.6800 Y-11.7750
G01 X33.5734 Y-11.7800
G01 X33.5563 Y-11.7817
G01 X33.4508 Y-11.7976
G01 X33.3472 Y-11.8233
G01 X33.3308 Y-11.8283
G01 X33.2303 Y-11.8644
G01 X33.1261 Y-11.9137
G01 X33.0272 Y-11.9730
G01 X32.9414 Y-12.0364
G01 X32.9281 Y-12.0473
G01 X32.8491 Y-12.1191
G01 X32.7773 Y-12.1981
G01 X32.7664 Y-12.2114
G01 X32.7055 Y-12.2937
G01 X32.6984 Y-12.3045
G01 X32.6437 Y-12.3961
G01 X32.5944 Y-12.5003
G01 X32.5556 Y-12.6089
G01 X32.5295 Y-12.7124
G01 X32.5268 Y-12.7250
G01 X32.5107 Y-12.8348
G01 X32.5051 Y-12.9457
G01 X32.5050 Y-13.4500
G01 X32.5107 Y-13.5652
G01 X32.5276 Y-13.6792
G01 X32.5556 Y-13.7911
G01 X32.5944 Y-13.8997
G01 X32.6437 Y-14.0039
G01 X32.7030 Y-14.1028
G01 X32.7717 Y-14.1954
G01 X32.8491 Y-14.2809
G01 X32.9346 Y-14.3583
G01 X33.0272 Y-14.4270
G01 X33.1261 Y-14.4863
G01 X33.2303 Y-14.5356
G01 X33.3389 Y-14.5744
G01 X33.4508 Y-14.6024
G01 X33.5648 Y-14.6193
G01 X33.6714 Y-14.6248
G01 X33.6886 Y-14.6248
G00 Z0.7000
G00 X31.1486 Y-14.6248
G01 F30.00
G01 Z-0.0651
G01 F100.00
G01 X31.2466 Y-14.6200
G01 X31.2637 Y-14.6183
G01 X31.3692 Y-14.6024
G01 X31.4728 Y-14.5767
G01 X31.4892 Y-14.5717
G01 X31.5897 Y-14.5356
G01 X31.6939 Y-14.4863
G01 X31.7928 Y-14.4270
G01 X31.8786 Y-14.3636
G01 X31.8919 Y-14.3527
G01 X31.9709 Y-14.2809
G01 X32.0427 Y-14.2019
G01 X32.0536 Y-14.1886
G01 X32.1145 Y-14.1063
G01 X32.1216 Y-14.0955
G01 X32.1763 Y-14.0039
G01 X32.2256 Y-13.8997
G01 X32.2644 Y-13.7911
G01 X32.2905 Y-13.6876
G01 X32.2932 Y-13.6750
G01 X32.3093 Y-13.5652
G01 X32.3149 Y-13.4543
G01 X32.3150 Y-12.9500
G01 X32.3093 Y-12.8348
G01 X32.2924 Y-12.7208
G01 X32.2644 Y-12.6089
G01 X32.2256 Y-12.5003
G01 X32.1763 Y-12.3961
G01 X32.1170 Y-12.2972
G01 X32.0483 Y-12.2046
G01 X31.9709 Y-12.1191
G01 X31.8854 Y-12.0417
G01 X31.7928 Y-11.9730
G01 X31.6939 Y-11.9137
G01 X31.5897 Y-11.8644
G01 X31.4811 Y-11.8256
G01 X31.3692 Y-11.7976
G01 X31.2552 Y-11.7807
G01 X31.1400 Y-11.7750
G01 X31.0334 Y-11.7800
G01 X31.0163 Y-11.7817
G01 X30.9108 Y-11.7976
G01 X30.8072 Y-11.8233
G01 X30.7908 Y-11.8283
G01 X30.6903 Y-11.8644
G01 X30.5861 Y-11.9137
G01 X30.4872 Y-11.9730
G01 X30.4014 Y-12.0364
G01 X30.3881 Y-12.0473
G01 X30.3091 Y-12.1191
G01 X30.2373 Y-12.1981
G01 X30.2264 Y-12.2114
G01 X30.1655 Y-12.2937
G01 X30.1584 Y-12.3045
G01 X30.1037 Y-12.3961
G01 X30.0544 Y-12.5003
G01 X30.0156 Y-12.6089
G01 X29.9895 Y-12.7124
G01 X29.9868 Y-12.7250
G01 X29.9707 Y-12.8348
G01 X29.9651 Y-12.9457
G01 X29.9650 Y-13.4500
G01 X29.9707 Y-13.5652
G01 X29.9876 Y-13.6792
G01 X30.0156 Y-13.7911
G01 X30.0544 Y-13.8997
G01 X30.1037 Y-14.0039
G01 X30.1630 Y-14.1028
G01 X30.2317 Y-14.1954
G01 X30.3091 Y-14.2809
G01 X30.3946 Y-14.3583
G01 X30.4872 Y-14.4270
G01 X30.5861 Y-14.4863
G01 X30.6903 Y-14.5356
G01 X30.7989 Y-14.5744
G01 X30.9108 Y-14.6024
G01 X31.0248 Y-14.6193
G01 X31.1314 Y-14.6248
G01 X31.1486 Y-14.6248
G00 Z0.7000
G00 X32.8746 Y-17.3249
G01 F30.00
G01 Z-0.0651
G01 F100.00
G01 X32.8726 Y-16.5145
G01 X32.8783 Y-16.4559
G01 X32.8912 Y-16.4135
G01 X32.9121 Y-16.3744
G01 X32.9402 Y-16.3402
G01 X32.9744 Y-16.3121
G01 X33.0135 Y-16.2912
G01 X33.0559 Y-16.2783
G01 X33.1146 Y-16.2725
G01 X34.4249 Y-16.2748
G01 X34.4249 Y-16.3250
G01 X33.4108 Y-16.3250
G01 X33.3632 Y-16.3273
G01 X33.3245 Y-16.3329
G01 X33.3076 Y-16.3362
G01 X33.2698 Y-16.3459
G01 X33.2329 Y-16.3589
G01 X33.2170 Y-16.3655
G01 X33.1818 Y-16.3824
G01 X33.1409 Y-16.4069
G01 X33.1026 Y-16.4353
G01 X33.0673 Y-16.4673
G01 X33.0353 Y-16.5026
G01 X33.0118 Y-16.5339
G01 X33.0045 Y-16.5445
G01 X32.9866 Y-16.5743
G01 X32.9785 Y-16.5895
G01 X32.9620 Y-16.6249
G01 X32.9459 Y-16.6698
G01 X32.9362 Y-16.7076
G01 X32.9329 Y-16.7245
G01 X32.9273 Y-16.7632
G01 X32.9251 Y-16.8065
G01 X32.9250 Y-17.3249
G01 X32.8746 Y-17.3249
G00 Z0.7000
G00 X32.8746 Y-18.4751
G01 F30.00
G01 Z-0.0651
G01 F100.00
G01 X32.9250 Y-18.4751
G01 X32.9250 Y-18.9248
G01 X32.8735 Y-18.9248
G01 X32.8746 Y-18.4751
G00 Z0.7000
G00 X31.5751 Y-18.6260
G01 F30.00
G01 Z-0.0651
G01 F100.00
G01 X31.5751 Y-18.5740
G01 X31.7861 Y-18.5726
G01 X31.8441 Y-18.5783
G01 X31.8865 Y-18.5912
G01 X31.9256 Y-18.6121
G01 X31.9598 Y-18.6402
G01 X31.9879 Y-18.6744
G01 X32.0088 Y-18.7135
G01 X32.0217 Y-18.7559
G01 X32.0273 Y-18.8129
G01 X32.0271 Y-18.8249
G01 X31.9104 Y-18.8249
G01 X31.9010 Y-18.8102
G01 X31.8813 Y-18.7836
G01 X31.8759 Y-18.7770
G01 X31.8566 Y-18.7556
G01 X31.8476 Y-18.7464
G01 X31.8230 Y-18.7241
G01 X31.8130 Y-18.7161
G01 X31.7863 Y-18.6966
G01 X31.7580 Y-18.6794
G01 X31.7467 Y-18.6732
G01 X31.7129 Y-18.6573
G01 X31.6737 Y-18.6433
G01 X31.6416 Y-18.6350
G01 X31.6290 Y-18.6324
G01 X31.5963 Y-18.6275
G01 X31.5751 Y-18.6260
G00 Z0.7000
G00 X29.9729 Y-18.8249
G01 F30.00
G01 Z-0.0651
G01 F100.00
G01 X29.9727 Y-18.8129
G01 X29.9783 Y-18.7559
G01 X29.9912 Y-18.7135
G01 X30.0121 Y-18.6744
G01 X30.0402 Y-18.6402
G01 X30.0744 Y-18.6121
G01 X30.1135 Y-18.5912
G01 X30.1559 Y-18.5783
G01 X30.2139 Y-18.5726
G01 X30.4249 Y-18.5740
G01 X30.4249 Y-18.6260
G01 X30.4037 Y-18.6275
G01 X30.3710 Y-18.6324
G01 X30.3584 Y-18.6350
G01 X30.3263 Y-18.6433
G01 X30.2871 Y-18.6573
G01 X30.2533 Y-18.6732
G01 X30.2420 Y-18.6794
G01 X30.2137 Y-18.6966
G01 X30.1870 Y-18.7161
G01 X30.1770 Y-18.7241
G01 X30.1524 Y-18.7464
G01 X30.1464 Y-18.7524
G01 X30.1270 Y-18.7737
G01 X30.1187 Y-18.7836
G01 X30.0990 Y-18.8102
G01 X30.0896 Y-18.8249
G01 X29.9729 Y-18.8249
G00 Z0.7000
G00 X26.4251 Y-18.3086
G01 F30.00
G01 Z-0.0651
G01 F100.00
G01 X26.4271 Y-18.3466
G01 X26.4340 Y-18.3927
G01 X26.4453 Y-18.4379
G01 X26.4610 Y-18.4818
G01 X26.4809 Y-18.5240
G01 X26.5049 Y-18.5640
G01 X26.5327 Y-18.6014
G01 X26.5610 Y-18.6329
G01 X32.9250 Y-24.9970
G01 X32.9250 Y-25.8892
G01 X32.9267 Y-25.9283
G01 X32.9278 Y-25.9411
G01 X32.9343 Y-25.9840
G01 X32.9459 Y-26.0302
G01 X32.9620 Y-26.0751
G01 X32.9785 Y-26.1105
G01 X32.9866 Y-26.1257
G01 X33.0045 Y-26.1555
G01 X33.0118 Y-26.1661
G01 X33.0353 Y-26.1974
G01 X33.0673 Y-26.2327
G01 X33.1026 Y-26.2647
G01 X33.1339 Y-26.2882
G01 X33.1445 Y-26.2955
G01 X33.1743 Y-26.3134
G01 X33.1895 Y-26.3215
G01 X33.2249 Y-26.3380
G01 X33.2698 Y-26.3541
G01 X33.3160 Y-26.3657
G01 X33.3589 Y-26.3722
G01 X33.3717 Y-26.3733
G01 X33.4108 Y-26.3750
G01 X34.3030 Y-26.3750
G01 X35.3405 Y-27.4125
G01 X35.3173 Y-27.4381
G01 X35.3090 Y-27.4479
G01 X35.2455 Y-27.5337
G01 X35.2384 Y-27.5445
G01 X35.1880 Y-27.6286
G01 X35.1818 Y-27.6399
G01 X35.1344 Y-27.7403
G01 X35.0983 Y-27.8408
G01 X35.0933 Y-27.8572
G01 X35.0676 Y-27.9608
G01 X35.0507 Y-28.0748
G01 X35.0451 Y-28.1857
G01 X35.0450 Y-28.6900
G01 X35.0503 Y-28.8009
G01 X35.0517 Y-28.8137
G01 X35.0676 Y-28.9192
G01 X35.0956 Y-29.0311
G01 X35.1344 Y-29.1397
G01 X35.1799 Y-29.2362
G01 X35.1858 Y-29.2477
G01 X35.2430 Y-29.3428
G01 X35.3064 Y-29.4286
G01 X35.3173 Y-29.4419
G01 X35.3832 Y-29.5146
G01 X35.3954 Y-29.5268
G01 X35.4746 Y-29.5983
G01 X35.5447 Y-29.6506
G01 X35.5447 Y-30.4900
G01 X35.5476 Y-30.5519
G01 X35.5491 Y-30.5647
G01 X35.5577 Y-30.6217
G01 X35.5738 Y-30.6860
G01 X35.5962 Y-30.7484
G01 X35.6245 Y-30.8083
G01 X35.6586 Y-30.8651
G01 X35.6927 Y-30.9116
G01 X35.7036 Y-30.9249
G01 X35.7425 Y-30.9675
G01 X37.3000 Y-32.5249
G01 X37.3000 Y-33.4496
G01 X37.3020 Y-33.4913
G01 X37.3082 Y-33.5326
G01 X37.3183 Y-33.5731
G01 X37.3324 Y-33.6124
G01 X37.3464 Y-33.6424
G01 X37.3523 Y-33.6539
G01 X37.3671 Y-33.6787
G01 X37.3766 Y-33.6930
G01 X37.3939 Y-33.7161
G01 X37.3993 Y-33.7227
G01 X37.4187 Y-33.7442
G01 X37.4277 Y-33.7534
G01 X37.4555 Y-33.7784
G01 X37.4891 Y-33.8033
G01 X37.5249 Y-33.8248
G01 X37.5626 Y-33.8426
G01 X37.6019 Y-33.8567
G01 X37.6424 Y-33.8668
G01 X37.6837 Y-33.8730
G01 X37.7211 Y-33.8749
G01 X38.5496 Y-33.8750
G01 X38.5913 Y-33.8730
G01 X38.6326 Y-33.8668
G01 X38.6648 Y-33.8590
G01 X38.6772 Y-33.8554
G01 X38.7124 Y-33.8426
G01 X38.7501 Y-33.8248
G01 X38.7787 Y-33.8079
G01 X38.7895 Y-33.8009
G01 X38.8195 Y-33.7784
G01 X38.8504 Y-33.7504
G01 X38.8784 Y-33.7195
G01 X38.9033 Y-33.6859
G01 X38.9248 Y-33.6501
G01 X38.9426 Y-33.6124
G01 X38.9567 Y-33.5731
G01 X38.9668 Y-33.5326
G01 X38.9725 Y-33.4955
G01 X38.9736 Y-33.4827
G01 X38.9750 Y-33.4496
G01 X38.9749 Y-32.1461
G01 X38.9733 Y-32.1130
G01 X38.9719 Y-32.1002
G01 X38.9668 Y-32.0674
G01 X38.9590 Y-32.0352
G01 X38.9554 Y-32.0228
G01 X38.9426 Y-31.9876
G01 X38.9248 Y-31.9499
G01 X38.9033 Y-31.9141
G01 X38.8837 Y-31.8873
G01 X38.8757 Y-31.8773
G01 X38.8563 Y-31.8558
G01 X38.8442 Y-31.8437
G01 X38.8195 Y-31.8216
G01 X38.7859 Y-31.7967
G01 X38.7501 Y-31.7752
G01 X38.7163 Y-31.7591
G01 X38.7084 Y-31.7558
G01 X38.6812 Y-31.7460
G01 X38.6648 Y-31.7410
G01 X38.6326 Y-31.7332
G01 X38.5955 Y-31.7275
G01 X38.5827 Y-31.7264
G01 X38.5539 Y-31.7251
G01 X38.4099 Y-31.7250
G01 X36.8953 Y-30.2103
G01 X36.8953 Y-29.6506
G01 X36.9654 Y-29.5983
G01 X37.0509 Y-29.5209
G01 X37.1283 Y-29.4354
G01 X37.1970 Y-29.3428
G01 X37.2563 Y-29.2439
G01 X37.3056 Y-29.1397
G01 X37.3444 Y-29.0311
G01 X37.3705 Y-28.9276
G01 X37.3739 Y-28.9108
G01 X37.3893 Y-28.8052
G01 X37.3949 Y-28.6943
G01 X37.3949 Y-28.1857
G01 X37.3893 Y-28.0748
G01 X37.3739 Y-27.9692
G01 X37.3705 Y-27.9524
G01 X37.3444 Y-27.8489
G01 X37.3086 Y-27.7484
G01 X37.3021 Y-27.7325
G01 X37.2563 Y-27.6361
G01 X37.2016 Y-27.5445
G01 X37.1920 Y-27.5302
G01 X37.1283 Y-27.4446
G01 X37.0568 Y-27.3654
G01 X37.0446 Y-27.3532
G01 X36.9654 Y-27.2817
G01 X36.8798 Y-27.2180
G01 X36.8655 Y-27.2084
G01 X36.7752 Y-27.1545
G01 X36.7752 Y-26.3380
G01 X36.8105 Y-26.3215
G01 X36.8257 Y-26.3134
G01 X36.8591 Y-26.2931
G01 X36.8906 Y-26.2700
G01 X36.9039 Y-26.2591
G01 X36.9327 Y-26.2327
G01 X36.9591 Y-26.2039
G01 X36.9700 Y-26.1906
G01 X36.9931 Y-26.1591
G01 X37.0134 Y-26.1257
G01 X37.0215 Y-26.1105
G01 X37.0380 Y-26.0751
G01 X37.0514 Y-26.0384
G01 X37.0564 Y-26.0219
G01 X37.0657 Y-25.9840
G01 X37.0716 Y-25.9453
G01 X37.0733 Y-25.9283
G01 X37.0750 Y-25.8892
G01 X37.0750 Y-24.1970
G01 X39.0970 Y-22.1750
G01 X39.5547 Y-22.1749
G01 X39.5920 Y-22.1730
G01 X39.6332 Y-22.1668
G01 X39.6737 Y-22.1567
G01 X39.7049 Y-22.1458
G01 X39.7168 Y-22.1410
G01 X39.7429 Y-22.1287
G01 X39.7580 Y-22.1206
G01 X39.7863 Y-22.1034
G01 X39.8198 Y-22.0786
G01 X39.8506 Y-22.0506
G01 X39.8786 Y-22.0198
G01 X39.9034 Y-21.9863
G01 X39.9206 Y-21.9580
G01 X39.9287 Y-21.9429
G01 X39.9410 Y-21.9168
G01 X39.9458 Y-21.9049
G01 X39.9567 Y-21.8737
G01 X39.9668 Y-21.8332
G01 X39.9730 Y-21.7920
G01 X39.9749 Y-21.7547
G01 X39.9750 Y-21.0496
G01 X39.9733 Y-21.0123
G01 X39.9719 Y-20.9995
G01 X39.9676 Y-20.9710
G01 X39.9660 Y-20.9626
G01 X39.9567 Y-20.9263
G01 X39.9458 Y-20.8951
G01 X39.9410 Y-20.8832
G01 X39.9249 Y-20.8494
G01 X39.9058 Y-20.8173
G01 X39.8985 Y-20.8067
G01 X39.8786 Y-20.7802
G01 X39.8566 Y-20.7556
G01 X39.8476 Y-20.7464
G01 X39.8263 Y-20.7270
G01 X39.8164 Y-20.7187
G01 X39.7898 Y-20.6990
G01 X39.7790 Y-20.6920
G01 X39.7543 Y-20.6772
G01 X39.7429 Y-20.6713
G01 X39.7129 Y-20.6573
G01 X39.6737 Y-20.6433
G01 X39.6332 Y-20.6332
G01 X39.5963 Y-20.6275
G01 X39.5835 Y-20.6264
G01 X39.5504 Y-20.6250
G01 X38.4496 Y-20.6250
G01 X38.4123 Y-20.6267
G01 X38.4037 Y-20.6275
G01 X38.3752 Y-20.6317
G01 X38.3584 Y-20.6350
G01 X38.3263 Y-20.6433
G01 X38.2911 Y-20.6557
G01 X38.2832 Y-20.6590
G01 X38.2571 Y-20.6713
G01 X38.2457 Y-20.6772
G01 X38.2137 Y-20.6966
G01 X38.1870 Y-20.7161
G01 X38.1770 Y-20.7241
G01 X38.1524 Y-20.7464
G01 X38.1434 Y-20.7556
G01 X38.1241 Y-20.7770
G01 X38.1161 Y-20.7870
G01 X38.0966 Y-20.8137
G01 X38.0772 Y-20.8457
G01 X38.0713 Y-20.8571
G01 X38.0573 Y-20.8871
G01 X38.0433 Y-20.9263
G01 X38.0332 Y-20.9668
G01 X38.0275 Y-21.0037
G01 X38.0264 Y-21.0165
G01 X38.0250 Y-21.0496
G01 X38.0251 Y-21.7547
G01 X38.0270 Y-21.7920
G01 X38.0324 Y-21.8290
G01 X38.0340 Y-21.8374
G01 X38.0410 Y-21.8654
G01 X38.0460 Y-21.8820
G01 X36.6919 Y-23.2361
G01 X36.6755 Y-23.2329
G01 X36.6368 Y-23.2273
G01 X36.5892 Y-23.2250
G01 X33.4108 Y-23.2250
G01 X33.3717 Y-23.2267
G01 X33.3589 Y-23.2278
G01 X33.3160 Y-23.2343
G01 X33.2698 Y-23.2459
G01 X33.2249 Y-23.2620
G01 X33.1895 Y-23.2785
G01 X33.1743 Y-23.2866
G01 X33.1445 Y-23.3045
G01 X33.1339 Y-23.3118
G01 X33.1026 Y-23.3353
G01 X33.0673 Y-23.3673
G01 X33.0353 Y-23.4026
G01 X33.0118 Y-23.4339
G01 X33.0045 Y-23.4445
G01 X32.9866 Y-23.4743
G01 X32.9785 Y-23.4895
G01 X32.9620 Y-23.5249
G01 X32.9459 Y-23.5698
G01 X32.9343 Y-23.6160
G01 X32.9282 Y-23.6562
G01 X31.4470 Y-22.1750
G01 X31.5590 Y-22.1748
G01 X31.5920 Y-22.1730
G01 X31.6290 Y-22.1676
G01 X31.6416 Y-22.1650
G01 X31.6695 Y-22.1579
G01 X31.6777 Y-22.1554
G01 X31.7049 Y-22.1458
G01 X31.7168 Y-22.1410
G01 X31.7429 Y-22.1287
G01 X31.7580 Y-22.1206
G01 X31.7827 Y-22.1058
G01 X31.7898 Y-22.1010
G01 X31.8130 Y-22.0839
G01 X31.8230 Y-22.0759
G01 X31.8506 Y-22.0506
G01 X31.8730 Y-22.0263
G01 X31.8813 Y-22.0164
G01 X31.9034 Y-21.9863
G01 X31.9249 Y-21.9506
G01 X31.9427 Y-21.9129
G01 X31.9540 Y-21.8818
G01 X31.9579 Y-21.8695
G01 X31.9668 Y-21.8332
G01 X31.9719 Y-21.8005
G01 X31.9733 Y-21.7877
G01 X31.9749 Y-21.7547
G01 X31.9750 Y-21.0496
G01 X31.9730 Y-21.0080
G01 X31.9668 Y-20.9668
G01 X31.9567 Y-20.9263
G01 X31.9427 Y-20.8871
G01 X31.9287 Y-20.8571
G01 X31.9206 Y-20.8420
G01 X31.9058 Y-20.8173
G01 X31.8985 Y-20.8067
G01 X31.8786 Y-20.7802
G01 X31.8506 Y-20.7494
G01 X31.8198 Y-20.7214
G01 X31.7933 Y-20.7015
G01 X31.7827 Y-20.6942
G01 X31.7580 Y-20.6794
G01 X31.7429 Y-20.6713
G01 X31.7129 Y-20.6573
G01 X31.6737 Y-20.6433
G01 X31.6332 Y-20.6332
G01 X31.5920 Y-20.6270
G01 X31.5504 Y-20.6250
G01 X30.4410 Y-20.6252
G01 X30.4080 Y-20.6270
G01 X30.3752 Y-20.6317
G01 X30.3626 Y-20.6340
G01 X30.3305 Y-20.6421
G01 X30.3182 Y-20.6460
G01 X30.2871 Y-20.6573
G01 X30.2571 Y-20.6713
G01 X30.2457 Y-20.6772
G01 X30.2137 Y-20.6966
G01 X30.1870 Y-20.7161
G01 X30.1770 Y-20.7241
G01 X30.1524 Y-20.7464
G01 X30.1434 Y-20.7556
G01 X30.1214 Y-20.7802
G01 X30.1015 Y-20.8067
G01 X30.0923 Y-20.8204
G01 X27.3751 Y-18.1032
G01 X27.3751 Y-11.6968
G01 X31.2360 Y-7.8360
G01 X31.2617 Y-7.8079
G01 X31.2726 Y-7.7947
G01 X31.2951 Y-7.7640
G01 X31.3190 Y-7.7240
G01 X31.3390 Y-7.6818
G01 X31.3547 Y-7.6379
G01 X31.3660 Y-7.5927
G01 X31.3729 Y-7.5466
G01 X31.3751 Y-7.5000
G01 X31.3752 Y-7.1238
G01 X31.3813 Y-7.1164
G01 X31.3985 Y-7.0933
G01 X31.4080 Y-7.0790
G01 X31.4249 Y-7.0506
G01 X31.4427 Y-7.0129
G01 X31.4567 Y-6.9737
G01 X31.4650 Y-6.9416
G01 X31.4683 Y-6.9248
G01 X31.4725 Y-6.8963
G01 X31.4736 Y-6.8835
G01 X31.4750 Y-6.8504
G01 X31.4751 Y-4.5968
G01 X31.6970 Y-4.3750
G01 X32.2504 Y-4.3750
G01 X32.2835 Y-4.3736
G01 X32.3005 Y-4.3719
G01 X32.3290 Y-4.3676
G01 X32.3416 Y-4.3650
G01 X32.3695 Y-4.3579
G01 X32.3777 Y-4.3554
G01 X32.4089 Y-4.3443
G01 X32.4207 Y-4.3392
G01 X32.4467 Y-4.3268
G01 X32.4580 Y-4.3206
G01 X32.4863 Y-4.3034
G01 X32.5130 Y-4.2839
G01 X32.5230 Y-4.2759
G01 X32.5506 Y-4.2506
G01 X32.5786 Y-4.2198
G01 X32.6034 Y-4.1863
G01 X32.6228 Y-4.1543
G01 X32.6287 Y-4.1429
G01 X32.6427 Y-4.1129
G01 X32.6540 Y-4.0818
G01 X32.6579 Y-4.0695
G01 X32.6668 Y-4.0332
G01 X32.6730 Y-3.9920
G01 X32.6750 Y-3.9504
G01 X32.6750 Y-2.8496
G01 X32.6730 Y-2.8080
G01 X32.6676 Y-2.7710
G01 X32.6650 Y-2.7584
G01 X32.6567 Y-2.7263
G01 X32.6443 Y-2.6911
G01 X32.6392 Y-2.6793
G01 X32.6249 Y-2.6494
G01 X32.6080 Y-2.6210
G01 X32.6010 Y-2.6102
G01 X32.5786 Y-2.5802
G01 X32.5536 Y-2.5524
G01 X32.5444 Y-2.5434
G01 X32.5198 Y-2.5214
G01 X32.4933 Y-2.5015
G01 X32.4827 Y-2.4942
G01 X32.4506 Y-2.4751
G01 X32.4207 Y-2.4608
G01 X32.4089 Y-2.4557
G01 X32.3737 Y-2.4433
G01 X32.3332 Y-2.4332
G01 X32.2920 Y-2.4270
G01 X32.2547 Y-2.4251
G01 X31.5496 Y-2.4250
G01 X31.5080 Y-2.4270
G01 X31.4668 Y-2.4332
G01 X31.4263 Y-2.4433
G01 X31.3871 Y-2.4573
G01 X31.3494 Y-2.4751
G01 X31.3137 Y-2.4966
G01 X31.2802 Y-2.5214
G01 X31.2494 Y-2.5494
G01 X31.2270 Y-2.5737
G01 X31.2187 Y-2.5836
G01 X31.1966 Y-2.6137
G01 X31.1794 Y-2.6420
G01 X31.1732 Y-2.6533
G01 X31.1573 Y-2.6871
G01 X31.1433 Y-2.7263
G01 X31.1350 Y-2.7584
G01 X31.1324 Y-2.7710
G01 X31.1270 Y-2.8080
G01 X31.1250 Y-2.8496
G01 X31.1250 Y-3.6030
G01 X30.6640 Y-4.0640
G01 X30.6355 Y-4.0953
G01 X30.6274 Y-4.1053
G01 X30.6049 Y-4.1360
G01 X30.5810 Y-4.1760
G01 X30.5610 Y-4.2182
G01 X30.5480 Y-4.2539
G01 X30.5430 Y-4.2703
G01 X30.5340 Y-4.3073
G01 X30.5282 Y-4.3449
G01 X30.5268 Y-4.3577
G01 X30.5249 Y-4.3957
G01 X30.5248 Y-5.3250
G01 X30.3496 Y-5.3250
G01 X30.3080 Y-5.3270
G01 X30.2668 Y-5.3332
G01 X30.2346 Y-5.3410
G01 X30.2182 Y-5.3460
G01 X30.1911 Y-5.3557
G01 X30.1793 Y-5.3608
G01 X30.1494 Y-5.3751
G01 X30.1137 Y-5.3966
G01 X30.0802 Y-5.4214
G01 X30.0494 Y-5.4494
G01 X30.0214 Y-5.4802
G01 X29.9966 Y-5.5137
G01 X29.9751 Y-5.5494
G01 X29.9573 Y-5.5871
G01 X29.9433 Y-5.6263
G01 X29.9332 Y-5.6668
G01 X29.9270 Y-5.7080
G01 X29.9250 Y-5.7496
G01 X29.9250 Y-6.8544
G01 X29.9268 Y-6.8896
G01 X29.9309 Y-6.9204
G01 X29.9330 Y-6.9324
G01 X29.9412 Y-6.9666
G01 X29.9537 Y-7.0038
G01 X29.9695 Y-7.0397
G01 X29.9886 Y-7.0739
G01 X30.0060 Y-7.0997
G01 X30.0132 Y-7.1095
G01 X30.0305 Y-7.1304
G01 X30.0414 Y-7.1423
G01 X30.0606 Y-7.1614
G01 X30.0666 Y-7.1669
G01 X30.0905 Y-7.1868
G01 X30.1003 Y-7.1940
G01 X30.1227 Y-7.2092
G01 X30.1295 Y-7.2135
G01 X30.1532 Y-7.2267
G01 X30.1640 Y-7.2322
G01 X30.1962 Y-7.2463
G01 X30.2257 Y-7.2564
G01 X30.2373 Y-7.2599
G01 X30.2716 Y-7.2678
G01 X30.3024 Y-7.2723
G01 X30.3145 Y-7.2735
G01 X30.3456 Y-7.2750
G01 X30.4249 Y-7.2750
G01 X30.4249 Y-7.3032
G01 X26.5640 Y-11.1640
G01 X26.5327 Y-11.1986
G01 X26.5049 Y-11.2360
G01 X26.4809 Y-11.2760
G01 X26.4645 Y-11.3103
G01 X26.4594 Y-11.3222
G01 X26.4453 Y-11.3621
G01 X26.4340 Y-11.4073
G01 X26.4271 Y-11.4534
G01 X26.4248 Y-11.5000
G01 X26.4251 Y-18.3086
G00 Z0.7000
G00 X23.1251 Y-16.9260
G01 F30.00
G01 Z-0.0651
G01 F100.00
G01 X23.1251 Y-16.8677
G01 X23.1413 Y-16.8649
G01 X23.1789 Y-16.8554
G01 X23.1911 Y-16.8516
G01 X23.2275 Y-16.8383
G01 X23.2703 Y-16.8181
G01 X23.3036 Y-16.7984
G01 X23.3144 Y-16.7914
G01 X23.3455 Y-16.7683
G01 X23.3553 Y-16.7600
G01 X23.3839 Y-16.7339
G01 X23.4100 Y-16.7053
G01 X23.4183 Y-16.6955
G01 X23.4414 Y-16.6644
G01 X23.4484 Y-16.6536
G01 X23.4660 Y-16.6240
G01 X23.4720 Y-16.6126
G01 X23.4883 Y-16.5775
G01 X23.5042 Y-16.5330
G01 X23.5157 Y-16.4871
G01 X23.5222 Y-16.4446
G01 X23.5233 Y-16.4318
G01 X23.5250 Y-16.3931
G01 X23.5250 Y-16.1251
G01 X23.5755 Y-16.1251
G01 X23.5774 Y-16.6857
G01 X23.5717 Y-16.7441
G01 X23.5588 Y-16.7865
G01 X23.5379 Y-16.8256
G01 X23.5098 Y-16.8598
G01 X23.4756 Y-16.8879
G01 X23.4365 Y-16.9088
G01 X23.3941 Y-16.9217
G01 X23.3361 Y-16.9274
G01 X23.1251 Y-16.9260
G00 Z0.7000
G00 X23.1251 Y-12.5323
G01 F30.00
G01 Z-0.0651
G01 F100.00
G01 X23.1251 Y-12.4740
G01 X23.3361 Y-12.4726
G01 X23.3941 Y-12.4783
G01 X23.4365 Y-12.4912
G01 X23.4756 Y-12.5121
G01 X23.5098 Y-12.5402
G01 X23.5379 Y-12.5744
G01 X23.5588 Y-12.6135
G01 X23.5717 Y-12.6559
G01 X23.5774 Y-12.7143
G01 X23.5755 Y-13.2749
G01 X23.5250 Y-13.2749
G01 X23.5250 Y-13.0069
G01 X23.5233 Y-12.9682
G01 X23.5216 Y-12.9511
G01 X23.5165 Y-12.9171
G01 X23.5139 Y-12.9045
G01 X23.5042 Y-12.8670
G01 X23.4914 Y-12.8305
G01 X23.4866 Y-12.8185
G01 X23.4701 Y-12.7835
G01 X23.4639 Y-12.7723
G01 X23.4484 Y-12.7464
G01 X23.4388 Y-12.7321
G01 X23.4156 Y-12.7012
G01 X23.3839 Y-12.6661
G01 X23.3488 Y-12.6344
G01 X23.3108 Y-12.6062
G01 X23.2703 Y-12.5819
G01 X23.2354 Y-12.5652
G01 X23.2235 Y-12.5601
G01 X23.1911 Y-12.5484
G01 X23.1789 Y-12.5446
G01 X23.1413 Y-12.5351
G01 X23.1251 Y-12.5323
G00 Z0.7000
G00 X22.4751 Y-9.3104
G01 F30.00
G01 Z-0.0651
G01 F100.00
G01 X22.4898 Y-9.3010
G01 X22.5164 Y-9.2813
G01 X22.5230 Y-9.2759
G01 X22.5444 Y-9.2566
G01 X22.5536 Y-9.2476
G01 X22.5759 Y-9.2230
G01 X22.5839 Y-9.2130
G01 X22.6034 Y-9.1863
G01 X22.6206 Y-9.1580
G01 X22.6268 Y-9.1467
G01 X22.6427 Y-9.1129
G01 X22.6567 Y-9.0737
G01 X22.6650 Y-9.0416
G01 X22.6676 Y-9.0290
G01 X22.6725 Y-8.9963
G01 X22.6740 Y-8.9751
G01 X22.7260 Y-8.9751
G01 X22.7274 Y-9.1861
G01 X22.7217 Y-9.2441
G01 X22.7088 Y-9.2865
G01 X22.6879 Y-9.3256
G01 X22.6598 Y-9.3598
G01 X22.6256 Y-9.3879
G01 X22.5865 Y-9.4088
G01 X22.5441 Y-9.4217
G01 X22.4871 Y-9.4273
G01 X22.4751 Y-9.4271
G01 X22.4751 Y-9.3104
G00 Z0.7000
G00 X22.5752 Y-7.3877
G01 F30.00
G01 Z-0.0651
G01 F100.00
G01 X22.5865 Y-7.3912
G01 X22.6256 Y-7.4121
G01 X22.6598 Y-7.4402
G01 X22.6879 Y-7.4744
G01 X22.7088 Y-7.5135
G01 X22.7217 Y-7.5559
G01 X22.7274 Y-7.6139
G01 X22.7260 Y-7.8249
G01 X22.6740 Y-7.8249
G01 X22.6725 Y-7.8037
G01 X22.6683 Y-7.7752
G01 X22.6660 Y-7.7626
G01 X22.6567 Y-7.7263
G01 X22.6443 Y-7.6911
G01 X22.6392 Y-7.6793
G01 X22.6268 Y-7.6533
G01 X22.6228 Y-7.6457
G01 X22.6080 Y-7.6210
G01 X22.5985 Y-7.6067
G01 X22.5813 Y-7.5836
G01 X22.5751 Y-7.5762
G01 X22.5752 Y-7.3877
G00 Z0.7000
G00 X27.8740 Y-6.8751
G01 F30.00
G01 Z-0.0651
G01 F100.00
G01 X27.9260 Y-6.8751
G01 X27.9272 Y-6.8936
G01 X27.9315 Y-6.9244
G01 X27.9339 Y-6.9363
G01 X27.9401 Y-6.9627
G01 X27.9424 Y-6.9705
G01 X27.9523 Y-7.0000
G01 X27.9568 Y-7.0113
G01 X27.9695 Y-7.0397
G01 X27.9865 Y-7.0705
G01 X27.9930 Y-7.0807
G01 X28.0108 Y-7.1063
G01 X28.0331 Y-7.1334
G01 X28.0414 Y-7.1423
G01 X28.0635 Y-7.1642
G01 X28.0874 Y-7.1842
G01 X28.0970 Y-7.1916
G01 X28.1249 Y-7.2107
G01 X28.1249 Y-7.3271
G01 X28.1129 Y-7.3273
G01 X28.0559 Y-7.3217
G01 X28.0135 Y-7.3088
G01 X27.9744 Y-7.2879
G01 X27.9402 Y-7.2598
G01 X27.9121 Y-7.2256
G01 X27.8912 Y-7.1865
G01 X27.8783 Y-7.1441
G01 X27.8726 Y-7.0861
G01 X27.8740 Y-6.8751
G00 Z0.7000
G00 X27.8740 Y-5.7249
G01 F30.00
G01 Z-0.0651
G01 F100.00
G01 X27.8726 Y-5.5139
G01 X27.8783 Y-5.4559
G01 X27.8912 Y-5.4135
G01 X27.9121 Y-5.3744
G01 X27.9402 Y-5.3402
G01 X27.9744 Y-5.3121
G01 X28.0135 Y-5.2912
G01 X28.0559 Y-5.2783
G01 X28.1129 Y-5.2727
G01 X28.1249 Y-5.2729
G01 X28.1249 Y-5.3896
G01 X28.1102 Y-5.3990
G01 X28.0836 Y-5.4187
G01 X28.0770 Y-5.4241
G01 X28.0556 Y-5.4434
G01 X28.0464 Y-5.4524
G01 X28.0241 Y-5.4770
G01 X28.0161 Y-5.4870
G01 X27.9966 Y-5.5137
G01 X27.9794 Y-5.5420
G01 X27.9732 Y-5.5533
G01 X27.9573 Y-5.5871
G01 X27.9433 Y-5.6263
G01 X27.9350 Y-5.6584
G01 X27.9324 Y-5.6710
G01 X27.9275 Y-5.7037
G01 X27.9260 Y-5.7249
G01 X27.8740 Y-5.7249
G00 Z0.7000
G00 X33.1252 Y-3.9590
G01 F30.00
G01 Z-0.0651
G01 F100.00
G01 X33.1270 Y-3.9920
G01 X33.1332 Y-4.0332
G01 X33.1433 Y-4.0737
G01 X33.1573 Y-4.1129
G01 X33.1751 Y-4.1506
G01 X33.1966 Y-4.1863
G01 X33.2214 Y-4.2198
G01 X33.2494 Y-4.2506
G01 X33.2802 Y-4.2786
G01 X33.3137 Y-4.3034
G01 X33.3494 Y-4.3249
G01 X33.3871 Y-4.3427
G01 X33.4263 Y-4.3567
G01 X33.4668 Y-4.3668
G01 X33.5080 Y-4.3730
G01 X33.5496 Y-4.3750
G01 X34.2504 Y-4.3750
G01 X34.2920 Y-4.3730
G01 X34.3248 Y-4.3683
G01 X34.3374 Y-4.3660
G01 X34.3737 Y-4.3567
G01 X34.4089 Y-4.3443
G01 X34.4168 Y-4.3410
G01 X34.4429 Y-4.3287
G01 X34.4580 Y-4.3206
G01 X34.4863 Y-4.3034
G01 X34.5198 Y-4.2786
G01 X34.5506 Y-4.2506
G01 X34.5759 Y-4.2230
G01 X34.5839 Y-4.2130
G01 X34.6010 Y-4.1898
G01 X34.6058 Y-4.1827
G01 X34.6206 Y-4.1580
G01 X34.6287 Y-4.1429
G01 X34.6410 Y-4.1168
G01 X34.6443 Y-4.1089
G01 X34.6567 Y-4.0737
G01 X34.6660 Y-4.0374
G01 X34.6683 Y-4.0248
G01 X34.6725 Y-3.9963
G01 X34.6740 Y-3.9751
G01 X35.3032 Y-3.9751
G01 X37.6671 Y-6.3390
G01 X37.6986 Y-6.3673
G01 X37.7290 Y-6.3901
G01 X37.7433 Y-6.3997
G01 X37.7685 Y-6.4148
G01 X37.7798 Y-6.4210
G01 X37.8182 Y-6.4390
G01 X37.8580 Y-6.4534
G01 X37.8703 Y-6.4570
G01 X37.9031 Y-6.4651
G01 X37.9250 Y-6.4689
G01 X37.9250 Y-6.8680
G01 X37.9276 Y-6.9232
G01 X37.9290 Y-6.9360
G01 X37.9352 Y-6.9780
G01 X37.9385 Y-6.9948
G01 X37.9511 Y-7.0442
G01 X37.9696 Y-7.0963
G01 X37.9747 Y-7.1081
G01 X37.9967 Y-7.1541
G01 X38.0273 Y-7.2052
G01 X38.0628 Y-7.2531
G01 X38.1028 Y-7.2972
G01 X38.1469 Y-7.3372
G01 X38.1948 Y-7.3727
G01 X38.2459 Y-7.4033
G01 X38.2997 Y-7.4288
G01 X38.3558 Y-7.4489
G01 X38.4136 Y-7.4633
G01 X38.4725 Y-7.4721
G01 X38.5277 Y-7.4749
G01 X40.0680 Y-7.4750
G01 X40.1189 Y-7.4727
G01 X40.1360 Y-7.4710
G01 X40.1864 Y-7.4633
G01 X40.2359 Y-7.4512
G01 X40.2524 Y-7.4462
G01 X40.3003 Y-7.4288
G01 X40.3465 Y-7.4072
G01 X40.3616 Y-7.3991
G01 X40.4052 Y-7.3727
G01 X40.4463 Y-7.3425
G01 X40.4596 Y-7.3316
G01 X40.4972 Y-7.2972
G01 X40.5316 Y-7.2596
G01 X40.5425 Y-7.2463
G01 X40.5727 Y-7.2052
G01 X40.5991 Y-7.1616
G01 X40.6072 Y-7.1465
G01 X40.6288 Y-7.1003
G01 X40.6489 Y-7.0442
G01 X40.6633 Y-6.9864
G01 X40.6721 Y-6.9275
G01 X40.6749 Y-6.8723
G01 X40.6750 Y-5.1320
G01 X40.6721 Y-5.0725
G01 X40.6633 Y-5.0136
G01 X40.6489 Y-4.9558
G01 X40.6319 Y-4.9077
G01 X40.6253 Y-4.8919
G01 X40.6053 Y-4.8497
G01 X40.5991 Y-4.8384
G01 X40.5727 Y-4.7948
G01 X40.5425 Y-4.7537
G01 X40.5345 Y-4.7436
G01 X40.5002 Y-4.7059
G01 X40.4910 Y-4.6969
G01 X40.4596 Y-4.6684
G01 X40.4463 Y-4.6575
G01 X40.4052 Y-4.6273
G01 X40.3541 Y-4.5967
G01 X40.3003 Y-4.5712
G01 X40.2442 Y-4.5511
G01 X40.1948 Y-4.5385
G01 X40.1780 Y-4.5352
G01 X40.1275 Y-4.5279
G01 X40.0723 Y-4.5251
G01 X39.4252 Y-4.5250
G01 X39.4252 Y-4.0250
G01 X40.1493 Y-4.0249
G01 X40.1829 Y-4.0233
G01 X40.1957 Y-4.0219
G01 X40.2289 Y-4.0167
G01 X40.2615 Y-4.0088
G01 X40.2739 Y-4.0052
G01 X40.3096 Y-3.9923
G01 X40.3400 Y-3.9781
G01 X40.3515 Y-3.9722
G01 X40.3839 Y-3.9525
G01 X40.4110 Y-3.9327
G01 X40.4211 Y-3.9246
G01 X40.4460 Y-3.9021
G01 X40.4550 Y-3.8928
G01 X40.4774 Y-3.8678
G01 X40.4976 Y-3.8409
G01 X40.5049 Y-3.8303
G01 X40.5222 Y-3.8015
G01 X40.5281 Y-3.7900
G01 X40.5423 Y-3.7596
G01 X40.5538 Y-3.7280
G01 X40.5577 Y-3.7157
G01 X40.5649 Y-3.6873
G01 X40.5682 Y-3.6704
G01 X40.5729 Y-3.6371
G01 X40.5750 Y-3.5950
G01 X40.5750 Y-2.4050
G01 X40.5732 Y-2.3653
G01 X40.5690 Y-2.3340
G01 X40.5669 Y-2.3220
G01 X40.5586 Y-2.2873
G01 X40.5474 Y-2.2535
G01 X40.5429 Y-2.2422
G01 X40.5299 Y-2.2133
G01 X40.5127 Y-2.1821
G01 X40.5084 Y-2.1752
G01 X40.4929 Y-2.1524
G01 X40.4857 Y-2.1427
G01 X40.4628 Y-2.1153
G01 X40.4405 Y-2.0928
G01 X40.4317 Y-2.0845
G01 X40.4041 Y-2.0619
G01 X40.3748 Y-2.0416
G01 X40.3644 Y-2.0353
G01 X40.3367 Y-2.0201
G01 X40.3041 Y-2.0055
G01 X40.2927 Y-2.0013
G01 X40.2627 Y-1.9914
G01 X40.2240 Y-1.9823
G01 X40.1847 Y-1.9768
G01 X40.1490 Y-1.9750
G01 X38.0550 Y-1.9750
G01 X38.0214 Y-1.9764
G01 X38.0086 Y-1.9775
G01 X37.9711 Y-1.9833
G01 X37.9302 Y-1.9935
G01 X37.8904 Y-2.0077
G01 X37.8600 Y-2.0219
G01 X37.8485 Y-2.0278
G01 X37.8234 Y-2.0429
G01 X37.8126 Y-2.0499
G01 X37.7856 Y-2.0699
G01 X37.7757 Y-2.0782
G01 X37.7509 Y-2.1009
G01 X37.7282 Y-2.1257
G01 X37.7199 Y-2.1356
G01 X37.7024 Y-2.1591
G01 X37.6929 Y-2.1734
G01 X37.6778 Y-2.1985
G01 X37.6738 Y-2.2061
G01 X37.6577 Y-2.2404
G01 X37.6448 Y-2.2761
G01 X37.6423 Y-2.2843
G01 X37.6351 Y-2.3127
G01 X37.6325 Y-2.3253
G01 X37.6271 Y-2.3629
G01 X37.6252 Y-2.3964
G01 X37.6251 Y-3.5993
G01 X37.6271 Y-3.6371
G01 X37.6318 Y-3.6704
G01 X37.6342 Y-3.6831
G01 X37.6435 Y-3.7198
G01 X37.6577 Y-3.7596
G01 X37.6758 Y-3.7977
G01 X37.6975 Y-3.8339
G01 X37.7226 Y-3.8678
G01 X37.7509 Y-3.8991
G01 X37.7822 Y-3.9274
G01 X37.8161 Y-3.9525
G01 X37.8485 Y-3.9722
G01 X37.8600 Y-3.9781
G01 X37.8904 Y-3.9923
G01 X37.9302 Y-4.0065
G01 X37.9711 Y-4.0167
G01 X38.0086 Y-4.0225
G01 X38.0214 Y-4.0236
G01 X38.0550 Y-4.0250
G01 X38.2748 Y-4.0250
G01 X38.2748 Y-4.5828
G01 X38.2497 Y-4.5947
G01 X38.2421 Y-4.5987
G01 X38.2020 Y-4.6227
G01 X38.1912 Y-4.6297
G01 X38.1469 Y-4.6628
G01 X38.1059 Y-4.6998
G01 X38.0969 Y-4.7090
G01 X38.0684 Y-4.7404
G01 X38.0575 Y-4.7537
G01 X38.0273 Y-4.7948
G01 X37.9967 Y-4.8459
G01 X37.9712 Y-4.8997
G01 X37.9538 Y-4.9476
G01 X37.9488 Y-4.9641
G01 X37.9385 Y-5.0052
G01 X37.9359 Y-5.0178
G01 X37.9279 Y-5.0725
G01 X37.9252 Y-5.1234
G01 X37.9250 Y-5.2530
G01 X35.8360 Y-3.1640
G01 X35.8079 Y-3.1383
G01 X35.7981 Y-3.1300
G01 X35.7640 Y-3.1049
G01 X35.7315 Y-3.0852
G01 X35.7163 Y-3.0771
G01 X35.6818 Y-3.0610
G01 X35.6461 Y-3.0480
G01 X35.6297 Y-3.0430
G01 X35.5927 Y-3.0340
G01 X35.5466 Y-3.0271
G01 X35.5000 Y-3.0249
G01 X34.6750 Y-3.0248
G01 X34.6750 Y-2.8496
G01 X34.6736 Y-2.8165
G01 X34.6725 Y-2.8037
G01 X34.6668 Y-2.7668
G01 X34.6567 Y-2.7263
G01 X34.6427 Y-2.6871
G01 X34.6249 Y-2.6494
G01 X34.6034 Y-2.6137
G01 X34.5786 Y-2.5802
G01 X34.5506 Y-2.5494
G01 X34.5198 Y-2.5214
G01 X34.4863 Y-2.4966
G01 X34.4506 Y-2.4751
G01 X34.4129 Y-2.4573
G01 X34.3818 Y-2.4460
G01 X34.3695 Y-2.4421
G01 X34.3332 Y-2.4332
G01 X34.3005 Y-2.4281
G01 X34.2877 Y-2.4267
G01 X34.2547 Y-2.4251
G01 X33.5496 Y-2.4250
G01 X33.5165 Y-2.4264
G01 X33.5037 Y-2.4275
G01 X33.4668 Y-2.4332
G01 X33.4263 Y-2.4433
G01 X33.3871 Y-2.4573
G01 X33.3494 Y-2.4751
G01 X33.3137 Y-2.4966
G01 X33.2802 Y-2.5214
G01 X33.2494 Y-2.5494
G01 X33.2214 Y-2.5802
G01 X33.1966 Y-2.6137
G01 X33.1794 Y-2.6420
G01 X33.1732 Y-2.6533
G01 X33.1573 Y-2.6871
G01 X33.1433 Y-2.7263
G01 X33.1350 Y-2.7584
G01 X33.1317 Y-2.7752
G01 X33.1275 Y-2.8037
G01 X33.1267 Y-2.8123
G01 X33.1250 Y-2.8496
G01 X33.1252 Y-3.9590
G00 Z0.7000
G00 X35.1008 Y-7.5142
G01 F30.00
G01 Z-0.0651
G01 F100.00
G01 X40.1807 Y-12.5941
G01 X40.1769 Y-12.6048
G01 X40.1733 Y-12.6172
G01 X40.1495 Y-12.7124
G01 X40.1461 Y-12.7292
G01 X40.1307 Y-12.8348
G01 X40.1251 Y-12.9457
G01 X40.1251 Y-13.4543
G01 X40.1307 Y-13.5652
G01 X40.1468 Y-13.6750
G01 X40.1495 Y-13.6876
G01 X40.1733 Y-13.7828
G01 X40.1783 Y-13.7992
G01 X40.2144 Y-13.8997
G01 X40.2637 Y-14.0039
G01 X40.3230 Y-14.1028
G01 X40.3864 Y-14.1886
G01 X40.3973 Y-14.2019
G01 X40.4632 Y-14.2746
G01 X40.4722 Y-14.2838
G01 X40.5546 Y-14.3583
G01 X40.6472 Y-14.4270
G01 X40.7461 Y-14.4863
G01 X40.8503 Y-14.5356
G01 X40.9589 Y-14.5744
G01 X41.0708 Y-14.6024
G01 X41.1848 Y-14.6193
G01 X41.3000 Y-14.6250
G01 X41.4152 Y-14.6193
G01 X41.5292 Y-14.6024
G01 X41.6411 Y-14.5744
G01 X41.7497 Y-14.5356
G01 X41.8539 Y-14.4863
G01 X41.9528 Y-14.4270
G01 X42.0454 Y-14.3583
G01 X42.1246 Y-14.2868
G01 X42.1338 Y-14.2778
G01 X42.2027 Y-14.2019
G01 X42.2136 Y-14.1886
G01 X42.2770 Y-14.1028
G01 X42.3320 Y-14.0114
G01 X42.3401 Y-13.9962
G01 X42.3856 Y-13.8997
G01 X42.4217 Y-13.7992
G01 X42.4267 Y-13.7828
G01 X42.4524 Y-13.6792
G01 X42.4683 Y-13.5737
G01 X42.4700 Y-13.5566
G01 X42.4750 Y-13.4500
G01 X42.4750 Y-12.9500
G01 X42.4693 Y-12.8348
G01 X42.4524 Y-12.7208
G01 X42.4244 Y-12.6089
G01 X42.3856 Y-12.5003
G01 X42.3363 Y-12.3961
G01 X42.2770 Y-12.2972
G01 X42.2083 Y-12.2046
G01 X42.1309 Y-12.1191
G01 X42.0519 Y-12.0473
G01 X42.0386 Y-12.0364
G01 X41.9528 Y-11.9730
G01 X41.8614 Y-11.9180
G01 X41.8462 Y-11.9099
G01 X41.7497 Y-11.8644
G01 X41.6492 Y-11.8283
G01 X41.6370 Y-11.8244
G01 X41.5292 Y-11.7976
G01 X41.4237 Y-11.7817
G01 X41.4066 Y-11.7800
G01 X41.3043 Y-11.7751
G01 X41.2914 Y-11.7752
G01 X41.1934 Y-11.7800
G01 X41.1806 Y-11.7811
G01 X41.0750 Y-11.7968
G01 X41.0624 Y-11.7995
G01 X41.0228 Y-11.8094
G01 X35.5067 Y-6.2933
G01 X35.4649 Y-6.2554
G01 X35.4231 Y-6.2242
G01 X35.4123 Y-6.2171
G01 X35.3749 Y-6.1948
G01 X35.3635 Y-6.1889
G01 X35.3386 Y-6.1771
G01 X35.2938 Y-6.1028
G01 X35.2310 Y-6.0180
G01 X35.1601 Y-5.9399
G01 X35.0885 Y-5.8746
G01 X35.0752 Y-5.8637
G01 X34.9972 Y-5.8062
G01 X34.9068 Y-5.7519
G01 X34.8114 Y-5.7068
G01 X34.7202 Y-5.6740
G01 X34.7038 Y-5.6690
G01 X34.6181 Y-5.6475
G01 X34.6013 Y-5.6442
G01 X34.5054 Y-5.6302
G01 X34.4000 Y-5.6250
G01 X34.2946 Y-5.6302
G01 X34.1903 Y-5.6457
G01 X34.0879 Y-5.6713
G01 X33.9966 Y-5.7037
G01 X33.9808 Y-5.7103
G01 X33.9009 Y-5.7481
G01 X33.8858 Y-5.7562
G01 X33.8028 Y-5.8062
G01 X33.7248 Y-5.8637
G01 X33.7147 Y-5.8718
G01 X33.6399 Y-5.9399
G01 X33.5690 Y-6.0180
G01 X33.5062 Y-6.1028
G01 X33.4519 Y-6.1932
G01 X33.4068 Y-6.2886
G01 X33.3713 Y-6.3879
G01 X33.3457 Y-6.4903
G01 X33.3302 Y-6.5946
G01 X33.3250 Y-6.7000
G01 X33.3302 Y-6.8054
G01 X33.3457 Y-6.9097
G01 X33.3713 Y-7.0121
G01 X33.4068 Y-7.1114
G01 X33.4519 Y-7.2068
G01 X33.5062 Y-7.2972
G01 X33.5637 Y-7.3752
G01 X33.5718 Y-7.3853
G01 X33.6399 Y-7.4601
G01 X33.7180 Y-7.5310
G01 X33.8028 Y-7.5938
G01 X33.8932 Y-7.6481
G01 X33.9886 Y-7.6932
G01 X34.0879 Y-7.7287
G01 X34.1903 Y-7.7543
G01 X34.2861 Y-7.7688
G01 X34.2989 Y-7.7702
G01 X34.4000 Y-7.7750
G01 X34.5054 Y-7.7698
G01 X34.6097 Y-7.7543
G01 X34.7038 Y-7.7310
G01 X34.7162 Y-7.7274
G01 X34.8114 Y-7.6932
G01 X34.8991 Y-7.6519
G01 X34.9105 Y-7.6460
G01 X34.9900 Y-7.5984
G01 X35.0008 Y-7.5914
G01 X35.0786 Y-7.5337
G01 X35.0853 Y-7.5282
G01 X35.1008 Y-7.5142
G00 Z0.7000
G00 X34.9446 Y-7.6921
G01 F30.00
G01 Z-0.0651
G01 F100.00
G01 X34.7281 Y-7.7817
G01 X34.5108 Y-7.8249
G01 X34.2892 Y-7.8249
G01 X34.0719 Y-7.7817
G01 X33.8671 Y-7.6969
G01 X33.6829 Y-7.5738
G01 X33.5262 Y-7.4171
G01 X33.4031 Y-7.2329
G01 X33.3183 Y-7.0281
G01 X33.2751 Y-6.8108
G01 X33.2751 Y-6.5892
G01 X33.3183 Y-6.3719
G01 X33.4031 Y-6.1671
G01 X33.5262 Y-5.9829
G01 X33.6829 Y-5.8262
G01 X33.8671 Y-5.7031
G01 X34.0719 Y-5.6183
G01 X34.2892 Y-5.5751
G01 X34.5108 Y-5.5751
G01 X34.7281 Y-5.6183
G01 X34.9329 Y-5.7031
G01 X35.1171 Y-5.8262
G01 X35.2738 Y-5.9829
G01 X35.3396 Y-6.0812
G01 X35.3548 Y-6.1015
G01 X35.3747 Y-6.1235
G01 X35.3934 Y-6.1406
G01 X35.4000 Y-6.1461
G01 X35.4135 Y-6.1561
G01 X35.4277 Y-6.1656
G01 X35.4489 Y-6.1779
G01 X35.5440 Y-6.2560
G01 X35.5570 Y-6.2716
G01 X35.5741 Y-6.2903
G01 X40.9285 Y-11.6448
G01 X40.9440 Y-11.6590
G01 X40.9539 Y-11.6673
G01 X40.9743 Y-11.6823
G01 X40.9923 Y-11.6933
G01 X41.0036 Y-11.6995
G01 X41.0226 Y-11.7085
G01 X41.0305 Y-11.7118
G01 X41.0504 Y-11.7189
G01 X41.0627 Y-11.7225
G01 X41.0832 Y-11.7274
G01 X41.1125 Y-11.7318
G01 X41.1421 Y-11.7332
G01 X41.1675 Y-11.7321
G01 X41.3000 Y-11.7191
G01 X41.5401 Y-11.7428
G01 X41.7710 Y-11.8128
G01 X41.9838 Y-11.9266
G01 X42.1704 Y-12.0796
G01 X42.3393 Y-12.2854
G01 X42.3534 Y-12.3010
G01 X42.3626 Y-12.3100
G01 X42.3784 Y-12.3240
G01 X42.3952 Y-12.3367
G01 X42.4094 Y-12.3462
G01 X42.4238 Y-12.3548
G01 X42.4314 Y-12.3589
G01 X42.4544 Y-12.3695
G01 X42.4782 Y-12.3782
G01 X42.4864 Y-12.3807
G01 X42.5027 Y-12.3849
G01 X42.5153 Y-12.3875
G01 X42.5404 Y-12.3911
G01 X42.5657 Y-12.3925
G01 X42.5743 Y-12.3925
G01 X42.5910 Y-12.3917
G01 X42.6081 Y-12.3900
G01 X42.6247 Y-12.3875
G01 X42.6331 Y-12.3858
G01 X42.6577 Y-12.3795
G01 X42.6816 Y-12.3711
G01 X42.6895 Y-12.3679
G01 X42.7047 Y-12.3607
G01 X42.7199 Y-12.3526
G01 X42.7342 Y-12.3440
G01 X42.7414 Y-12.3392
G01 X42.7616 Y-12.3240
G01 X42.7774 Y-12.3100
G01 X42.7866 Y-12.3010
G01 X42.8007 Y-12.2854
G01 X42.9696 Y-12.0796
G01 X43.1562 Y-11.9266
G01 X43.3690 Y-11.8128
G01 X43.5999 Y-11.7428
G01 X43.8400 Y-11.7191
G01 X44.0801 Y-11.7428
G01 X44.3110 Y-11.8128
G01 X44.5238 Y-11.9266
G01 X44.7104 Y-12.0796
G01 X44.8793 Y-12.2854
G01 X44.8934 Y-12.3010
G01 X44.8995 Y-12.3071
G01 X44.9151 Y-12.3212
G01 X44.9251 Y-12.3293
G01 X44.9386 Y-12.3392
G01 X44.9458 Y-12.3440
G01 X44.9638 Y-12.3548
G01 X44.9714 Y-12.3589
G01 X44.9905 Y-12.3679
G01 X44.9984 Y-12.3711
G01 X45.0182 Y-12.3782
G01 X45.0264 Y-12.3807
G01 X45.0511 Y-12.3867
G01 X45.0804 Y-12.3911
G01 X45.1100 Y-12.3925
G01 X45.1396 Y-12.3911
G01 X45.1689 Y-12.3867
G01 X45.1936 Y-12.3807
G01 X45.2018 Y-12.3782
G01 X45.2216 Y-12.3711
G01 X45.2295 Y-12.3679
G01 X45.2447 Y-12.3607
G01 X45.2599 Y-12.3526
G01 X45.2742 Y-12.3440
G01 X45.2848 Y-12.3367
G01 X45.2983 Y-12.3267
G01 X45.3049 Y-12.3212
G01 X45.3205 Y-12.3071
G01 X45.3266 Y-12.3010
G01 X45.3435 Y-12.2821
G01 X45.5096 Y-12.0796
G01 X45.5646 Y-12.0345
G01 X45.5835 Y-12.0176
G01 X45.5896 Y-12.0115
G01 X45.6037 Y-11.9959
G01 X45.6092 Y-11.9893
G01 X45.6192 Y-11.9759
G01 X45.6265 Y-11.9652
G01 X45.6394 Y-11.9434
G01 X45.6486 Y-11.9245
G01 X45.6537 Y-11.9126
G01 X45.6621 Y-11.8887
G01 X45.6674 Y-11.8683
G01 X45.6700 Y-11.8557
G01 X45.6736 Y-11.8306
G01 X45.6751 Y-11.8010
G01 X45.6751 Y-10.9624
G01 X45.6736 Y-10.9327
G01 X45.6693 Y-10.9034
G01 X45.6621 Y-10.8747
G01 X45.6521 Y-10.8468
G01 X45.6394 Y-10.8200
G01 X45.6288 Y-10.8018
G01 X45.6217 Y-10.7910
G01 X45.6092 Y-10.7741
G01 X45.6037 Y-10.7674
G01 X45.5896 Y-10.7518
G01 X45.5835 Y-10.7458
G01 X45.5646 Y-10.7289
G01 X45.5133 Y-10.6867
G01 X45.4541 Y-10.6146
G01 X45.4102 Y-10.5324
G01 X45.3831 Y-10.4432
G01 X45.3725 Y-10.3356
G01 X45.3725 Y-9.2644
G01 X45.3831 Y-9.1568
G01 X45.4102 Y-9.0676
G01 X45.4541 Y-8.9854
G01 X45.5133 Y-8.9133
G01 X45.5854 Y-8.8541
G01 X45.6676 Y-8.8102
G01 X45.7568 Y-8.7831
G01 X45.8644 Y-8.7725
G01 X46.5356 Y-8.7725
G01 X46.6432 Y-8.7831
G01 X46.7324 Y-8.8102
G01 X46.8146 Y-8.8541
G01 X46.8867 Y-8.9132
G01 X46.9563 Y-8.9982
G01 X46.9665 Y-9.0116
G01 X46.9805 Y-9.0274
G01 X46.9895 Y-9.0366
G01 X47.0051 Y-9.0507
G01 X47.0151 Y-9.0588
G01 X47.0322 Y-9.0712
G01 X47.0501 Y-9.0822
G01 X47.0614 Y-9.0884
G01 X47.0844 Y-9.0991
G01 X47.1082 Y-9.1078
G01 X47.1206 Y-9.1114
G01 X47.1411 Y-9.1163
G01 X47.1661 Y-9.1202
G01 X47.1747 Y-9.1210
G01 X47.1914 Y-9.1219
G01 X47.2086 Y-9.1219
G01 X47.2296 Y-9.1206
G01 X47.2547 Y-9.1171
G01 X47.2673 Y-9.1144
G01 X47.2877 Y-9.1091
G01 X47.3116 Y-9.1007
G01 X47.3235 Y-9.0956
G01 X47.3424 Y-9.0864
G01 X47.3642 Y-9.0735
G01 X47.3748 Y-9.0662
G01 X47.3916 Y-9.0535
G01 X47.4074 Y-9.0395
G01 X47.4166 Y-9.0305
G01 X47.4335 Y-9.0116
G01 X47.4451 Y-8.9964
G01 X47.5133 Y-8.9133
G01 X47.5854 Y-8.8541
G01 X47.6676 Y-8.8102
G01 X47.7568 Y-8.7831
G01 X47.8644 Y-8.7725
G01 X48.5356 Y-8.7725
G01 X48.6445 Y-8.7832
G01 X48.6599 Y-8.7870
G01 X48.6683 Y-8.7887
G01 X48.6934 Y-8.7923
G01 X48.7144 Y-8.7935
G01 X48.7273 Y-8.7937
G01 X48.7483 Y-8.7926
G01 X48.7611 Y-8.7912
G01 X48.7819 Y-8.7879
G01 X48.8024 Y-8.7830
G01 X48.8148 Y-8.7794
G01 X48.8346 Y-8.7723
G01 X48.8464 Y-8.7673
G01 X48.8654 Y-8.7581
G01 X48.8908 Y-8.7428
G01 X48.9079 Y-8.7305
G01 X48.9179 Y-8.7224
G01 X48.9335 Y-8.7083
G01 X48.9425 Y-8.6990
G01 X48.9565 Y-8.6833
G01 X48.9692 Y-8.6665
G01 X48.9765 Y-8.6559
G01 X48.9873 Y-8.6378
G01 X48.9933 Y-8.6264
G01 X49.0021 Y-8.6073
G01 X49.0121 Y-8.5794
G01 X49.0174 Y-8.5590
G01 X49.0200 Y-8.5464
G01 X49.0236 Y-8.5213
G01 X49.0251 Y-8.4917
G01 X49.0251 Y-7.8690
G01 X49.0242 Y-7.8480
G01 X49.0231 Y-7.8351
G01 X49.0193 Y-7.8101
G01 X49.0121 Y-7.7813
G01 X49.0021 Y-7.7534
G01 X48.9914 Y-7.7304
G01 X48.9873 Y-7.7229
G01 X48.9788 Y-7.7085
G01 X48.9692 Y-7.6942
G01 X48.9592 Y-7.6807
G01 X48.9537 Y-7.6741
G01 X48.9396 Y-7.6585
G01 X48.9335 Y-7.6524
G01 X48.9146 Y-7.6355
G01 X48.8908 Y-7.6179
G01 X48.8692 Y-7.6047
G01 X48.8616 Y-7.6006
G01 X48.8465 Y-7.5934
G01 X48.8346 Y-7.5883
G01 X48.8107 Y-7.5800
G01 X48.7861 Y-7.5736
G01 X48.7747 Y-7.5715
G01 X48.7129 Y-7.5527
G01 X48.6600 Y-7.5244
G01 X48.6136 Y-7.4864
G01 X48.5756 Y-7.4400
G01 X48.5473 Y-7.3871
G01 X48.5299 Y-7.3297
G01 X48.5225 Y-7.2552
G01 X48.5225 Y-6.6448
G01 X48.5299 Y-6.5703
G01 X48.5473 Y-6.5129
G01 X48.5756 Y-6.4600
G01 X48.6136 Y-6.4136
G01 X48.6600 Y-6.3756
G01 X48.7129 Y-6.3473
G01 X48.7703 Y-6.3299
G01 X48.8448 Y-6.3225
G01 X50.2552 Y-6.3225
G01 X50.3297 Y-6.3299
G01 X50.3871 Y-6.3473
G01 X50.4400 Y-6.3756
G01 X50.4864 Y-6.4136
G01 X50.5244 Y-6.4600
G01 X50.5527 Y-6.5129
G01 X50.5701 Y-6.5703
G01 X50.5775 Y-6.6448
G01 X50.5775 Y-7.2552
G01 X50.5701 Y-7.3297
G01 X50.5527 Y-7.3871
G01 X50.5244 Y-7.4400
G01 X50.4864 Y-7.4864
G01 X50.4400 Y-7.5244
G01 X50.3871 Y-7.5527
G01 X50.3253 Y-7.5715
G01 X50.3139 Y-7.5736
G01 X50.2893 Y-7.5800
G01 X50.2654 Y-7.5883
G01 X50.2575 Y-7.5916
G01 X50.2423 Y-7.5988
G01 X50.2308 Y-7.6047
G01 X50.2092 Y-7.6179
G01 X50.1921 Y-7.6302
G01 X50.1789 Y-7.6411
G01 X50.1665 Y-7.6524
G01 X50.1604 Y-7.6585
G01 X50.1435 Y-7.6774
G01 X50.1258 Y-7.7012
G01 X50.1106 Y-7.7266
G01 X50.0996 Y-7.7495
G01 X50.0963 Y-7.7574
G01 X50.0906 Y-7.7732
G01 X50.0857 Y-7.7896
G01 X50.0807 Y-7.8101
G01 X50.0769 Y-7.8351
G01 X50.0758 Y-7.8480
G01 X50.0749 Y-7.8690
G01 X50.0749 Y-9.2094
G01 X50.0760 Y-9.2347
G01 X50.0775 Y-9.2500
G01 X50.0673 Y-9.3529
G01 X50.0373 Y-9.4519
G01 X49.9886 Y-9.5431
G01 X49.9230 Y-9.6230
G01 X49.9111 Y-9.6328
G01 X49.8925 Y-9.6499
G01 X49.3999 Y-10.1425
G01 X49.3828 Y-10.1611
G01 X49.3730 Y-10.1730
G01 X49.2930 Y-10.2386
G01 X49.2017 Y-10.2874
G01 X49.1808 Y-10.2949
G01 X49.1729 Y-10.2981
G01 X49.1538 Y-10.3071
G01 X49.1462 Y-10.3112
G01 X49.1246 Y-10.3244
G01 X49.1075 Y-10.3367
G01 X49.0975 Y-10.3448
G01 X49.0788 Y-10.3619
G01 X49.0617 Y-10.3806
G01 X49.0536 Y-10.3907
G01 X49.0437 Y-10.4042
G01 X49.0389 Y-10.4113
G01 X49.0260 Y-10.4331
G01 X49.0150 Y-10.4560
G01 X49.0102 Y-10.4679
G01 X49.0033 Y-10.4878
G01 X48.9898 Y-10.5324
G01 X48.9459 Y-10.6146
G01 X48.8867 Y-10.6867
G01 X48.8146 Y-10.7459
G01 X48.7324 Y-10.7898
G01 X48.6432 Y-10.8169
G01 X48.5356 Y-10.8275
G01 X47.8644 Y-10.8275
G01 X47.7568 Y-10.8169
G01 X47.6676 Y-10.7898
G01 X47.5854 Y-10.7459
G01 X47.5133 Y-10.6868
G01 X47.4437 Y-10.6018
G01 X47.4335 Y-10.5884
G01 X47.4195 Y-10.5726
G01 X47.4105 Y-10.5634
G01 X47.3916 Y-10.5465
G01 X47.3748 Y-10.5338
G01 X47.3642 Y-10.5265
G01 X47.3462 Y-10.5157
G01 X47.3347 Y-10.5097
G01 X47.3195 Y-10.5026
G01 X47.3116 Y-10.4993
G01 X47.2877 Y-10.4909
G01 X47.2631 Y-10.4846
G01 X47.2547 Y-10.4829
G01 X47.2381 Y-10.4804
G01 X47.2253 Y-10.4790
G01 X47.2000 Y-10.4779
G01 X47.1747 Y-10.4790
G01 X47.1619 Y-10.4804
G01 X47.1453 Y-10.4829
G01 X47.1369 Y-10.4846
G01 X47.1123 Y-10.4909
G01 X47.0884 Y-10.4993
G01 X47.0805 Y-10.5026
G01 X47.0653 Y-10.5097
G01 X47.0538 Y-10.5157
G01 X47.0322 Y-10.5288
G01 X47.0151 Y-10.5412
G01 X47.0051 Y-10.5493
G01 X46.9895 Y-10.5634
G01 X46.9834 Y-10.5695
G01 X46.9693 Y-10.5851
G01 X46.9549 Y-10.6036
G01 X46.8867 Y-10.6867
G01 X46.8321 Y-10.7316
G01 X46.8165 Y-10.7458
G01 X46.8104 Y-10.7518
G01 X46.7935 Y-10.7707
G01 X46.7758 Y-10.7945
G01 X46.7606 Y-10.8200
G01 X46.7479 Y-10.8468
G01 X46.7379 Y-10.8747
G01 X46.7307 Y-10.9034
G01 X46.7264 Y-10.9327
G01 X46.7250 Y-10.9581
G01 X46.7249 Y-11.5644
G01 X46.7258 Y-11.5854
G01 X46.7269 Y-11.5983
G01 X46.7300 Y-11.6191
G01 X46.7326 Y-11.6317
G01 X46.7379 Y-11.6521
G01 X46.7479 Y-11.6800
G01 X46.7567 Y-11.6991
G01 X46.7627 Y-11.7105
G01 X46.7735 Y-11.7286
G01 X46.7783 Y-11.7357
G01 X46.7908 Y-11.7527
G01 X46.7963 Y-11.7593
G01 X46.8104 Y-11.7749
G01 X46.8165 Y-11.7810
G01 X46.8321 Y-11.7951
G01 X46.8421 Y-11.8032
G01 X46.8592 Y-11.8155
G01 X46.8808 Y-11.8287
G01 X47.0638 Y-11.9266
G01 X47.2504 Y-12.0796
G01 X47.4165 Y-12.2821
G01 X47.4364 Y-12.3041
G01 X47.4584 Y-12.3240
G01 X47.4822 Y-12.3416
G01 X47.5076 Y-12.3569
G01 X47.5344 Y-12.3695
G01 X47.5542 Y-12.3768
G01 X47.5664 Y-12.3807
G01 X47.5869 Y-12.3858
G01 X47.5995 Y-12.3882
G01 X47.6204 Y-12.3911
G01 X47.6414 Y-12.3923
G01 X47.6543 Y-12.3925
G01 X47.6753 Y-12.3915
G01 X47.6881 Y-12.3900
G01 X47.7089 Y-12.3867
G01 X47.7294 Y-12.3818
G01 X47.7418 Y-12.3782
G01 X47.7616 Y-12.3711
G01 X47.7734 Y-12.3661
G01 X47.7924 Y-12.3569
G01 X47.8106 Y-12.3462
G01 X47.8248 Y-12.3367
G01 X47.8383 Y-12.3267
G01 X47.8449 Y-12.3212
G01 X47.8636 Y-12.3041
G01 X47.8779 Y-12.2886
G01 X48.0496 Y-12.0796
G01 X48.2362 Y-11.9266
G01 X48.4490 Y-11.8128
G01 X48.6799 Y-11.7428
G01 X48.9200 Y-11.7191
G01 X49.1601 Y-11.7428
G01 X49.3910 Y-11.8128
G01 X49.6038 Y-11.9266
G01 X49.7904 Y-12.0796
G01 X49.9593 Y-12.2854
G01 X49.9734 Y-12.3010
G01 X49.9826 Y-12.3100
G01 X49.9984 Y-12.3240
G01 X50.0186 Y-12.3392
G01 X50.0258 Y-12.3440
G01 X50.0438 Y-12.3548
G01 X50.0514 Y-12.3589
G01 X50.0705 Y-12.3679
G01 X50.0784 Y-12.3711
G01 X50.0982 Y-12.3782
G01 X50.1064 Y-12.3807
G01 X50.1227 Y-12.3849
G01 X50.1395 Y-12.3882
G01 X50.1561 Y-12.3906
G01 X50.1690 Y-12.3917
G01 X50.1857 Y-12.3925
G01 X50.1943 Y-12.3925
G01 X50.2153 Y-12.3915
G01 X50.2239 Y-12.3906
G01 X50.2489 Y-12.3867
G01 X50.2777 Y-12.3795
G01 X50.3056 Y-12.3695
G01 X50.3286 Y-12.3589
G01 X50.3362 Y-12.3548
G01 X50.3506 Y-12.3462
G01 X50.3648 Y-12.3367
G01 X50.3783 Y-12.3267
G01 X50.3849 Y-12.3212
G01 X50.4005 Y-12.3071
G01 X50.4066 Y-12.3010
G01 X50.4235 Y-12.2821
G01 X50.5896 Y-12.0796
G01 X50.6279 Y-12.0482
G01 X50.6435 Y-12.0340
G01 X50.6496 Y-12.0280
G01 X50.6609 Y-12.0156
G01 X50.6718 Y-12.0023
G01 X50.6842 Y-11.9853
G01 X50.6952 Y-11.9673
G01 X50.7014 Y-11.9560
G01 X50.7104 Y-11.9370
G01 X50.7152 Y-11.9250
G01 X50.7221 Y-11.9051
G01 X50.7284 Y-11.8806
G01 X50.7307 Y-11.8679
G01 X50.7331 Y-11.8513
G01 X50.7340 Y-11.8428
G01 X50.7351 Y-11.8174
G01 X50.7351 Y-9.1904
G01 X50.7340 Y-9.1651
G01 X50.7316 Y-9.1400
G01 X50.7456 Y-8.9979
G01 X50.7870 Y-8.8612
G01 X50.8543 Y-8.7353
G01 X50.9449 Y-8.6249
G01 X50.9644 Y-8.6089
G01 X50.9831 Y-8.5917
G01 X51.9037 Y-7.6710
G01 X51.9206 Y-7.6521
G01 X51.9333 Y-7.6353
G01 X51.9406 Y-7.6247
G01 X51.9535 Y-7.6029
G01 X51.9627 Y-7.5839
G01 X51.9678 Y-7.5721
G01 X51.9762 Y-7.5482
G01 X51.9815 Y-7.5278
G01 X51.9842 Y-7.5152
G01 X51.9877 Y-7.4901
G01 X51.9891 Y-7.4648
G01 X51.9890 Y-7.4519
G01 X51.9877 Y-7.4309
G01 X51.9842 Y-7.4058
G01 X51.9825 Y-7.3973
G01 X51.9785 Y-7.3811
G01 X51.9735 Y-7.3646
G01 X51.9678 Y-7.3489
G01 X51.9645 Y-7.3409
G01 X51.9535 Y-7.3181
G01 X51.9429 Y-7.2999
G01 X51.9359 Y-7.2891
G01 X51.9233 Y-7.2722
G01 X51.9148 Y-7.2617
G01 X51.7964 Y-7.0403
G01 X51.7235 Y-6.7999
G01 X51.7051 Y-6.6126
G01 X51.7051 Y-5.5874
G01 X51.7235 Y-5.4001
G01 X51.7964 Y-5.1597
G01 X51.9148 Y-4.9383
G01 X52.0741 Y-4.7441
G01 X52.2683 Y-4.5848
G01 X52.4897 Y-4.4664
G01 X52.7301 Y-4.3935
G01 X52.9800 Y-4.3689
G01 X53.2299 Y-4.3935
G01 X53.4703 Y-4.4664
G01 X53.6917 Y-4.5848
G01 X53.8859 Y-4.7441
G01 X54.0221 Y-4.9098
G01 X54.0334 Y-4.9222
G01 X54.0426 Y-4.9312
G01 X54.0584 Y-4.9452
G01 X54.0752 Y-4.9579
G01 X54.0894 Y-4.9674
G01 X54.1038 Y-4.9760
G01 X54.1153 Y-4.9819
G01 X54.1305 Y-4.9890
G01 X54.1384 Y-4.9923
G01 X54.1582 Y-4.9994
G01 X54.1664 Y-5.0019
G01 X54.1911 Y-5.0079
G01 X54.2204 Y-5.0123
G01 X54.2500 Y-5.0137
G01 X54.2796 Y-5.0123
G01 X54.3047 Y-5.0087
G01 X54.3173 Y-5.0060
G01 X54.3377 Y-5.0007
G01 X54.3616 Y-4.9923
G01 X54.3734 Y-4.9872
G01 X54.3924 Y-4.9781
G01 X54.4142 Y-4.9652
G01 X54.4248 Y-4.9579
G01 X54.4416 Y-4.9452
G01 X54.4574 Y-4.9312
G01 X54.4666 Y-4.9222
G01 X54.4779 Y-4.9098
G01 X54.6141 Y-4.7441
G01 X54.8083 Y-4.5848
G01 X55.0297 Y-4.4664
G01 X55.2701 Y-4.3935
G01 X55.5200 Y-4.3689
G01 X55.7699 Y-4.3935
G01 X56.0103 Y-4.4664
G01 X56.2317 Y-4.5848
G01 X56.4259 Y-4.7441
G01 X56.5621 Y-4.9098
G01 X56.5764 Y-4.9253
G01 X56.5951 Y-4.9424
G01 X56.6051 Y-4.9504
G01 X56.6222 Y-4.9628
G01 X56.6438 Y-4.9760
G01 X56.6514 Y-4.9800
G01 X56.6666 Y-4.9872
G01 X56.6824 Y-4.9938
G01 X56.6982 Y-4.9994
G01 X56.7064 Y-5.0019
G01 X56.7311 Y-5.0079
G01 X56.7604 Y-5.0123
G01 X56.7857 Y-5.0137
G01 X56.7943 Y-5.0137
G01 X56.8110 Y-5.0129
G01 X56.8281 Y-5.0112
G01 X56.8447 Y-5.0087
G01 X56.8531 Y-5.0070
G01 X56.8777 Y-5.0007
G01 X56.9016 Y-4.9923
G01 X56.9095 Y-4.9890
G01 X56.9247 Y-4.9819
G01 X56.9362 Y-4.9760
G01 X56.9578 Y-4.9628
G01 X56.9783 Y-4.9478
G01 X56.9849 Y-4.9424
G01 X57.0005 Y-4.9283
G01 X57.0066 Y-4.9222
G01 X57.0207 Y-4.9066
G01 X57.1541 Y-4.7441
G01 X57.3483 Y-4.5848
G01 X57.5697 Y-4.4664
G01 X57.8101 Y-4.3935
G01 X58.0600 Y-4.3689
G01 X58.3099 Y-4.3935
G01 X58.5503 Y-4.4664
G01 X58.7717 Y-4.5848
G01 X58.8677 Y-4.6633
G01 X58.8812 Y-4.6732
G01 X58.8883 Y-4.6780
G01 X58.9064 Y-4.6888
G01 X58.9140 Y-4.6928
G01 X58.9330 Y-4.7019
G01 X58.9450 Y-4.7066
G01 X58.9648 Y-4.7135
G01 X58.9852 Y-4.7189
G01 X58.9978 Y-4.7215
G01 X59.0187 Y-4.7246
G01 X59.0315 Y-4.7257
G01 X59.0525 Y-4.7265
G01 X59.0821 Y-4.7251
G01 X59.1072 Y-4.7215
G01 X59.1157 Y-4.7198
G01 X59.1361 Y-4.7147
G01 X59.1443 Y-4.7122
G01 X59.1601 Y-4.7066
G01 X59.1760 Y-4.7001
G01 X59.1911 Y-4.6928
G01 X59.2024 Y-4.6866
G01 X59.2167 Y-4.6780
G01 X59.2239 Y-4.6732
G01 X59.2408 Y-4.6607
G01 X59.2474 Y-4.6552
G01 X59.2661 Y-4.6381
G01 X59.2833 Y-4.6194
G01 X59.2913 Y-4.6093
G01 X59.3013 Y-4.5958
G01 X59.3060 Y-4.5887
G01 X59.3169 Y-4.5706
G01 X59.3209 Y-4.5631
G01 X59.3316 Y-4.5401
G01 X59.3411 Y-4.5136
G01 X59.3621 Y-4.4744
G01 X59.3902 Y-4.4402
G01 X59.4244 Y-4.4121
G01 X59.4635 Y-4.3912
G01 X59.5059 Y-4.3783
G01 X59.5642 Y-4.3726
G01 X59.6008 Y-4.3727
G01 X59.6854 Y-4.4574
G01 X59.6696 Y-4.4635
G01 X59.6307 Y-4.4821
G01 X59.5972 Y-4.5019
G01 X59.5829 Y-4.5115
G01 X59.5518 Y-4.5348
G01 X59.5197 Y-4.5637
G01 X59.5107 Y-4.5729
G01 X59.4904 Y-4.5953
G01 X59.4795 Y-4.6086
G01 X59.4565 Y-4.6400
G01 X59.4342 Y-4.6769
G01 X59.4283 Y-4.6884
G01 X59.4153 Y-4.7157
G01 X59.4102 Y-4.7276
G01 X59.3958 Y-4.7683
G01 X59.3862 Y-4.8060
G01 X59.3828 Y-4.8228
G01 X59.3784 Y-4.8528
G01 X59.3770 Y-4.8656
G01 X59.3750 Y-4.9087
G01 X59.3750 Y-7.2913
G01 X59.3767 Y-7.3301
G01 X59.3778 Y-7.3430
G01 X59.3843 Y-7.3857
G01 X59.3958 Y-7.4317
G01 X59.4118 Y-7.4764
G01 X59.4283 Y-7.5116
G01 X59.4342 Y-7.5231
G01 X59.4565 Y-7.5600
G01 X59.4795 Y-7.5914
G01 X59.4876 Y-7.6014
G01 X59.5107 Y-7.6271
G01 X59.5197 Y-7.6363
G01 X59.5486 Y-7.6624
G01 X59.5586 Y-7.6705
G01 X59.5900 Y-7.6935
G01 X59.6232 Y-7.7137
G01 X59.6345 Y-7.7199
G01 X59.6657 Y-7.7347
G01 X59.6776 Y-7.7398
G01 X59.7142 Y-7.7529
G01 X59.7266 Y-7.7565
G01 X59.7601 Y-7.7648
G01 X59.7728 Y-7.7672
G01 X59.8113 Y-7.7727
G01 X59.8501 Y-7.7748
G01 X60.0249 Y-7.7750
G01 X60.0249 Y-7.8256
G01 X59.5642 Y-7.8274
G01 X59.5059 Y-7.8217
G01 X59.4635 Y-7.8088
G01 X59.4244 Y-7.7879
G01 X59.3902 Y-7.7598
G01 X59.3621 Y-7.7256
G01 X59.3513 Y-7.7056
G01 X59.3405 Y-7.6875
G01 X59.3332 Y-7.6769
G01 X59.3205 Y-7.6601
G01 X59.3036 Y-7.6412
G01 X59.2944 Y-7.6322
G01 X59.2786 Y-7.6182
G01 X59.2584 Y-7.6030
G01 X59.2476 Y-7.5960
G01 X59.2294 Y-7.5853
G01 X59.2104 Y-7.5762
G01 X59.1986 Y-7.5711
G01 X59.1788 Y-7.5640
G01 X59.1664 Y-7.5604
G01 X59.1459 Y-7.5555
G01 X59.1209 Y-7.5516
G01 X59.1123 Y-7.5508
G01 X59.0956 Y-7.5499
G01 X59.0827 Y-7.5497
G01 X59.0574 Y-7.5511
G01 X59.0365 Y-7.5540
G01 X59.0239 Y-7.5564
G01 X58.9993 Y-7.5627
G01 X58.9754 Y-7.5711
G01 X58.9636 Y-7.5762
G01 X58.9446 Y-7.5853
G01 X58.9228 Y-7.5982
G01 X58.9122 Y-7.6055
G01 X58.8987 Y-7.6156
G01 X58.8921 Y-7.6210
G01 X58.8734 Y-7.6382
G01 X58.8591 Y-7.6536
G01 X58.8508 Y-7.6635
G01 X58.8358 Y-7.6839
G01 X58.8248 Y-7.7019
G01 X58.8186 Y-7.7132
G01 X58.8079 Y-7.7361
G01 X58.8006 Y-7.7559
G01 X58.7967 Y-7.7682
G01 X58.7907 Y-7.7928
G01 X58.7874 Y-7.8136
G01 X58.7860 Y-7.8264
G01 X58.7849 Y-7.8517
G01 X58.7849 Y-8.7896
G01 X58.7860 Y-8.8149
G01 X58.7884 Y-8.8400
G01 X58.7744 Y-8.9821
G01 X58.7330 Y-9.1188
G01 X58.6657 Y-9.2447
G01 X58.5751 Y-9.3551
G01 X58.5556 Y-9.3711
G01 X58.5369 Y-9.3883
G01 X57.3504 Y-10.5749
G01 X57.3363 Y-10.5905
G01 X57.3308 Y-10.5971
G01 X57.3183 Y-10.6140
G01 X57.3112 Y-10.6248
G01 X57.3006 Y-10.6430
G01 X57.2914 Y-10.6619
G01 X57.2863 Y-10.6738
G01 X57.2806 Y-10.6896
G01 X57.2757 Y-10.7060
G01 X57.2716 Y-10.7223
G01 X57.2700 Y-10.7307
G01 X57.2664 Y-10.7558
G01 X57.2650 Y-10.7811
G01 X57.2650 Y-11.8217
G01 X57.2664 Y-11.8471
G01 X57.2693 Y-11.8679
G01 X57.2716 Y-11.8806
G01 X57.2779 Y-11.9051
G01 X57.2863 Y-11.9291
G01 X57.2914 Y-11.9409
G01 X57.3006 Y-11.9598
G01 X57.3135 Y-11.9817
G01 X57.3208 Y-11.9923
G01 X57.3335 Y-12.0091
G01 X57.3534 Y-12.0310
G01 X57.3721 Y-12.0482
G01 X57.4104 Y-12.0796
G01 X57.5793 Y-12.2854
G01 X57.5934 Y-12.3010
G01 X57.5995 Y-12.3071
G01 X57.6151 Y-12.3212
G01 X57.6217 Y-12.3267
G01 X57.6386 Y-12.3392
G01 X57.6458 Y-12.3440
G01 X57.6638 Y-12.3548
G01 X57.6714 Y-12.3589
G01 X57.6905 Y-12.3679
G01 X57.6984 Y-12.3711
G01 X57.7182 Y-12.3782
G01 X57.7264 Y-12.3807
G01 X57.7469 Y-12.3858
G01 X57.7553 Y-12.3875
G01 X57.7761 Y-12.3906
G01 X57.7847 Y-12.3915
G01 X57.8057 Y-12.3925
G01 X57.8143 Y-12.3925
G01 X57.8353 Y-12.3915
G01 X57.8439 Y-12.3906
G01 X57.8689 Y-12.3867
G01 X57.8894 Y-12.3818
G01 X57.9018 Y-12.3782
G01 X57.9256 Y-12.3695
G01 X57.9447 Y-12.3607
G01 X57.9562 Y-12.3548
G01 X57.9778 Y-12.3416
G01 X57.9949 Y-12.3293
G01 X58.0049 Y-12.3212
G01 X58.0205 Y-12.3071
