(G-CODE GENERATED BY FLATCAM v8.994 - www.flatcam.org - Version Date: 2020/11/7)

(Name: pid_smt_oven-F_Cu.gbr_iso_combined_cnc)
(Type: G-code from Geometry)
(Units: MM)

(Created on Monday, 25 October 2021 at 19:15)

(This preprocessor is the default preprocessor used by FlatCAM.)
(It is made to work with MACH3 compatible motion controllers.)

(TOOL DIAMETER: 0.3 mm)
(Feedrate_XY: 120.0 mm/min)
(Feedrate_Z: 30.0 mm/min)
(Feedrate rapids 1500.0 mm/min)

(Z_Cut: -0.064 mm)
(Z_Move: 0.7 mm)
(Z Start: None mm)
(Z End: 25.0 mm)
(X,Y End: None mm)
(Steps per circle: 64)
(Preprocessor Geometry: default)

(X range:    1.8976 ...   66.0523  mm)
(Y range:  -43.3998 ...   -1.8975  mm)

(Spindle Speed: 12000.0 RPM)
G21
G90
G94

$1=255		
G01 F120.00

M5
G00 Z2.0000
G00 X0.0000 Y0.0000
T1
M6    
(MSG, Change to Tool Dia = 0.3000)
M0
G00 Z2.0000

M03 S12000.0
G01 F120.00
G00 X55.0502 Y-42.4124
G01 F30.00
G01 Z-0.0640
G01 F120.00
G01 X55.0517 Y-42.4393
G01 X55.0567 Y-42.4733
G01 X55.0651 Y-42.5066
G01 X55.0753 Y-42.5355
G01 X55.0781 Y-42.5423
G01 X55.0880 Y-42.5634
G01 X55.0950 Y-42.5764
G01 X55.1070 Y-42.5964
G01 X55.1111 Y-42.6025
G01 X55.1249 Y-42.6212
G01 X55.1318 Y-42.6299
G01 X55.1525 Y-42.6525
G01 X55.1780 Y-42.6756
G01 X55.2056 Y-42.6960
G01 X55.2286 Y-42.7100
G01 X55.2416 Y-42.7170
G01 X55.2627 Y-42.7269
G01 X55.2729 Y-42.7310
G01 X55.2949 Y-42.7388
G01 X55.3019 Y-42.7410
G01 X55.3245 Y-42.7467
G01 X55.3353 Y-42.7489
G01 X55.3657 Y-42.7533
G01 X55.4000 Y-42.7550
G01 X57.0000 Y-42.7550
G01 X57.0343 Y-42.7533
G01 X57.0683 Y-42.7483
G01 X57.0981 Y-42.7410
G01 X57.1086 Y-42.7376
G01 X57.1339 Y-42.7284
G01 X57.1584 Y-42.7170
G01 X57.1682 Y-42.7119
G01 X57.1944 Y-42.6960
G01 X57.2192 Y-42.6779
G01 X57.2276 Y-42.6707
G01 X57.2475 Y-42.6525
G01 X57.2657 Y-42.6326
G01 X57.2729 Y-42.6242
G01 X57.2910 Y-42.5994
G01 X57.3069 Y-42.5732
G01 X57.3120 Y-42.5634
G01 X57.3234 Y-42.5389
G01 X57.3338 Y-42.5101
G01 X57.3360 Y-42.5031
G01 X57.3417 Y-42.4805
G01 X57.3445 Y-42.4660
G01 X57.3483 Y-42.4393
G01 X57.3500 Y-42.4087
G01 X57.3500 Y-42.0013
G01 X57.3483 Y-41.9707
G01 X57.3433 Y-41.9367
G01 X57.3349 Y-41.9034
G01 X57.3260 Y-41.8779
G01 X57.3219 Y-41.8677
G01 X57.3087 Y-41.8400
G01 X57.2910 Y-41.8106
G01 X57.2751 Y-41.7888
G01 X57.2657 Y-41.7774
G01 X57.2501 Y-41.7601
G01 X57.2422 Y-41.7524
G01 X57.2220 Y-41.7344
G01 X57.1975 Y-41.7161
G01 X57.1914 Y-41.7120
G01 X57.1714 Y-41.7000
G01 X57.1584 Y-41.6930
G01 X57.1339 Y-41.6816
G01 X57.1016 Y-41.6701
G01 X57.0683 Y-41.6617
G01 X57.0416 Y-41.6576
G01 X57.0306 Y-41.6564
G01 X57.0000 Y-41.6550
G01 X55.4000 Y-41.6550
G01 X55.3657 Y-41.6567
G01 X55.3317 Y-41.6617
G01 X55.3019 Y-41.6690
G01 X55.2914 Y-41.6724
G01 X55.2661 Y-41.6816
G01 X55.2416 Y-41.6930
G01 X55.2318 Y-41.6981
G01 X55.2056 Y-41.7140
G01 X55.1780 Y-41.7344
G01 X55.1551 Y-41.7549
G01 X55.1474 Y-41.7628
G01 X55.1294 Y-41.7830
G01 X55.1132 Y-41.8045
G01 X55.1070 Y-41.8136
G01 X55.0913 Y-41.8400
G01 X55.0796 Y-41.8643
G01 X55.0753 Y-41.8745
G01 X55.0651 Y-41.9034
G01 X55.0567 Y-41.9367
G01 X55.0517 Y-41.9707
G01 X55.0502 Y-41.9976
G01 X55.0502 Y-42.4124
G00 Z0.7000
G00 X55.0502 Y-42.4124
G01 F30.00
G01 Z-0.0640
G01 F120.00
G01 X55.0517 Y-42.4393
G01 X55.0567 Y-42.4733
G01 X55.0651 Y-42.5066
G01 X55.0753 Y-42.5355
G01 X55.0781 Y-42.5423
G01 X55.0880 Y-42.5634
G01 X55.0950 Y-42.5764
G01 X55.1070 Y-42.5964
G01 X55.1111 Y-42.6025
G01 X55.1249 Y-42.6212
G01 X55.1318 Y-42.6299
G01 X55.1525 Y-42.6525
G01 X55.1780 Y-42.6756
G01 X55.2056 Y-42.6960
G01 X55.2286 Y-42.7100
G01 X55.2416 Y-42.7170
G01 X55.2627 Y-42.7269
G01 X55.2729 Y-42.7310
G01 X55.2949 Y-42.7388
G01 X55.3019 Y-42.7410
G01 X55.3245 Y-42.7467
G01 X55.3353 Y-42.7489
G01 X55.3657 Y-42.7533
G01 X55.4000 Y-42.7550
G01 X57.0000 Y-42.7550
G01 X57.0343 Y-42.7533
G01 X57.0683 Y-42.7483
G01 X57.0981 Y-42.7410
G01 X57.1086 Y-42.7376
G01 X57.1339 Y-42.7284
G01 X57.1584 Y-42.7170
G01 X57.1682 Y-42.7119
G01 X57.1944 Y-42.6960
G01 X57.2192 Y-42.6779
G01 X57.2276 Y-42.6707
G01 X57.2475 Y-42.6525
G01 X57.2657 Y-42.6326
G01 X57.2729 Y-42.6242
G01 X57.2910 Y-42.5994
G01 X57.3069 Y-42.5732
G01 X57.3120 Y-42.5634
G01 X57.3234 Y-42.5389
G01 X57.3338 Y-42.5101
G01 X57.3360 Y-42.5031
G01 X57.3417 Y-42.4805
G01 X57.3445 Y-42.4660
G01 X57.3483 Y-42.4393
G01 X57.3500 Y-42.4087
G01 X57.3500 Y-42.0013
G01 X57.3483 Y-41.9707
G01 X57.3433 Y-41.9367
G01 X57.3349 Y-41.9034
G01 X57.3260 Y-41.8779
G01 X57.3219 Y-41.8677
G01 X57.3087 Y-41.8400
G01 X57.2910 Y-41.8106
G01 X57.2751 Y-41.7888
G01 X57.2657 Y-41.7774
G01 X57.2501 Y-41.7601
G01 X57.2422 Y-41.7524
G01 X57.2220 Y-41.7344
G01 X57.1975 Y-41.7161
G01 X57.1914 Y-41.7120
G01 X57.1714 Y-41.7000
G01 X57.1584 Y-41.6930
G01 X57.1339 Y-41.6816
G01 X57.1016 Y-41.6701
G01 X57.0683 Y-41.6617
G01 X57.0416 Y-41.6576
G01 X57.0306 Y-41.6564
G01 X57.0000 Y-41.6550
G01 X55.4000 Y-41.6550
G01 X55.3657 Y-41.6567
G01 X55.3317 Y-41.6617
G01 X55.3019 Y-41.6690
G01 X55.2914 Y-41.6724
G01 X55.2661 Y-41.6816
G01 X55.2416 Y-41.6930
G01 X55.2318 Y-41.6981
G01 X55.2056 Y-41.7140
G01 X55.1780 Y-41.7344
G01 X55.1551 Y-41.7549
G01 X55.1474 Y-41.7628
G01 X55.1294 Y-41.7830
G01 X55.1132 Y-41.8045
G01 X55.1070 Y-41.8136
G01 X55.0913 Y-41.8400
G01 X55.0796 Y-41.8643
G01 X55.0753 Y-41.8745
G01 X55.0651 Y-41.9034
G01 X55.0567 Y-41.9367
G01 X55.0517 Y-41.9707
G01 X55.0502 Y-41.9976
G01 X55.0502 Y-42.4124
G00 Z0.7000
G00 X55.0502 Y-41.1424
G01 F30.00
G01 Z-0.0640
G01 F120.00
G01 X55.0517 Y-41.1693
G01 X55.0567 Y-41.2033
G01 X55.0651 Y-41.2366
G01 X55.0753 Y-41.2655
G01 X55.0781 Y-41.2723
G01 X55.0880 Y-41.2934
G01 X55.0950 Y-41.3064
G01 X55.1070 Y-41.3264
G01 X55.1111 Y-41.3325
G01 X55.1249 Y-41.3512
G01 X55.1318 Y-41.3599
G01 X55.1525 Y-41.3825
G01 X55.1780 Y-41.4056
G01 X55.2056 Y-41.4260
G01 X55.2286 Y-41.4400
G01 X55.2416 Y-41.4470
G01 X55.2627 Y-41.4569
G01 X55.2729 Y-41.4610
G01 X55.2949 Y-41.4688
G01 X55.3019 Y-41.4710
G01 X55.3245 Y-41.4767
G01 X55.3353 Y-41.4789
G01 X55.3657 Y-41.4833
G01 X55.4000 Y-41.4850
G01 X57.0000 Y-41.4850
G01 X57.0343 Y-41.4833
G01 X57.0683 Y-41.4783
G01 X57.0981 Y-41.4710
G01 X57.1086 Y-41.4676
G01 X57.1339 Y-41.4584
G01 X57.1584 Y-41.4470
G01 X57.1682 Y-41.4419
G01 X57.1944 Y-41.4260
G01 X57.2192 Y-41.4079
G01 X57.2276 Y-41.4007
G01 X57.2475 Y-41.3825
G01 X57.2657 Y-41.3626
G01 X57.2729 Y-41.3542
G01 X57.2910 Y-41.3294
G01 X57.3069 Y-41.3032
G01 X57.3120 Y-41.2934
G01 X57.3234 Y-41.2689
G01 X57.3338 Y-41.2401
G01 X57.3360 Y-41.2331
G01 X57.3417 Y-41.2105
G01 X57.3445 Y-41.1960
G01 X57.3483 Y-41.1693
G01 X57.3500 Y-41.1387
G01 X57.3500 Y-40.7313
G01 X57.3483 Y-40.7007
G01 X57.3433 Y-40.6667
G01 X57.3349 Y-40.6334
G01 X57.3260 Y-40.6079
G01 X57.3219 Y-40.5977
G01 X57.3087 Y-40.5700
G01 X57.2910 Y-40.5406
G01 X57.2751 Y-40.5188
G01 X57.2657 Y-40.5074
G01 X57.2501 Y-40.4901
G01 X57.2422 Y-40.4824
G01 X57.2220 Y-40.4644
G01 X57.1975 Y-40.4461
G01 X57.1914 Y-40.4420
G01 X57.1714 Y-40.4300
G01 X57.1584 Y-40.4230
G01 X57.1339 Y-40.4116
G01 X57.1016 Y-40.4001
G01 X57.0683 Y-40.3917
G01 X57.0416 Y-40.3876
G01 X57.0306 Y-40.3864
G01 X57.0000 Y-40.3850
G01 X55.4000 Y-40.3850
G01 X55.3657 Y-40.3867
G01 X55.3317 Y-40.3917
G01 X55.3019 Y-40.3990
G01 X55.2914 Y-40.4024
G01 X55.2661 Y-40.4116
G01 X55.2416 Y-40.4230
G01 X55.2318 Y-40.4281
G01 X55.2056 Y-40.4440
G01 X55.1780 Y-40.4644
G01 X55.1551 Y-40.4849
G01 X55.1474 Y-40.4928
G01 X55.1294 Y-40.5130
G01 X55.1132 Y-40.5345
G01 X55.1070 Y-40.5436
G01 X55.0913 Y-40.5700
G01 X55.0796 Y-40.5943
G01 X55.0753 Y-40.6045
G01 X55.0651 Y-40.6334
G01 X55.0567 Y-40.6667
G01 X55.0517 Y-40.7007
G01 X55.0502 Y-40.7276
G01 X55.0502 Y-41.1424
G00 Z0.7000
G00 X55.0502 Y-39.8724
G01 F30.00
G01 Z-0.0640
G01 F120.00
G01 X55.0517 Y-39.8993
G01 X55.0567 Y-39.9333
G01 X55.0651 Y-39.9666
G01 X55.0753 Y-39.9955
G01 X55.0781 Y-40.0023
G01 X55.0880 Y-40.0234
G01 X55.0950 Y-40.0364
G01 X55.1070 Y-40.0564
G01 X55.1111 Y-40.0625
G01 X55.1249 Y-40.0812
G01 X55.1318 Y-40.0899
G01 X55.1525 Y-40.1125
G01 X55.1780 Y-40.1356
G01 X55.2056 Y-40.1560
G01 X55.2286 Y-40.1700
G01 X55.2416 Y-40.1770
G01 X55.2627 Y-40.1869
G01 X55.2729 Y-40.1910
G01 X55.2949 Y-40.1988
G01 X55.3019 Y-40.2010
G01 X55.3245 Y-40.2067
G01 X55.3353 Y-40.2089
G01 X55.3657 Y-40.2133
G01 X55.4000 Y-40.2150
G01 X57.0000 Y-40.2150
G01 X57.0343 Y-40.2133
G01 X57.0683 Y-40.2083
G01 X57.0981 Y-40.2010
G01 X57.1086 Y-40.1976
G01 X57.1339 Y-40.1884
G01 X57.1584 Y-40.1770
G01 X57.1682 Y-40.1719
G01 X57.1944 Y-40.1560
G01 X57.2192 Y-40.1379
G01 X57.2276 Y-40.1307
G01 X57.2475 Y-40.1125
G01 X57.2657 Y-40.0926
G01 X57.2729 Y-40.0842
G01 X57.2910 Y-40.0594
G01 X57.3069 Y-40.0332
G01 X57.3120 Y-40.0234
G01 X57.3234 Y-39.9989
G01 X57.3338 Y-39.9701
G01 X57.3360 Y-39.9631
G01 X57.3417 Y-39.9405
G01 X57.3445 Y-39.9260
G01 X57.3483 Y-39.8993
G01 X57.3500 Y-39.8687
G01 X57.3500 Y-39.4613
G01 X57.3483 Y-39.4307
G01 X57.3433 Y-39.3967
G01 X57.3349 Y-39.3634
G01 X57.3260 Y-39.3379
G01 X57.3219 Y-39.3277
G01 X57.3087 Y-39.3000
G01 X57.2910 Y-39.2706
G01 X57.2751 Y-39.2488
G01 X57.2657 Y-39.2374
G01 X57.2501 Y-39.2201
G01 X57.2422 Y-39.2124
G01 X57.2220 Y-39.1944
G01 X57.1975 Y-39.1761
G01 X57.1914 Y-39.1720
G01 X57.1714 Y-39.1600
G01 X57.1584 Y-39.1530
G01 X57.1339 Y-39.1416
G01 X57.1016 Y-39.1301
G01 X57.0683 Y-39.1217
G01 X57.0416 Y-39.1176
G01 X57.0306 Y-39.1164
G01 X57.0000 Y-39.1150
G01 X55.4000 Y-39.1150
G01 X55.3657 Y-39.1167
G01 X55.3317 Y-39.1217
G01 X55.3019 Y-39.1290
G01 X55.2914 Y-39.1324
G01 X55.2661 Y-39.1416
G01 X55.2416 Y-39.1530
G01 X55.2318 Y-39.1581
G01 X55.2056 Y-39.1740
G01 X55.1780 Y-39.1944
G01 X55.1551 Y-39.2149
G01 X55.1474 Y-39.2228
G01 X55.1294 Y-39.2430
G01 X55.1132 Y-39.2645
G01 X55.1070 Y-39.2736
G01 X55.0913 Y-39.3000
G01 X55.0796 Y-39.3243
G01 X55.0753 Y-39.3345
G01 X55.0651 Y-39.3634
G01 X55.0567 Y-39.3967
G01 X55.0517 Y-39.4307
G01 X55.0502 Y-39.4576
G01 X55.0502 Y-39.8724
G00 Z0.7000
G00 X57.8700 Y-40.3130
G01 F30.00
G01 Z-0.0640
G01 F120.00
G01 X57.8547 Y-40.3083
G01 X57.8348 Y-40.3032
G01 X57.8110 Y-40.2982
G01 X57.7907 Y-40.2950
G01 X57.7746 Y-40.2930
G01 X57.7460 Y-40.2912
G01 X57.7217 Y-40.2909
G01 X57.7011 Y-40.2918
G01 X57.6850 Y-40.2930
G01 X57.6566 Y-40.2968
G01 X57.6327 Y-40.3012
G01 X57.6127 Y-40.3061
G01 X57.5971 Y-40.3104
G01 X57.5699 Y-40.3197
G01 X57.5474 Y-40.3287
G01 X57.5287 Y-40.3374
G01 X57.5142 Y-40.3447
G01 X57.4894 Y-40.3591
G01 X57.4691 Y-40.3723
G01 X57.4525 Y-40.3845
G01 X57.4397 Y-40.3945
G01 X57.4199 Y-40.4119
G01 X57.4097 Y-40.3988
G01 X57.3991 Y-40.3865
G01 X57.3804 Y-40.3660
G01 X57.3690 Y-40.3546
G01 X57.3485 Y-40.3359
G01 X57.3362 Y-40.3253
G01 X57.3235 Y-40.3153
G01 X57.3026 Y-40.3000
G01 X57.3299 Y-40.2798
G01 X57.3424 Y-40.2695
G01 X57.3690 Y-40.2454
G01 X57.3859 Y-40.2280
G01 X57.4045 Y-40.2074
G01 X57.4197 Y-40.1885
G01 X57.4407 Y-40.1595
G01 X57.4594 Y-40.1289
G01 X57.4711 Y-40.1077
G01 X57.4865 Y-40.0753
G01 X57.4927 Y-40.0603
G01 X57.5047 Y-40.0266
G01 X57.5094 Y-40.0111
G01 X57.5181 Y-39.9763
G01 X57.5213 Y-39.9604
G01 X57.5266 Y-39.9250
G01 X57.5286 Y-39.9008
G01 X57.5300 Y-39.8650
G01 X57.5299 Y-39.4569
G01 X57.5281 Y-39.4211
G01 X57.5266 Y-39.4050
G01 X57.5213 Y-39.3696
G01 X57.5163 Y-39.3458
G01 X57.5094 Y-39.3189
G01 X57.5047 Y-39.3034
G01 X57.4927 Y-39.2697
G01 X57.4865 Y-39.2547
G01 X57.4747 Y-39.2296
G01 X57.4674 Y-39.2152
G01 X57.4594 Y-39.2011
G01 X57.4407 Y-39.1705
G01 X57.4197 Y-39.1415
G01 X57.4097 Y-39.1288
G01 X57.3991 Y-39.1165
G01 X57.3748 Y-39.0902
G01 X57.3485 Y-39.0659
G01 X57.3362 Y-39.0553
G01 X57.3235 Y-39.0453
G01 X57.3026 Y-39.0300
G01 X57.3235 Y-39.0147
G01 X57.3362 Y-39.0047
G01 X57.3485 Y-38.9941
G01 X57.3690 Y-38.9754
G01 X57.3804 Y-38.9640
G01 X57.3991 Y-38.9435
G01 X57.4148 Y-38.9249
G01 X57.4314 Y-38.9027
G01 X57.4407 Y-38.8895
G01 X57.4493 Y-38.8758
G01 X57.4635 Y-38.8519
G01 X57.4711 Y-38.8377
G01 X57.4831 Y-38.8126
G01 X57.4897 Y-38.7978
G01 X57.4955 Y-38.7827
G01 X57.5072 Y-38.7489
G01 X57.5115 Y-38.7332
G01 X57.5181 Y-38.7063
G01 X57.5226 Y-38.6824
G01 X57.5266 Y-38.6550
G01 X57.5281 Y-38.6389
G01 X57.5296 Y-38.6112
G01 X57.5300 Y-38.5950
G01 X57.5300 Y-38.3612
G01 X57.5610 Y-38.3301
G01 X57.8758 Y-38.3302
G01 X57.8811 Y-38.3635
G01 X57.8847 Y-38.3793
G01 X57.8927 Y-38.4109
G01 X57.8974 Y-38.4264
G01 X57.9083 Y-38.4571
G01 X57.9141 Y-38.4722
G01 X57.9207 Y-38.4870
G01 X57.9384 Y-38.5236
G01 X57.9464 Y-38.5377
G01 X57.9677 Y-38.5724
G01 X57.9770 Y-38.5857
G01 X57.9965 Y-38.6118
G01 X58.0068 Y-38.6243
G01 X58.0198 Y-38.6388
G01 X58.0198 Y-38.9612
G01 X58.0068 Y-38.9757
G01 X57.9965 Y-38.9882
G01 X57.9723 Y-39.0209
G01 X57.9633 Y-39.0344
G01 X57.9464 Y-39.0623
G01 X57.9384 Y-39.0764
G01 X57.9312 Y-39.0908
G01 X57.9173 Y-39.1204
G01 X57.9111 Y-39.1353
G01 X57.9000 Y-39.1660
G01 X57.8950 Y-39.1814
G01 X57.8906 Y-39.1970
G01 X57.8811 Y-39.2365
G01 X57.8784 Y-39.2525
G01 X57.8728 Y-39.2928
G01 X57.8716 Y-39.3089
G01 X57.8700 Y-39.3496
G01 X57.8700 Y-40.3130
G00 Z0.7000
G00 X61.3501 Y-40.9518
G01 F30.00
G01 Z-0.0640
G01 F120.00
G01 X61.3502 Y-40.7962
G01 X61.3724 Y-40.7827
G01 X61.4010 Y-40.7616
G01 X61.4095 Y-40.7545
G01 X61.4330 Y-40.7330
G01 X61.4545 Y-40.7095
G01 X61.4638 Y-40.6981
G01 X61.4827 Y-40.6724
G01 X61.5010 Y-40.6420
G01 X61.5061 Y-40.6322
G01 X61.5196 Y-40.6033
G01 X61.5305 Y-40.5734
G01 X61.5348 Y-40.5593
G01 X61.5423 Y-40.5284
G01 X61.5472 Y-40.4969
G01 X61.5486 Y-40.4822
G01 X61.5500 Y-40.4501
G01 X61.6509 Y-40.4501
G01 X61.6524 Y-40.6873
G01 X61.6463 Y-40.7490
G01 X61.6320 Y-40.7961
G01 X61.6088 Y-40.8395
G01 X61.5776 Y-40.8776
G01 X61.5395 Y-40.9088
G01 X61.4961 Y-40.9320
G01 X61.4490 Y-40.9463
G01 X61.3882 Y-40.9523
G01 X61.3501 Y-40.9518
G00 Z0.7000
G00 X61.5500 Y-38.2501
G01 F30.00
G01 Z-0.0640
G01 F120.00
G01 X61.6509 Y-38.2501
G01 X61.6524 Y-38.4873
G01 X61.6463 Y-38.5490
G01 X61.6320 Y-38.5961
G01 X61.6058 Y-38.6451
G01 X61.5948 Y-38.6630
G01 X61.5895 Y-38.6727
G01 X61.5796 Y-38.6940
G01 X61.5727 Y-38.7126
G01 X61.5684 Y-38.7267
G01 X61.5631 Y-38.7496
G01 X61.5598 Y-38.7728
G01 X61.5585 Y-38.8000
G01 X61.5598 Y-38.8272
G01 X61.5631 Y-38.8504
G01 X61.5684 Y-38.8733
G01 X61.5727 Y-38.8874
G01 X61.5796 Y-38.9060
G01 X61.5895 Y-38.9273
G01 X61.5948 Y-38.9370
G01 X61.6058 Y-38.9549
G01 X61.6320 Y-39.0039
G01 X61.6463 Y-39.0510
G01 X61.6524 Y-39.1127
G01 X61.6509 Y-39.3499
G01 X61.5500 Y-39.3499
G01 X61.5481 Y-39.3104
G01 X61.5436 Y-39.2789
G01 X61.5407 Y-39.2645
G01 X61.5338 Y-39.2371
G01 X61.5305 Y-39.2266
G01 X61.5196 Y-39.1967
G01 X61.5061 Y-39.1678
G01 X61.4992 Y-39.1548
G01 X61.4827 Y-39.1276
G01 X61.4593 Y-39.0961
G01 X61.4330 Y-39.0670
G01 X61.4095 Y-39.0455
G01 X61.4002 Y-39.0378
G01 X61.4002 Y-38.5622
G01 X61.4095 Y-38.5545
G01 X61.4330 Y-38.5330
G01 X61.4593 Y-38.5039
G01 X61.4827 Y-38.4724
G01 X61.4992 Y-38.4452
G01 X61.5061 Y-38.4322
G01 X61.5181 Y-38.4067
G01 X61.5222 Y-38.3965
G01 X61.5328 Y-38.3664
G01 X61.5407 Y-38.3355
G01 X61.5436 Y-38.3211
G01 X61.5481 Y-38.2896
G01 X61.5500 Y-38.2501
G00 Z0.7000
G00 X61.5500 Y-36.0501
G01 F30.00
G01 Z-0.0640
G01 F120.00
G01 X61.6509 Y-36.0501
G01 X61.6524 Y-36.2873
G01 X61.6463 Y-36.3490
G01 X61.6320 Y-36.3961
G01 X61.6058 Y-36.4451
G01 X61.5948 Y-36.4630
G01 X61.5895 Y-36.4727
G01 X61.5796 Y-36.4940
G01 X61.5727 Y-36.5126
G01 X61.5684 Y-36.5267
G01 X61.5631 Y-36.5496
G01 X61.5598 Y-36.5728
G01 X61.5585 Y-36.6000
G01 X61.5598 Y-36.6272
G01 X61.5631 Y-36.6504
G01 X61.5684 Y-36.6733
G01 X61.5727 Y-36.6874
G01 X61.5796 Y-36.7060
G01 X61.5895 Y-36.7273
G01 X61.5948 Y-36.7370
G01 X61.6058 Y-36.7549
G01 X61.6320 Y-36.8039
G01 X61.6463 Y-36.8510
G01 X61.6524 Y-36.9127
G01 X61.6509 Y-37.1499
G01 X61.5500 Y-37.1499
G01 X61.5481 Y-37.1104
G01 X61.5436 Y-37.0789
G01 X61.5407 Y-37.0645
G01 X61.5338 Y-37.0371
G01 X61.5305 Y-37.0266
G01 X61.5196 Y-36.9967
G01 X61.5061 Y-36.9678
G01 X61.4992 Y-36.9548
G01 X61.4827 Y-36.9276
G01 X61.4593 Y-36.8961
G01 X61.4330 Y-36.8670
G01 X61.4095 Y-36.8455
G01 X61.4002 Y-36.8378
G01 X61.4002 Y-36.3622
G01 X61.4095 Y-36.3545
G01 X61.4330 Y-36.3330
G01 X61.4593 Y-36.3039
G01 X61.4827 Y-36.2724
G01 X61.4992 Y-36.2452
G01 X61.5061 Y-36.2322
G01 X61.5181 Y-36.2067
G01 X61.5222 Y-36.1965
G01 X61.5328 Y-36.1664
G01 X61.5407 Y-36.1355
G01 X61.5436 Y-36.1211
G01 X61.5481 Y-36.0896
G01 X61.5500 Y-36.0501
G00 Z0.7000
G00 X61.3501 Y-34.6037
G01 F30.00
G01 Z-0.0640
G01 F120.00
G01 X61.3501 Y-34.4482
G01 X61.3882 Y-34.4477
G01 X61.4490 Y-34.4537
G01 X61.4961 Y-34.4680
G01 X61.5395 Y-34.4912
G01 X61.5776 Y-34.5224
G01 X61.6088 Y-34.5605
G01 X61.6320 Y-34.6039
G01 X61.6463 Y-34.6510
G01 X61.6524 Y-34.7127
G01 X61.6509 Y-34.9499
G01 X61.5500 Y-34.9499
G01 X61.5486 Y-34.9178
G01 X61.5472 Y-34.9031
G01 X61.5423 Y-34.8716
G01 X61.5348 Y-34.8407
G01 X61.5305 Y-34.8266
G01 X61.5196 Y-34.7967
G01 X61.5061 Y-34.7678
G01 X61.5010 Y-34.7580
G01 X61.4827 Y-34.7276
G01 X61.4638 Y-34.7019
G01 X61.4545 Y-34.6905
G01 X61.4330 Y-34.6670
G01 X61.4095 Y-34.6455
G01 X61.4010 Y-34.6384
G01 X61.3724 Y-34.6173
G01 X61.3501 Y-34.6037
G00 Z0.7000
G00 X59.7279 Y-34.9014
G01 F30.00
G01 Z-0.0640
G01 F120.00
G01 X59.7471 Y-34.9015
G01 X59.7676 Y-34.9006
G01 X59.7838 Y-34.8994
G01 X59.7999 Y-34.8974
G01 X59.8202 Y-34.8943
G01 X59.8361 Y-34.8911
G01 X59.8561 Y-34.8862
G01 X59.8742 Y-34.8811
G01 X59.8728 Y-34.8928
G01 X59.8716 Y-34.9089
G01 X59.8700 Y-34.9496
G01 X59.8700 Y-36.0504
G01 X59.8716 Y-36.0911
G01 X59.8737 Y-36.1153
G01 X59.8784 Y-36.1475
G01 X59.8811 Y-36.1635
G01 X59.8847 Y-36.1793
G01 X59.8950 Y-36.2186
G01 X59.9000 Y-36.2340
G01 X59.9141 Y-36.2722
G01 X59.9312 Y-36.3092
G01 X59.9384 Y-36.3236
G01 X59.9464 Y-36.3377
G01 X59.9677 Y-36.3724
G01 X59.9770 Y-36.3857
G01 X59.9965 Y-36.4118
G01 X60.0068 Y-36.4243
G01 X60.0341 Y-36.4544
G01 X60.0456 Y-36.4659
G01 X60.0699 Y-36.4881
G01 X60.0699 Y-36.7119
G01 X60.0456 Y-36.7341
G01 X60.0341 Y-36.7456
G01 X60.0068 Y-36.7757
G01 X59.9965 Y-36.7882
G01 X59.9723 Y-36.8209
G01 X59.9633 Y-36.8344
G01 X59.9423 Y-36.8693
G01 X59.9312 Y-36.8908
G01 X59.9173 Y-36.9204
G01 X59.9083 Y-36.9429
G01 X59.8950 Y-36.9814
G01 X59.8847 Y-37.0207
G01 X59.8797 Y-37.0445
G01 X59.8737 Y-37.0847
G01 X59.8721 Y-37.1009
G01 X59.8704 Y-37.1334
G01 X59.8700 Y-37.1496
G01 X59.8700 Y-38.2504
G01 X59.8716 Y-38.2911
G01 X59.8737 Y-38.3153
G01 X59.8784 Y-38.3475
G01 X59.8811 Y-38.3635
G01 X59.8847 Y-38.3793
G01 X59.8950 Y-38.4186
G01 X59.9000 Y-38.4340
G01 X59.9141 Y-38.4722
G01 X59.9312 Y-38.5092
G01 X59.9384 Y-38.5236
G01 X59.9464 Y-38.5377
G01 X59.9677 Y-38.5724
G01 X59.9770 Y-38.5857
G01 X59.9965 Y-38.6118
G01 X60.0068 Y-38.6243
G01 X60.0341 Y-38.6544
G01 X60.0456 Y-38.6659
G01 X60.0699 Y-38.6881
G01 X60.0699 Y-38.9119
G01 X60.0456 Y-38.9341
G01 X60.0341 Y-38.9456
G01 X60.0068 Y-38.9757
G01 X59.9965 Y-38.9882
G01 X59.9723 Y-39.0209
G01 X59.9633 Y-39.0344
G01 X59.9423 Y-39.0693
G01 X59.9347 Y-39.0836
G01 X59.9207 Y-39.1130
G01 X59.9141 Y-39.1278
G01 X59.9083 Y-39.1429
G01 X59.8950 Y-39.1814
G01 X59.8847 Y-39.2207
G01 X59.8811 Y-39.2365
G01 X59.8784 Y-39.2525
G01 X59.8728 Y-39.2928
G01 X59.8716 Y-39.3089
G01 X59.8700 Y-39.3496
G01 X59.8700 Y-40.4504
G01 X59.8716 Y-40.4911
G01 X59.8728 Y-40.5072
G01 X59.8742 Y-40.5189
G01 X59.8561 Y-40.5138
G01 X59.8361 Y-40.5089
G01 X59.8202 Y-40.5057
G01 X59.7999 Y-40.5026
G01 X59.7838 Y-40.5006
G01 X59.7676 Y-40.4994
G01 X59.7471 Y-40.4985
G01 X59.7279 Y-40.4986
G01 X59.7296 Y-40.4666
G01 X59.7300 Y-40.4504
G01 X59.7300 Y-39.3496
G01 X59.7284 Y-39.3089
G01 X59.7263 Y-39.2847
G01 X59.7203 Y-39.2445
G01 X59.7153 Y-39.2207
G01 X59.7073 Y-39.1891
G01 X59.7026 Y-39.1736
G01 X59.6889 Y-39.1353
G01 X59.6827 Y-39.1204
G01 X59.6688 Y-39.0908
G01 X59.6616 Y-39.0764
G01 X59.6536 Y-39.0623
G01 X59.6323 Y-39.0276
G01 X59.6084 Y-38.9947
G01 X59.5984 Y-38.9819
G01 X59.5714 Y-38.9515
G01 X59.5602 Y-38.9398
G01 X59.5304 Y-38.9121
G01 X59.5181 Y-38.9016
G01 X59.5053 Y-38.8916
G01 X59.4803 Y-38.8731
G01 X59.4803 Y-38.7268
G01 X59.5118 Y-38.7035
G01 X59.5304 Y-38.6879
G01 X59.5602 Y-38.6602
G01 X59.5879 Y-38.6304
G01 X59.6035 Y-38.6118
G01 X59.6277 Y-38.5791
G01 X59.6367 Y-38.5656
G01 X59.6577 Y-38.5307
G01 X59.6688 Y-38.5092
G01 X59.6859 Y-38.4722
G01 X59.6917 Y-38.4571
G01 X59.7050 Y-38.4186
G01 X59.7153 Y-38.3793
G01 X59.7189 Y-38.3635
G01 X59.7252 Y-38.3233
G01 X59.7279 Y-38.2991
G01 X59.7296 Y-38.2666
G01 X59.7300 Y-38.2504
G01 X59.7300 Y-37.1496
G01 X59.7284 Y-37.1089
G01 X59.7272 Y-37.0928
G01 X59.7216 Y-37.0525
G01 X59.7172 Y-37.0286
G01 X59.7073 Y-36.9891
G01 X59.7026 Y-36.9736
G01 X59.6889 Y-36.9353
G01 X59.6827 Y-36.9204
G01 X59.6653 Y-36.8836
G01 X59.6577 Y-36.8693
G01 X59.6367 Y-36.8344
G01 X59.6277 Y-36.8209
G01 X59.6035 Y-36.7882
G01 X59.5932 Y-36.7757
G01 X59.5659 Y-36.7456
G01 X59.5544 Y-36.7341
G01 X59.5243 Y-36.7068
G01 X59.5118 Y-36.6965
G01 X59.4803 Y-36.6731
G01 X59.4803 Y-36.5268
G01 X59.5118 Y-36.5035
G01 X59.5243 Y-36.4932
G01 X59.5544 Y-36.4659
G01 X59.5659 Y-36.4544
G01 X59.5932 Y-36.4243
G01 X59.6035 Y-36.4118
G01 X59.6277 Y-36.3791
G01 X59.6410 Y-36.3587
G01 X59.6577 Y-36.3307
G01 X59.6653 Y-36.3164
G01 X59.6827 Y-36.2796
G01 X59.6917 Y-36.2571
G01 X59.7050 Y-36.2186
G01 X59.7153 Y-36.1793
G01 X59.7203 Y-36.1555
G01 X59.7252 Y-36.1233
G01 X59.7279 Y-36.0991
G01 X59.7296 Y-36.0666
G01 X59.7300 Y-36.0504
G01 X59.7300 Y-34.9496
G01 X59.7296 Y-34.9334
G01 X59.7279 Y-34.9014
G00 Z0.7000
G00 X56.2501 Y-32.9500
G01 F30.00
G01 Z-0.0640
G01 F120.00
G01 X56.2501 Y-32.8491
G01 X56.4873 Y-32.8476
G01 X56.5490 Y-32.8537
G01 X56.5961 Y-32.8680
G01 X56.6395 Y-32.8912
G01 X56.6776 Y-32.9224
G01 X56.7088 Y-32.9605
G01 X56.7320 Y-33.0039
G01 X56.7463 Y-33.0510
G01 X56.7523 Y-33.1118
G01 X56.7518 Y-33.1499
G01 X56.5963 Y-33.1499
G01 X56.5827 Y-33.1276
G01 X56.5616 Y-33.0990
G01 X56.5545 Y-33.0905
G01 X56.5330 Y-33.0670
G01 X56.5095 Y-33.0455
G01 X56.4981 Y-33.0362
G01 X56.4724 Y-33.0173
G01 X56.4420 Y-32.9990
G01 X56.4322 Y-32.9939
G01 X56.4033 Y-32.9804
G01 X56.3734 Y-32.9695
G01 X56.3593 Y-32.9652
G01 X56.3284 Y-32.9577
G01 X56.2969 Y-32.9528
G01 X56.2822 Y-32.9514
G01 X56.2501 Y-32.9500
G00 Z0.7000
G00 X54.6482 Y-33.1499
G01 F30.00
G01 Z-0.0640
G01 F120.00
G01 X54.6477 Y-33.1118
G01 X54.6537 Y-33.0510
G01 X54.6680 Y-33.0039
G01 X54.6912 Y-32.9605
G01 X54.7224 Y-32.9224
G01 X54.7605 Y-32.8912
G01 X54.8039 Y-32.8680
G01 X54.8510 Y-32.8537
G01 X54.9127 Y-32.8476
G01 X55.1499 Y-32.8491
G01 X55.1499 Y-32.9500
G01 X55.1178 Y-32.9514
G01 X55.1031 Y-32.9528
G01 X55.0716 Y-32.9577
G01 X55.0407 Y-32.9652
G01 X55.0266 Y-32.9695
G01 X54.9967 Y-32.9804
G01 X54.9678 Y-32.9939
G01 X54.9580 Y-32.9990
G01 X54.9276 Y-33.0173
G01 X54.9019 Y-33.0362
G01 X54.8905 Y-33.0455
G01 X54.8670 Y-33.0670
G01 X54.8455 Y-33.0905
G01 X54.8384 Y-33.0990
G01 X54.8173 Y-33.1276
G01 X54.8037 Y-33.1499
G01 X54.6482 Y-33.1499
G00 Z0.7000
G00 X55.1014 Y-34.7721
G01 F30.00
G01 Z-0.0640
G01 F120.00
G01 X55.1015 Y-34.7529
G01 X55.1006 Y-34.7324
G01 X55.0994 Y-34.7162
G01 X55.0974 Y-34.7001
G01 X55.0943 Y-34.6798
G01 X55.0911 Y-34.6639
G01 X55.0862 Y-34.6439
G01 X55.0811 Y-34.6258
G01 X55.0928 Y-34.6272
G01 X55.1089 Y-34.6284
G01 X55.1496 Y-34.6300
G01 X56.2504 Y-34.6300
G01 X56.2911 Y-34.6284
G01 X56.3072 Y-34.6272
G01 X56.3189 Y-34.6258
G01 X56.3138 Y-34.6439
G01 X56.3089 Y-34.6639
G01 X56.3057 Y-34.6798
G01 X56.3026 Y-34.7001
G01 X56.3006 Y-34.7162
G01 X56.2994 Y-34.7324
G01 X56.2985 Y-34.7529
G01 X56.2986 Y-34.7721
G01 X56.2666 Y-34.7704
G01 X56.2504 Y-34.7700
G01 X55.1496 Y-34.7700
G01 X55.1334 Y-34.7704
G01 X55.1014 Y-34.7721
G00 Z0.7000
G00 X52.8501 Y-32.0494
G01 F30.00
G01 Z-0.0640
G01 F120.00
G01 X53.2370 Y-32.0476
G01 X53.2990 Y-32.0537
G01 X53.3461 Y-32.0680
G01 X53.3895 Y-32.0912
G01 X53.4276 Y-32.1224
G01 X53.4588 Y-32.1605
G01 X53.4820 Y-32.2039
G01 X53.4963 Y-32.2510
G01 X53.5025 Y-32.3133
G01 X53.5003 Y-33.1499
G01 X53.4000 Y-33.1499
G01 X53.4000 Y-32.6024
G01 X53.3981 Y-32.5617
G01 X53.3969 Y-32.5508
G01 X53.3913 Y-32.5141
G01 X53.3805 Y-32.4711
G01 X53.3656 Y-32.4293
G01 X53.3499 Y-32.3957
G01 X53.3430 Y-32.3827
G01 X53.3238 Y-32.3511
G01 X53.2973 Y-32.3154
G01 X53.2675 Y-32.2825
G01 X53.2402 Y-32.2575
G01 X53.2288 Y-32.2482
G01 X53.2050 Y-32.2305
G01 X53.1959 Y-32.2242
G01 X53.1609 Y-32.2034
G01 X53.1275 Y-32.1874
G01 X53.1139 Y-32.1818
G01 X53.0859 Y-32.1718
G01 X53.0754 Y-32.1685
G01 X53.0359 Y-32.1587
G01 X52.9956 Y-32.1526
G01 X52.9846 Y-32.1516
G01 X52.9513 Y-32.1500
G01 X52.8501 Y-32.1500
G01 X52.8501 Y-32.0494
G00 Z0.7000
G00 X50.7907 Y-32.5601
G01 F30.00
G01 Z-0.0640
G01 F120.00
G01 X50.8223 Y-32.5488
G01 X50.8204 Y-32.5862
G01 X50.8200 Y-32.6035
G01 X50.8074 Y-32.5833
G01 X50.7907 Y-32.5601
G00 Z0.7000
G00 X50.1927 Y-29.0925
G01 F30.00
G01 Z-0.0640
G01 F120.00
G01 X50.1873 Y-29.0925
G01 X50.1900 Y-29.0846
G01 X50.1924 Y-29.0915
G01 X50.1927 Y-29.0925
G00 Z0.7000
G00 X50.1873 Y-27.7875
G01 F30.00
G01 Z-0.0640
G01 F120.00
G01 X50.1927 Y-27.7875
G01 X50.1900 Y-27.7954
G01 X50.1876 Y-27.7885
G01 X50.1873 Y-27.7875
G00 Z0.7000
G00 X50.9497 Y-27.1605
G01 F30.00
G01 Z-0.0640
G01 F120.00
G01 X50.9245 Y-27.1725
G01 X50.9147 Y-27.1776
G01 X50.8242 Y-27.2318
G01 X50.8151 Y-27.2380
G01 X50.7333 Y-27.2987
G01 X50.7249 Y-27.3058
G01 X50.6468 Y-27.3768
G01 X50.5734 Y-27.4576
G01 X50.5665 Y-27.4663
G01 X50.5038 Y-27.5511
G01 X50.4458 Y-27.6479
G01 X50.3975 Y-27.7499
G01 X50.3595 Y-27.8562
G01 X50.3321 Y-27.9656
G01 X50.3164 Y-28.0700
G01 X50.3150 Y-28.0846
G01 X50.3100 Y-28.1900
G01 X50.3100 Y-28.6900
G01 X50.3155 Y-28.8027
G01 X50.3308 Y-28.9071
G01 X50.3337 Y-28.9215
G01 X50.3576 Y-29.0167
G01 X50.3606 Y-29.0273
G01 X50.3975 Y-29.1301
G01 X50.4458 Y-29.2321
G01 X50.5038 Y-29.3289
G01 X50.5710 Y-29.4196
G01 X50.6468 Y-29.5032
G01 X50.7304 Y-29.5790
G01 X50.8211 Y-29.6462
G01 X50.9179 Y-29.7042
G01 X51.0199 Y-29.7525
G01 X51.1262 Y-29.7905
G01 X51.2356 Y-29.8179
G01 X51.3473 Y-29.8345
G01 X51.4600 Y-29.8400
G01 X51.5727 Y-29.8345
G01 X51.6844 Y-29.8179
G01 X51.7867 Y-29.7924
G01 X51.7973 Y-29.7894
G01 X51.9001 Y-29.7525
G01 X51.9955 Y-29.7075
G01 X52.0085 Y-29.7006
G01 X52.0989 Y-29.6462
G01 X52.1837 Y-29.5835
G01 X52.1951 Y-29.5742
G01 X52.2732 Y-29.5032
G01 X52.3490 Y-29.4196
G01 X52.4120 Y-29.3349
G01 X52.4201 Y-29.3227
G01 X52.4742 Y-29.2321
G01 X52.5225 Y-29.1301
G01 X52.5605 Y-29.0238
G01 X52.5863 Y-28.9215
G01 X52.5892 Y-28.9071
G01 X52.6045 Y-28.8027
G01 X52.6100 Y-28.6900
G01 X52.6100 Y-28.1863
G01 X52.6045 Y-28.0773
G01 X52.5892 Y-27.9729
G01 X52.5863 Y-27.9585
G01 X52.5605 Y-27.8562
G01 X52.5251 Y-27.7568
G01 X52.5195 Y-27.7432
G01 X52.4775 Y-27.6545
G01 X52.4724 Y-27.6447
G01 X52.4162 Y-27.5511
G01 X52.3513 Y-27.4633
G01 X52.3442 Y-27.4549
G01 X52.2757 Y-27.3795
G01 X52.2678 Y-27.3718
G01 X52.2503 Y-27.3558
G01 X52.2503 Y-25.0142
G01 X52.2616 Y-25.0010
G01 X52.2806 Y-24.9754
G01 X52.2866 Y-24.9662
G01 X52.3010 Y-24.9420
G01 X52.3061 Y-24.9322
G01 X52.3196 Y-24.9033
G01 X52.3305 Y-24.8734
G01 X52.3338 Y-24.8629
G01 X52.3423 Y-24.8284
G01 X52.3472 Y-24.7969
G01 X52.3484 Y-24.7859
G01 X52.3500 Y-24.7504
G01 X52.3500 Y-24.6501
G01 X54.7453 Y-24.6502
G01 X54.7876 Y-24.7392
G01 X54.8507 Y-24.8445
G01 X54.9237 Y-24.9430
G01 X55.0061 Y-25.0339
G01 X55.0970 Y-25.1163
G01 X55.1955 Y-25.1893
G01 X55.3008 Y-25.2524
G01 X55.4049 Y-25.3019
G01 X55.4185 Y-25.3075
G01 X55.5202 Y-25.3439
G01 X55.5342 Y-25.3481
G01 X55.6461 Y-25.3760
G01 X55.7602 Y-25.3931
G01 X55.7748 Y-25.3945
G01 X55.8900 Y-25.4000
G01 X56.0125 Y-25.3940
G01 X56.1339 Y-25.3760
G01 X56.2458 Y-25.3481
G01 X56.2598 Y-25.3439
G01 X56.3684 Y-25.3048
G01 X56.4792 Y-25.2524
G01 X56.5845 Y-25.1893
G01 X56.6772 Y-25.1208
G01 X56.6886 Y-25.1115
G01 X56.7739 Y-25.0339
G01 X56.8515 Y-24.9486
G01 X56.8608 Y-24.9372
G01 X56.9251 Y-24.8505
G01 X56.9333 Y-24.8382
G01 X56.9924 Y-24.7392
G01 X57.0419 Y-24.6351
G01 X57.0475 Y-24.6215
G01 X57.0839 Y-24.5198
G01 X57.0881 Y-24.5058
G01 X57.1160 Y-24.3939
G01 X57.1331 Y-24.2798
G01 X57.1345 Y-24.2652
G01 X57.1400 Y-24.1500
G01 X57.1340 Y-24.0275
G01 X57.1160 Y-23.9061
G01 X57.0881 Y-23.7942
G01 X57.0839 Y-23.7802
G01 X57.0448 Y-23.6716
G01 X56.9957 Y-23.5673
G01 X56.9888 Y-23.5543
G01 X56.9313 Y-23.4586
G01 X56.9251 Y-23.4495
G01 X56.8563 Y-23.3570
G01 X56.7790 Y-23.2714
G01 X56.7686 Y-23.2610
G01 X56.6830 Y-23.1837
G01 X56.5905 Y-23.1149
G01 X56.5782 Y-23.1067
G01 X56.4792 Y-23.0476
G01 X56.3684 Y-22.9952
G01 X56.2598 Y-22.9561
G01 X56.2458 Y-22.9519
G01 X56.1339 Y-22.9240
G01 X56.0198 Y-22.9069
G01 X56.0052 Y-22.9055
G01 X55.8937 Y-22.9000
G01 X55.8826 Y-22.9002
G01 X55.7748 Y-22.9055
G01 X55.7602 Y-22.9069
G01 X55.6461 Y-22.9240
G01 X55.5271 Y-22.9538
G01 X55.4116 Y-22.9952
G01 X55.3073 Y-23.0443
G01 X55.2943 Y-23.0512
G01 X55.2018 Y-23.1067
G01 X55.1925 Y-23.1127
G01 X55.0970 Y-23.1837
G01 X55.0114 Y-23.2610
G01 X55.0010 Y-23.2714
G01 X54.9285 Y-23.3514
G01 X54.9214 Y-23.3599
G01 X54.8507 Y-23.4555
G01 X54.7876 Y-23.5608
G01 X54.7352 Y-23.6716
G01 X54.7070 Y-23.7499
G01 X52.3500 Y-23.7498
G01 X52.3498 Y-23.6422
G01 X52.3481 Y-23.6104
G01 X52.3430 Y-23.5753
G01 X52.3407 Y-23.5645
G01 X52.3348 Y-23.5407
G01 X52.3305 Y-23.5266
G01 X52.3222 Y-23.5035
G01 X52.3181 Y-23.4933
G01 X52.3061 Y-23.4678
G01 X52.3010 Y-23.4580
G01 X52.2827 Y-23.4276
G01 X52.2593 Y-23.3961
G01 X52.2330 Y-23.3670
G01 X52.2039 Y-23.3407
G01 X52.1724 Y-23.3173
G01 X52.1388 Y-23.2972
G01 X52.1033 Y-23.2804
G01 X52.0699 Y-23.2683
G01 X52.0593 Y-23.2652
G01 X52.0355 Y-23.2593
G01 X52.0211 Y-23.2564
G01 X51.9896 Y-23.2519
G01 X51.9541 Y-23.2500
G01 X51.2422 Y-23.2502
G01 X51.2104 Y-23.2519
G01 X51.1789 Y-23.2564
G01 X51.1645 Y-23.2593
G01 X51.1336 Y-23.2672
G01 X51.1035 Y-23.2778
G01 X51.0899 Y-23.2834
G01 X51.0612 Y-23.2972
G01 X51.0307 Y-23.3153
G01 X51.0216 Y-23.3216
G01 X50.9961 Y-23.3407
G01 X50.9724 Y-23.3620
G01 X50.9620 Y-23.3724
G01 X50.9407 Y-23.3961
G01 X50.9216 Y-23.4216
G01 X50.9134 Y-23.4338
G01 X50.8972 Y-23.4612
G01 X50.8804 Y-23.4967
G01 X50.8695 Y-23.5266
G01 X50.8652 Y-23.5407
G01 X50.8577 Y-23.5716
G01 X50.8528 Y-23.6031
G01 X50.8516 Y-23.6141
G01 X50.8500 Y-23.6459
G01 X50.8500 Y-24.7504
G01 X50.8516 Y-24.7859
G01 X50.8528 Y-24.7969
G01 X50.8564 Y-24.8211
G01 X50.8593 Y-24.8355
G01 X50.8652 Y-24.8593
G01 X50.8683 Y-24.8699
G01 X50.8778 Y-24.8965
G01 X50.8819 Y-24.9067
G01 X50.8972 Y-24.9388
G01 X50.9153 Y-24.9693
G01 X50.9216 Y-24.9784
G01 X50.9384 Y-25.0010
G01 X50.9497 Y-25.0142
G01 X50.9497 Y-27.1605
G00 Z0.7000
G00 X52.7300 Y-27.7954
G01 F30.00
G01 Z-0.0640
G01 F120.00
G01 X52.6946 Y-27.6961
G01 X52.6888 Y-27.6810
G01 X52.6822 Y-27.6662
G01 X52.6402 Y-27.5775
G01 X52.6330 Y-27.5630
G01 X52.6250 Y-27.5489
G01 X52.5745 Y-27.4648
G01 X52.5659 Y-27.4511
G01 X52.5565 Y-27.4378
G01 X52.4981 Y-27.3590
G01 X52.4881 Y-27.3463
G01 X52.4775 Y-27.3340
G01 X52.4303 Y-27.2818
G01 X52.4303 Y-25.0754
G01 X52.4410 Y-25.0587
G01 X52.4616 Y-25.0236
G01 X52.4793 Y-24.9870
G01 X52.4889 Y-24.9647
G01 X52.5026 Y-24.9264
G01 X52.5094 Y-24.9030
G01 X52.5189 Y-24.8635
G01 X52.5242 Y-24.8301
G01 X54.6322 Y-24.8302
G01 X54.6923 Y-24.9308
G01 X54.7010 Y-24.9445
G01 X54.7103 Y-24.9577
G01 X54.7746 Y-25.0444
G01 X54.7846 Y-25.0572
G01 X54.7952 Y-25.0694
G01 X54.8677 Y-25.1494
G01 X54.8788 Y-25.1612
G01 X54.8906 Y-25.1723
G01 X54.9706 Y-25.2448
G01 X54.9828 Y-25.2554
G01 X54.9956 Y-25.2654
G01 X55.0823 Y-25.3297
G01 X55.0955 Y-25.3390
G01 X55.1092 Y-25.3477
G01 X55.2018 Y-25.4032
G01 X55.2159 Y-25.4111
G01 X55.2304 Y-25.4184
G01 X55.3280 Y-25.4646
G01 X55.3428 Y-25.4711
G01 X55.3579 Y-25.4770
G01 X55.4595 Y-25.5133
G01 X55.4749 Y-25.5184
G01 X55.4905 Y-25.5227
G01 X55.5952 Y-25.5490
G01 X55.6110 Y-25.5525
G01 X55.6270 Y-25.5553
G01 X55.7338 Y-25.5711
G01 X55.7498 Y-25.5731
G01 X55.7660 Y-25.5743
G01 X55.8738 Y-25.5796
G01 X55.8900 Y-25.5800
G01 X55.9062 Y-25.5796
G01 X56.0140 Y-25.5743
G01 X56.0302 Y-25.5731
G01 X56.0462 Y-25.5711
G01 X56.1639 Y-25.5535
G01 X56.0237 Y-25.6937
G01 X56.0125 Y-25.7054
G01 X55.9861 Y-25.7345
G01 X55.9755 Y-25.7468
G01 X55.9656 Y-25.7595
G01 X55.9422 Y-25.7911
G01 X55.9329 Y-25.8043
G01 X55.9242 Y-25.8180
G01 X55.9040 Y-25.8517
G01 X55.8960 Y-25.8658
G01 X55.8887 Y-25.8803
G01 X55.8719 Y-25.9158
G01 X55.8654 Y-25.9306
G01 X55.8596 Y-25.9457
G01 X55.8463 Y-25.9827
G01 X55.8412 Y-25.9980
G01 X55.8369 Y-26.0136
G01 X55.8255 Y-26.0596
G01 X55.8211 Y-26.0835
G01 X55.8153 Y-26.1224
G01 X55.8133 Y-26.1384
G01 X55.8121 Y-26.1546
G01 X55.8099 Y-26.2019
G01 X55.8098 Y-27.0785
G01 X55.8011 Y-27.0841
G01 X55.7878 Y-27.0935
G01 X55.7090 Y-27.1519
G01 X55.6963 Y-27.1619
G01 X55.6840 Y-27.1725
G01 X55.6113 Y-27.2384
G01 X55.5995 Y-27.2495
G01 X55.5884 Y-27.2613
G01 X55.5225 Y-27.3340
G01 X55.5119 Y-27.3463
G01 X55.5019 Y-27.3590
G01 X55.4435 Y-27.4378
G01 X55.4341 Y-27.4511
G01 X55.4255 Y-27.4648
G01 X55.3750 Y-27.5489
G01 X55.3670 Y-27.5630
G01 X55.3598 Y-27.5775
G01 X55.3178 Y-27.6662
G01 X55.3112 Y-27.6810
G01 X55.3054 Y-27.6961
G01 X55.2700 Y-27.7954
G01 X55.2346 Y-27.6961
G01 X55.2288 Y-27.6810
G01 X55.2222 Y-27.6662
G01 X55.1802 Y-27.5775
G01 X55.1730 Y-27.5630
G01 X55.1650 Y-27.5489
G01 X55.1145 Y-27.4648
G01 X55.1059 Y-27.4511
G01 X55.0965 Y-27.4378
G01 X55.0381 Y-27.3590
G01 X55.0281 Y-27.3463
G01 X55.0175 Y-27.3340
G01 X54.9516 Y-27.2613
G01 X54.9405 Y-27.2495
G01 X54.9287 Y-27.2384
G01 X54.8560 Y-27.1725
G01 X54.8437 Y-27.1619
G01 X54.8310 Y-27.1519
G01 X54.7522 Y-27.0935
G01 X54.7389 Y-27.0841
G01 X54.7252 Y-27.0755
G01 X54.6411 Y-27.0250
G01 X54.6270 Y-27.0170
G01 X54.6125 Y-27.0098
G01 X54.5238 Y-26.9678
G01 X54.5090 Y-26.9612
G01 X54.4939 Y-26.9554
G01 X54.4015 Y-26.9224
G01 X54.3861 Y-26.9173
G01 X54.3705 Y-26.9129
G01 X54.2753 Y-26.8891
G01 X54.2595 Y-26.8856
G01 X54.2435 Y-26.8828
G01 X54.1464 Y-26.8684
G01 X54.1304 Y-26.8664
G01 X54.1142 Y-26.8652
G01 X54.0162 Y-26.8604
G01 X54.0000 Y-26.8600
G01 X53.9838 Y-26.8604
G01 X53.8858 Y-26.8652
G01 X53.8696 Y-26.8664
G01 X53.8536 Y-26.8684
G01 X53.7565 Y-26.8828
G01 X53.7405 Y-26.8856
G01 X53.7247 Y-26.8891
G01 X53.6295 Y-26.9129
G01 X53.6139 Y-26.9173
G01 X53.5985 Y-26.9224
G01 X53.5061 Y-26.9554
G01 X53.4910 Y-26.9612
G01 X53.4762 Y-26.9678
G01 X53.3875 Y-27.0098
G01 X53.3730 Y-27.0170
G01 X53.3589 Y-27.0250
G01 X53.2748 Y-27.0755
G01 X53.2611 Y-27.0841
G01 X53.2478 Y-27.0935
G01 X53.1690 Y-27.1519
G01 X53.1563 Y-27.1619
G01 X53.1440 Y-27.1725
G01 X53.0713 Y-27.2384
G01 X53.0595 Y-27.2495
G01 X53.0484 Y-27.2613
G01 X52.9825 Y-27.3340
G01 X52.9719 Y-27.3463
G01 X52.9619 Y-27.3590
G01 X52.9035 Y-27.4378
G01 X52.8941 Y-27.4511
G01 X52.8855 Y-27.4648
G01 X52.8350 Y-27.5489
G01 X52.8270 Y-27.5630
G01 X52.8198 Y-27.5775
G01 X52.7778 Y-27.6662
G01 X52.7712 Y-27.6810
G01 X52.7654 Y-27.6961
G01 X52.7300 Y-27.7954
G00 Z0.7000
G00 X52.7327 Y-29.0925
G01 F30.00
G01 Z-0.0640
G01 F120.00
G01 X52.7273 Y-29.0925
G01 X52.7300 Y-29.0846
G01 X52.7324 Y-29.0915
G01 X52.7327 Y-29.0925
G00 Z0.7000
G00 X54.0074 Y-29.8398
G01 F30.00
G01 Z-0.0640
G01 F120.00
G01 X54.1054 Y-29.8350
G01 X54.1200 Y-29.8336
G01 X54.2244 Y-29.8179
G01 X54.3267 Y-29.7924
G01 X54.3408 Y-29.7882
G01 X54.4401 Y-29.7525
G01 X54.5421 Y-29.7042
G01 X54.6389 Y-29.6462
G01 X54.7237 Y-29.5835
G01 X54.7351 Y-29.5742
G01 X54.8132 Y-29.5032
G01 X54.8842 Y-29.4251
G01 X54.8935 Y-29.4137
G01 X54.9541 Y-29.3319
G01 X54.9601 Y-29.3227
G01 X55.0142 Y-29.2321
G01 X55.0625 Y-29.1301
G01 X55.1005 Y-29.0238
G01 X55.1263 Y-28.9215
G01 X55.1286 Y-28.9107
G01 X55.1445 Y-28.8027
G01 X55.1500 Y-28.6937
G01 X55.1500 Y-28.1900
G01 X55.1445 Y-28.0773
G01 X55.1279 Y-27.9656
G01 X55.1005 Y-27.8562
G01 X55.0625 Y-27.7499
G01 X55.0142 Y-27.6479
G01 X54.9562 Y-27.5511
G01 X54.8890 Y-27.4604
G01 X54.8132 Y-27.3768
G01 X54.7296 Y-27.3010
G01 X54.6389 Y-27.2338
G01 X54.5421 Y-27.1758
G01 X54.4401 Y-27.1275
G01 X54.3338 Y-27.0895
G01 X54.2244 Y-27.0621
G01 X54.1127 Y-27.0455
G01 X54.0000 Y-27.0400
G01 X53.8946 Y-27.0450
G01 X53.8800 Y-27.0464
G01 X53.7756 Y-27.0621
G01 X53.6733 Y-27.0876
G01 X53.6592 Y-27.0918
G01 X53.5599 Y-27.1275
G01 X53.4579 Y-27.1758
G01 X53.3611 Y-27.2338
G01 X53.2763 Y-27.2965
G01 X53.2649 Y-27.3058
G01 X53.1868 Y-27.3768
G01 X53.1158 Y-27.4549
G01 X53.1065 Y-27.4663
G01 X53.0459 Y-27.5481
G01 X53.0399 Y-27.5573
G01 X52.9858 Y-27.6479
G01 X52.9375 Y-27.7499
G01 X52.8995 Y-27.8562
G01 X52.8737 Y-27.9585
G01 X52.8714 Y-27.9693
G01 X52.8555 Y-28.0773
G01 X52.8500 Y-28.1863
G01 X52.8500 Y-28.6900
G01 X52.8555 Y-28.8027
G01 X52.8721 Y-28.9144
G01 X52.8995 Y-29.0238
G01 X52.9375 Y-29.1301
G01 X52.9858 Y-29.2321
G01 X53.0438 Y-29.3289
G01 X53.1110 Y-29.4196
G01 X53.1868 Y-29.5032
G01 X53.2704 Y-29.5790
G01 X53.3611 Y-29.6462
G01 X53.4579 Y-29.7042
G01 X53.5599 Y-29.7525
G01 X53.6662 Y-29.7905
G01 X53.7756 Y-29.8179
G01 X53.8873 Y-29.8345
G01 X53.9926 Y-29.8398
G01 X54.0074 Y-29.8398
G00 Z0.7000
G00 X55.2700 Y-29.0846
G01 F30.00
G01 Z-0.0640
G01 F120.00
G01 X55.2724 Y-29.0915
G01 X55.2727 Y-29.0925
G01 X55.2673 Y-29.0925
G01 X55.2700 Y-29.0846
G00 Z0.7000
G00 X55.9898 Y-27.1804
G01 F30.00
G01 Z-0.0640
G01 F120.00
G01 X55.9011 Y-27.2338
G01 X55.8104 Y-27.3010
G01 X55.7268 Y-27.3768
G01 X55.6510 Y-27.4604
G01 X55.5838 Y-27.5511
G01 X55.5258 Y-27.6479
G01 X55.4775 Y-27.7499
G01 X55.4418 Y-27.8492
G01 X55.4385 Y-27.8597
G01 X55.4121 Y-27.9656
G01 X55.3964 Y-28.0700
G01 X55.3950 Y-28.0846
G01 X55.3900 Y-28.1900
G01 X55.3900 Y-28.6937
G01 X55.3955 Y-28.8027
G01 X55.4121 Y-28.9144
G01 X55.4395 Y-29.0238
G01 X55.4762 Y-29.1267
G01 X55.4805 Y-29.1368
G01 X55.5258 Y-29.2321
G01 X55.5838 Y-29.3289
G01 X55.6510 Y-29.4196
G01 X55.7268 Y-29.5032
G01 X55.8104 Y-29.5790
G01 X55.9011 Y-29.6462
G01 X55.9979 Y-29.7042
G01 X56.0999 Y-29.7525
G01 X56.2062 Y-29.7905
G01 X56.3156 Y-29.8179
G01 X56.4273 Y-29.8345
G01 X56.5400 Y-29.8400
G01 X56.6527 Y-29.8345
G01 X56.7644 Y-29.8179
G01 X56.8738 Y-29.7905
G01 X56.9767 Y-29.7538
G01 X56.9868 Y-29.7495
G01 X57.0755 Y-29.7075
G01 X57.0885 Y-29.7006
G01 X57.1789 Y-29.6462
G01 X57.2696 Y-29.5790
G01 X57.3532 Y-29.5032
G01 X57.4242 Y-29.4251
G01 X57.4335 Y-29.4137
G01 X57.4962 Y-29.3289
G01 X57.5542 Y-29.2321
G01 X57.5995 Y-29.1368
G01 X57.6051 Y-29.1232
G01 X57.6405 Y-29.0238
G01 X57.6663 Y-28.9215
G01 X57.6692 Y-28.9071
G01 X57.6845 Y-28.8027
G01 X57.6900 Y-28.6937
G01 X57.6900 Y-28.1900
G01 X57.6845 Y-28.0773
G01 X57.6692 Y-27.9729
G01 X57.6663 Y-27.9585
G01 X57.6405 Y-27.8562
G01 X57.6038 Y-27.7533
G01 X57.5995 Y-27.7432
G01 X57.5542 Y-27.6479
G01 X57.5001 Y-27.5573
G01 X57.4920 Y-27.5451
G01 X57.4335 Y-27.4663
G01 X57.4242 Y-27.4549
G01 X57.3532 Y-27.3768
G01 X57.2696 Y-27.3010
G01 X57.1789 Y-27.2338
G01 X57.0902 Y-27.1804
G01 X57.0902 Y-26.4379
G01 X60.9390 Y-22.5891
G01 X60.9753 Y-22.5491
G01 X61.0032 Y-22.5117
G01 X61.0095 Y-22.5026
G01 X61.0316 Y-22.4658
G01 X61.0385 Y-22.4528
G01 X61.0583 Y-22.4106
G01 X61.0754 Y-22.3632
G01 X61.0785 Y-22.3526
G01 X61.0889 Y-22.3110
G01 X61.0903 Y-22.3037
G01 X61.0938 Y-22.2801
G01 X61.1053 Y-22.2558
G01 X61.1097 Y-22.2457
G01 X61.1242 Y-22.2052
G01 X61.1285 Y-22.1911
G01 X61.1380 Y-22.1531
G01 X61.1403 Y-22.1422
G01 X61.1466 Y-22.0998
G01 X61.1481 Y-22.0851
G01 X61.1502 Y-22.0385
G01 X61.1502 Y-20.0279
G01 X61.2000 Y-19.9781
G01 X61.2000 Y-20.5487
G01 X61.2020 Y-20.5847
G01 X61.2065 Y-20.6168
G01 X61.2094 Y-20.6312
G01 X61.2174 Y-20.6626
G01 X61.2308 Y-20.7000
G01 X61.2478 Y-20.7359
G01 X61.2683 Y-20.7700
G01 X61.2919 Y-20.8019
G01 X61.3186 Y-20.8314
G01 X61.3481 Y-20.8581
G01 X61.3800 Y-20.8817
G01 X61.4077 Y-20.8985
G01 X61.4174 Y-20.9039
G01 X61.4466 Y-20.9177
G01 X61.4569 Y-20.9218
G01 X61.4874 Y-20.9326
G01 X61.5188 Y-20.9406
G01 X61.5332 Y-20.9435
G01 X61.5653 Y-20.9480
G01 X61.6050 Y-20.9500
G01 X62.7987 Y-20.9500
G01 X62.8347 Y-20.9480
G01 X62.8740 Y-20.9422
G01 X62.9126 Y-20.9326
G01 X62.9431 Y-20.9218
G01 X62.9534 Y-20.9177
G01 X62.9826 Y-20.9039
G01 X62.9923 Y-20.8985
G01 X63.0200 Y-20.8817
G01 X63.0491 Y-20.8604
G01 X63.0575 Y-20.8533
G01 X63.0814 Y-20.8314
G01 X63.1033 Y-20.8075
G01 X63.1126 Y-20.7961
G01 X63.1317 Y-20.7700
G01 X63.1485 Y-20.7423
G01 X63.1555 Y-20.7293
G01 X63.1692 Y-20.7000
G01 X63.1803 Y-20.6696
G01 X63.1845 Y-20.6555
G01 X63.1922 Y-20.6240
G01 X63.1971 Y-20.5920
G01 X63.1986 Y-20.5774
G01 X63.2000 Y-20.5450
G01 X63.2000 Y-19.1366
G01 X63.2865 Y-19.0501
G01 X64.0630 Y-19.0502
G01 X64.0683 Y-19.0699
G01 X64.0791 Y-19.0999
G01 X64.0834 Y-19.1101
G01 X64.0939 Y-19.1322
G01 X64.0990 Y-19.1420
G01 X64.1173 Y-19.1724
G01 X64.1362 Y-19.1981
G01 X64.1455 Y-19.2095
G01 X64.1620 Y-19.2276
G01 X64.1697 Y-19.2355
G01 X64.1961 Y-19.2593
G01 X64.2216 Y-19.2784
G01 X64.2338 Y-19.2866
G01 X64.2612 Y-19.3028
G01 X64.2967 Y-19.3196
G01 X64.3266 Y-19.3305
G01 X64.3407 Y-19.3348
G01 X64.3645 Y-19.3407
G01 X64.3753 Y-19.3430
G01 X64.4104 Y-19.3481
G01 X64.4496 Y-19.3500
G01 X65.5541 Y-19.3500
G01 X65.5896 Y-19.3481
G01 X65.6284 Y-19.3423
G01 X65.6664 Y-19.3328
G01 X65.6965 Y-19.3222
G01 X65.7067 Y-19.3181
G01 X65.7388 Y-19.3028
G01 X65.7662 Y-19.2866
G01 X65.7784 Y-19.2784
G01 X65.8039 Y-19.2593
G01 X65.8276 Y-19.2380
G01 X65.8380 Y-19.2276
G01 X65.8593 Y-19.2039
G01 X65.8784 Y-19.1784
G01 X65.8866 Y-19.1662
G01 X65.9028 Y-19.1388
G01 X65.9166 Y-19.1101
G01 X65.9222 Y-19.0965
G01 X65.9328 Y-19.0664
G01 X65.9407 Y-19.0355
G01 X65.9436 Y-19.0211
G01 X65.9481 Y-18.9896
G01 X65.9500 Y-18.9504
G01 X65.9500 Y-18.2496
G01 X65.9481 Y-18.2104
G01 X65.9423 Y-18.1716
G01 X65.9348 Y-18.1407
G01 X65.9305 Y-18.1266
G01 X65.9209 Y-18.1001
G01 X65.9166 Y-18.0899
G01 X65.9028 Y-18.0612
G01 X65.8827 Y-18.0276
G01 X65.8593 Y-17.9961
G01 X65.8355 Y-17.9697
G01 X65.8276 Y-17.9620
G01 X65.8067 Y-17.9431
G01 X65.7981 Y-17.9362
G01 X65.7784 Y-17.9216
G01 X65.7693 Y-17.9153
G01 X65.7452 Y-17.9008
G01 X65.7322 Y-17.8939
G01 X65.7101 Y-17.8834
G01 X65.6999 Y-17.8791
G01 X65.6734 Y-17.8695
G01 X65.6629 Y-17.8662
G01 X65.6284 Y-17.8577
G01 X65.5969 Y-17.8528
G01 X65.5859 Y-17.8516
G01 X65.5504 Y-17.8500
G01 X64.4459 Y-17.8500
G01 X64.4104 Y-17.8519
G01 X64.3753 Y-17.8570
G01 X64.3645 Y-17.8593
G01 X64.3407 Y-17.8652
G01 X64.3266 Y-17.8695
G01 X64.2967 Y-17.8804
G01 X64.2612 Y-17.8972
G01 X64.2276 Y-17.9173
G01 X64.1990 Y-17.9384
G01 X64.1905 Y-17.9455
G01 X64.1724 Y-17.9620
G01 X64.1620 Y-17.9724
G01 X64.1455 Y-17.9905
G01 X64.1384 Y-17.9990
G01 X64.1216 Y-18.0216
G01 X64.1153 Y-18.0307
G01 X64.0972 Y-18.0612
G01 X64.0819 Y-18.0933
G01 X64.0778 Y-18.1035
G01 X64.0683 Y-18.1301
G01 X64.0630 Y-18.1499
G01 X63.1000 Y-18.1499
G01 X63.0628 Y-18.1515
G01 X63.0491 Y-18.1396
G01 X63.0260 Y-18.1225
G01 X63.0169 Y-18.1162
G01 X62.9859 Y-18.0978
G01 X62.9567 Y-18.0838
G01 X62.9466 Y-18.0795
G01 X62.9126 Y-18.0674
G01 X62.8740 Y-18.0578
G01 X62.8347 Y-18.0520
G01 X62.8024 Y-18.0502
G01 X61.6050 Y-18.0500
G01 X61.5676 Y-18.0517
G01 X61.5340 Y-18.0563
G01 X61.5238 Y-18.0583
G01 X61.4975 Y-18.0646
G01 X61.4652 Y-18.0750
G01 X61.4555 Y-18.0786
G01 X61.4307 Y-18.0895
G01 X61.4183 Y-18.0957
G01 X61.3918 Y-18.1107
G01 X61.3609 Y-18.1318
G01 X61.3322 Y-18.1557
G01 X61.3081 Y-18.1796
G01 X61.3012 Y-18.1874
G01 X61.2818 Y-18.2109
G01 X61.2607 Y-18.2418
G01 X61.2425 Y-18.2745
G01 X61.2300 Y-18.3023
G01 X61.2261 Y-18.3119
G01 X61.2175 Y-18.3375
G01 X61.2146 Y-18.3475
G01 X61.2076 Y-18.3772
G01 X61.2058 Y-18.3874
G01 X61.2021 Y-18.4142
G01 X61.2012 Y-18.4245
G01 X61.2000 Y-18.4515
G01 X61.2000 Y-18.4877
G01 X61.1894 Y-18.4917
G01 X61.1827 Y-18.4947
G01 X61.1472 Y-18.5115
G01 X61.1374 Y-18.5165
G01 X61.0943 Y-18.5425
G01 X61.0538 Y-18.5724
G01 X61.0454 Y-18.5795
G01 X61.0109 Y-18.6109
G01 X60.8720 Y-18.7499
G01 X59.1500 Y-18.7498
G01 X59.1498 Y-18.6422
G01 X59.1486 Y-18.6178
G01 X59.1477 Y-18.6068
G01 X59.1436 Y-18.5789
G01 X59.1416 Y-18.5680
G01 X59.1328 Y-18.5336
G01 X59.1196 Y-18.4967
G01 X59.1028 Y-18.4612
G01 X59.0866 Y-18.4338
G01 X59.0806 Y-18.4246
G01 X59.0638 Y-18.4019
G01 X59.0569 Y-18.3933
G01 X59.0355 Y-18.3697
G01 X59.0276 Y-18.3620
G01 X59.0067 Y-18.3431
G01 X58.9981 Y-18.3362
G01 X58.9724 Y-18.3173
G01 X58.9452 Y-18.3008
G01 X58.9355 Y-18.2955
G01 X58.9067 Y-18.2819
G01 X58.8965 Y-18.2778
G01 X58.8699 Y-18.2683
G01 X58.8593 Y-18.2652
G01 X58.8284 Y-18.2577
G01 X58.7932 Y-18.2523
G01 X58.7822 Y-18.2514
G01 X58.7504 Y-18.2500
G01 X58.0496 Y-18.2500
G01 X58.0104 Y-18.2519
G01 X57.9716 Y-18.2577
G01 X57.9407 Y-18.2652
G01 X57.9266 Y-18.2695
G01 X57.9001 Y-18.2791
G01 X57.8899 Y-18.2834
G01 X57.8612 Y-18.2972
G01 X57.8276 Y-18.3173
G01 X57.7961 Y-18.3407
G01 X57.7697 Y-18.3645
G01 X57.7620 Y-18.3724
G01 X57.7431 Y-18.3933
G01 X57.7362 Y-18.4019
G01 X57.7216 Y-18.4216
G01 X57.7153 Y-18.4307
G01 X57.7008 Y-18.4548
G01 X57.6939 Y-18.4678
G01 X57.6834 Y-18.4899
G01 X57.6791 Y-18.5001
G01 X57.6695 Y-18.5266
G01 X57.6662 Y-18.5371
G01 X57.6577 Y-18.5716
G01 X57.6528 Y-18.6031
G01 X57.6516 Y-18.6141
G01 X57.6500 Y-18.6496
G01 X57.6500 Y-19.7504
G01 X57.6514 Y-19.7822
G01 X57.6528 Y-19.7969
G01 X57.6577 Y-19.8284
G01 X57.6652 Y-19.8593
G01 X57.6683 Y-19.8699
G01 X57.6804 Y-19.9033
G01 X57.6939 Y-19.9322
G01 X57.6990 Y-19.9420
G01 X57.7153 Y-19.9693
G01 X57.7216 Y-19.9784
G01 X57.7407 Y-20.0039
G01 X57.7620 Y-20.0276
G01 X57.7724 Y-20.0380
G01 X57.7961 Y-20.0593
G01 X57.8216 Y-20.0784
G01 X57.8307 Y-20.0847
G01 X57.8580 Y-20.1010
G01 X57.8678 Y-20.1061
G01 X57.8967 Y-20.1196
G01 X57.9266 Y-20.1305
G01 X57.9371 Y-20.1338
G01 X57.9680 Y-20.1416
G01 X57.9789 Y-20.1436
G01 X58.0104 Y-20.1481
G01 X58.0422 Y-20.1498
G01 X58.7504 Y-20.1500
G01 X58.7896 Y-20.1481
G01 X58.8284 Y-20.1423
G01 X58.8664 Y-20.1328
G01 X58.9033 Y-20.1196
G01 X58.9388 Y-20.1028
G01 X58.9724 Y-20.0827
G01 X59.0039 Y-20.0593
G01 X59.0330 Y-20.0330
G01 X59.0593 Y-20.0039
G01 X59.0827 Y-19.9724
G01 X59.1028 Y-19.9388
G01 X59.1196 Y-19.9033
G01 X59.1328 Y-19.8664
G01 X59.1423 Y-19.8284
G01 X59.1481 Y-19.7896
G01 X59.1498 Y-19.7578
G01 X59.1500 Y-19.6501
G01 X60.0708 Y-19.6502
G01 X60.0604 Y-19.6927
G01 X60.0534 Y-19.7388
G01 X60.0519 Y-19.7534
G01 X60.0498 Y-19.8000
G01 X60.0498 Y-21.8604
G01 X60.0403 Y-21.8814
G01 X60.0258 Y-21.9218
G01 X60.0225 Y-21.9324
G01 X60.0167 Y-21.9552
G01 X56.1509 Y-25.8209
G01 X56.1195 Y-25.8554
G01 X56.1124 Y-25.8638
G01 X56.0825 Y-25.9043
G01 X56.0584 Y-25.9442
G01 X56.0515 Y-25.9572
G01 X56.0317 Y-25.9994
G01 X56.0158 Y-26.0433
G01 X56.0115 Y-26.0574
G01 X56.0004 Y-26.1027
G01 X55.9924 Y-26.1561
G01 X55.9898 Y-26.2100
G01 X55.9898 Y-27.1804
G00 Z0.7000
G00 X57.8100 Y-27.7954
G01 F30.00
G01 Z-0.0640
G01 F120.00
G01 X57.8076 Y-27.7885
G01 X57.8073 Y-27.7875
G01 X57.8127 Y-27.7875
G01 X57.8100 Y-27.7954
G00 Z0.7000
G00 X57.8127 Y-29.0925
G01 F30.00
G01 Z-0.0640
G01 F120.00
G01 X57.8073 Y-29.0925
G01 X57.8100 Y-29.0846
G01 X57.8124 Y-29.0915
G01 X57.8127 Y-29.0925
G00 Z0.7000
G00 X59.0874 Y-29.8398
G01 F30.00
G01 Z-0.0640
G01 F120.00
G01 X59.1854 Y-29.8350
G01 X59.2000 Y-29.8336
G01 X59.3044 Y-29.8179
G01 X59.4067 Y-29.7924
G01 X59.4208 Y-29.7882
G01 X59.5201 Y-29.7525
G01 X59.6221 Y-29.7042
G01 X59.7189 Y-29.6462
G01 X59.8037 Y-29.5835
G01 X59.8151 Y-29.5742
G01 X59.8932 Y-29.5032
G01 X59.9642 Y-29.4251
G01 X59.9735 Y-29.4137
G01 X60.0341 Y-29.3319
G01 X60.0401 Y-29.3227
G01 X60.0942 Y-29.2321
G01 X60.1425 Y-29.1301
G01 X60.1805 Y-29.0238
G01 X60.2063 Y-28.9215
G01 X60.2086 Y-28.9107
G01 X60.2245 Y-28.8027
G01 X60.2300 Y-28.6937
G01 X60.2300 Y-28.1900
G01 X60.2245 Y-28.0773
G01 X60.2079 Y-27.9656
G01 X60.1805 Y-27.8562
G01 X60.1425 Y-27.7499
G01 X60.0942 Y-27.6479
G01 X60.0362 Y-27.5511
G01 X59.9690 Y-27.4604
G01 X59.8932 Y-27.3768
G01 X59.8096 Y-27.3010
G01 X59.7189 Y-27.2338
G01 X59.6221 Y-27.1758
G01 X59.5201 Y-27.1275
G01 X59.4138 Y-27.0895
G01 X59.3044 Y-27.0621
G01 X59.1927 Y-27.0455
G01 X59.0800 Y-27.0400
G01 X58.9746 Y-27.0450
G01 X58.9600 Y-27.0464
G01 X58.8556 Y-27.0621
G01 X58.7533 Y-27.0876
G01 X58.7392 Y-27.0918
G01 X58.6399 Y-27.1275
G01 X58.5379 Y-27.1758
G01 X58.4411 Y-27.2338
G01 X58.3563 Y-27.2965
G01 X58.3449 Y-27.3058
G01 X58.2668 Y-27.3768
G01 X58.1958 Y-27.4549
G01 X58.1865 Y-27.4663
G01 X58.1259 Y-27.5481
G01 X58.1199 Y-27.5573
G01 X58.0658 Y-27.6479
G01 X58.0175 Y-27.7499
G01 X57.9795 Y-27.8562
G01 X57.9537 Y-27.9585
G01 X57.9514 Y-27.9693
G01 X57.9355 Y-28.0773
G01 X57.9300 Y-28.1863
G01 X57.9300 Y-28.6900
G01 X57.9355 Y-28.8027
G01 X57.9521 Y-28.9144
G01 X57.9795 Y-29.0238
G01 X58.0175 Y-29.1301
G01 X58.0658 Y-29.2321
G01 X58.1238 Y-29.3289
G01 X58.1910 Y-29.4196
G01 X58.2668 Y-29.5032
G01 X58.3504 Y-29.5790
G01 X58.4411 Y-29.6462
G01 X58.5379 Y-29.7042
G01 X58.6399 Y-29.7525
G01 X58.7462 Y-29.7905
G01 X58.8556 Y-29.8179
G01 X58.9673 Y-29.8345
G01 X59.0726 Y-29.8398
G01 X59.0874 Y-29.8398
G00 Z0.7000
G00 X60.3527 Y-29.0925
G01 F30.00
G01 Z-0.0640
G01 F120.00
G01 X60.3473 Y-29.0925
G01 X60.3500 Y-29.0846
G01 X60.3524 Y-29.0915
G01 X60.3527 Y-29.0925
G00 Z0.7000
G00 X60.3473 Y-27.7875
G01 F30.00
G01 Z-0.0640
G01 F120.00
G01 X60.3527 Y-27.7875
G01 X60.3500 Y-27.7954
G01 X60.3476 Y-27.7885
G01 X60.3473 Y-27.7875
G00 Z0.7000
G00 X61.6274 Y-29.8398
G01 F30.00
G01 Z-0.0640
G01 F120.00
G01 X61.7254 Y-29.8350
G01 X61.7400 Y-29.8336
G01 X61.8444 Y-29.8179
G01 X61.9467 Y-29.7924
G01 X61.9608 Y-29.7882
G01 X62.0601 Y-29.7525
G01 X62.1621 Y-29.7042
G01 X62.2589 Y-29.6462
G01 X62.3437 Y-29.5835
G01 X62.3551 Y-29.5742
G01 X62.4332 Y-29.5032
G01 X62.5042 Y-29.4251
G01 X62.5135 Y-29.4137
G01 X62.5741 Y-29.3319
G01 X62.5801 Y-29.3227
G01 X62.6342 Y-29.2321
G01 X62.6825 Y-29.1301
G01 X62.7205 Y-29.0238
G01 X62.7463 Y-28.9215
G01 X62.7486 Y-28.9107
G01 X62.7645 Y-28.8027
G01 X62.7700 Y-28.6937
G01 X62.7700 Y-28.1900
G01 X62.7645 Y-28.0773
G01 X62.7479 Y-27.9656
G01 X62.7205 Y-27.8562
G01 X62.6825 Y-27.7499
G01 X62.6342 Y-27.6479
G01 X62.5762 Y-27.5511
G01 X62.5090 Y-27.4604
G01 X62.4332 Y-27.3768
G01 X62.3496 Y-27.3010
G01 X62.2589 Y-27.2338
G01 X62.1621 Y-27.1758
G01 X62.0601 Y-27.1275
G01 X61.9538 Y-27.0895
G01 X61.8444 Y-27.0621
G01 X61.7327 Y-27.0455
G01 X61.6200 Y-27.0400
G01 X61.5146 Y-27.0450
G01 X61.5000 Y-27.0464
G01 X61.3956 Y-27.0621
G01 X61.2933 Y-27.0876
G01 X61.2792 Y-27.0918
G01 X61.1799 Y-27.1275
G01 X61.0779 Y-27.1758
G01 X60.9811 Y-27.2338
G01 X60.8963 Y-27.2965
G01 X60.8849 Y-27.3058
G01 X60.8068 Y-27.3768
G01 X60.7358 Y-27.4549
G01 X60.7265 Y-27.4663
G01 X60.6659 Y-27.5481
G01 X60.6599 Y-27.5573
G01 X60.6058 Y-27.6479
G01 X60.5575 Y-27.7499
G01 X60.5195 Y-27.8562
G01 X60.4937 Y-27.9585
G01 X60.4914 Y-27.9693
G01 X60.4755 Y-28.0773
G01 X60.4700 Y-28.1863
G01 X60.4700 Y-28.6900
G01 X60.4755 Y-28.8027
G01 X60.4921 Y-28.9144
G01 X60.5195 Y-29.0238
G01 X60.5575 Y-29.1301
G01 X60.6058 Y-29.2321
G01 X60.6638 Y-29.3289
G01 X60.7310 Y-29.4196
G01 X60.8068 Y-29.5032
G01 X60.8904 Y-29.5790
G01 X60.9811 Y-29.6462
G01 X61.0779 Y-29.7042
G01 X61.1799 Y-29.7525
G01 X61.2862 Y-29.7905
G01 X61.3956 Y-29.8179
G01 X61.5073 Y-29.8345
G01 X61.6126 Y-29.8398
G01 X61.6274 Y-29.8398
G00 Z0.7000
G00 X62.8927 Y-29.0925
G01 F30.00
G01 Z-0.0640
G01 F120.00
G01 X62.8873 Y-29.0925
G01 X62.8900 Y-29.0846
G01 X62.8924 Y-29.0915
G01 X62.8927 Y-29.0925
G00 Z0.7000
G00 X62.8873 Y-27.7875
G01 F30.00
G01 Z-0.0640
G01 F120.00
G01 X62.8927 Y-27.7875
G01 X62.8900 Y-27.7954
G01 X62.8876 Y-27.7885
G01 X62.8873 Y-27.7875
G00 Z0.7000
G00 X64.1674 Y-29.8398
G01 F30.00
G01 Z-0.0640
G01 F120.00
G01 X64.2654 Y-29.8350
G01 X64.2800 Y-29.8336
G01 X64.3844 Y-29.8179
G01 X64.4867 Y-29.7924
G01 X64.5008 Y-29.7882
G01 X64.6001 Y-29.7525
G01 X64.7021 Y-29.7042
G01 X64.7989 Y-29.6462
G01 X64.8837 Y-29.5835
G01 X64.8951 Y-29.5742
G01 X64.9732 Y-29.5032
G01 X65.0442 Y-29.4251
G01 X65.0535 Y-29.4137
G01 X65.1141 Y-29.3319
G01 X65.1201 Y-29.3227
G01 X65.1742 Y-29.2321
G01 X65.2225 Y-29.1301
G01 X65.2605 Y-29.0238
G01 X65.2863 Y-28.9215
G01 X65.2886 Y-28.9107
G01 X65.3045 Y-28.8027
G01 X65.3100 Y-28.6937
G01 X65.3100 Y-28.1900
G01 X65.3045 Y-28.0773
G01 X65.2879 Y-27.9656
G01 X65.2605 Y-27.8562
G01 X65.2225 Y-27.7499
G01 X65.1742 Y-27.6479
G01 X65.1162 Y-27.5511
G01 X65.0490 Y-27.4604
G01 X64.9732 Y-27.3768
G01 X64.8896 Y-27.3010
G01 X64.7989 Y-27.2338
G01 X64.7021 Y-27.1758
G01 X64.6001 Y-27.1275
G01 X64.4938 Y-27.0895
G01 X64.3844 Y-27.0621
G01 X64.2727 Y-27.0455
G01 X64.1600 Y-27.0400
G01 X64.0546 Y-27.0450
G01 X64.0400 Y-27.0464
G01 X63.9356 Y-27.0621
G01 X63.8333 Y-27.0876
G01 X63.8192 Y-27.0918
G01 X63.7199 Y-27.1275
G01 X63.6179 Y-27.1758
G01 X63.5211 Y-27.2338
G01 X63.4363 Y-27.2965
G01 X63.4249 Y-27.3058
G01 X63.3468 Y-27.3768
G01 X63.2758 Y-27.4549
G01 X63.2665 Y-27.4663
G01 X63.2059 Y-27.5481
G01 X63.1999 Y-27.5573
G01 X63.1458 Y-27.6479
G01 X63.0975 Y-27.7499
G01 X63.0595 Y-27.8562
G01 X63.0337 Y-27.9585
G01 X63.0314 Y-27.9693
G01 X63.0155 Y-28.0773
G01 X63.0100 Y-28.1863
G01 X63.0100 Y-28.6900
G01 X63.0155 Y-28.8027
G01 X63.0321 Y-28.9144
G01 X63.0595 Y-29.0238
G01 X63.0975 Y-29.1301
G01 X63.1458 Y-29.2321
G01 X63.2038 Y-29.3289
G01 X63.2710 Y-29.4196
G01 X63.3468 Y-29.5032
G01 X63.4304 Y-29.5790
G01 X63.5211 Y-29.6462
G01 X63.6179 Y-29.7042
G01 X63.7199 Y-29.7525
G01 X63.8262 Y-29.7905
G01 X63.9356 Y-29.8179
G01 X64.0473 Y-29.8345
G01 X64.1526 Y-29.8398
G01 X64.1674 Y-29.8398
G00 Z0.7000
G00 X62.7501 Y-25.2508
G01 F30.00
G01 Z-0.0640
G01 F120.00
G01 X62.7501 Y-25.1500
G01 X63.0134 Y-25.1500
G01 X63.1072 Y-25.2438
G01 X63.0990 Y-25.2463
G01 X63.0372 Y-25.2524
G01 X62.7501 Y-25.2508
G00 Z0.7000
G00 X61.0997 Y-24.2501
G01 F30.00
G01 Z-0.0640
G01 F120.00
G01 X61.2000 Y-24.2501
G01 X61.2000 Y-24.9697
G01 X61.2006 Y-24.9804
G01 X61.2018 Y-24.9913
G01 X61.2035 Y-25.0019
G01 X61.2060 Y-25.0123
G01 X61.2090 Y-25.0229
G01 X61.2126 Y-25.0330
G01 X61.2170 Y-25.0431
G01 X61.2217 Y-25.0527
G01 X61.2310 Y-25.0682
G01 X61.2372 Y-25.0769
G01 X61.2441 Y-25.0855
G01 X61.2565 Y-25.0987
G01 X61.2645 Y-25.1059
G01 X61.2731 Y-25.1128
G01 X61.2818 Y-25.1190
G01 X61.2909 Y-25.1246
G01 X61.3069 Y-25.1330
G01 X61.3170 Y-25.1374
G01 X61.3271 Y-25.1410
G01 X61.3445 Y-25.1457
G01 X61.3623 Y-25.1487
G01 X61.3803 Y-25.1500
G01 X61.6499 Y-25.1500
G01 X61.6499 Y-25.2508
G01 X61.3628 Y-25.2524
G01 X61.3010 Y-25.2463
G01 X61.2539 Y-25.2320
G01 X61.2105 Y-25.2088
G01 X61.1724 Y-25.1776
G01 X61.1412 Y-25.1395
G01 X61.1180 Y-25.0961
G01 X61.1037 Y-25.0490
G01 X61.0976 Y-24.9868
G01 X61.0997 Y-24.2501
G00 Z0.7000
G00 X61.0200 Y-22.7627
G01 F30.00
G01 Z-0.0640
G01 F120.00
G01 X61.0200 Y-22.8259
G01 X60.9971 Y-22.8156
G01 X60.9753 Y-22.8074
G01 X61.0200 Y-22.7627
G00 Z0.7000
G00 X62.7501 Y-22.1492
G01 F30.00
G01 Z-0.0640
G01 F120.00
G01 X63.0372 Y-22.1476
G01 X63.0990 Y-22.1537
G01 X63.1461 Y-22.1680
G01 X63.1895 Y-22.1912
G01 X63.2276 Y-22.2224
G01 X63.2588 Y-22.2605
G01 X63.2820 Y-22.3039
G01 X63.2963 Y-22.3510
G01 X63.3024 Y-22.4132
G01 X63.3003 Y-23.1499
G01 X63.2000 Y-23.1499
G01 X63.2000 Y-22.4303
G01 X63.1994 Y-22.4196
G01 X63.1982 Y-22.4087
G01 X63.1965 Y-22.3981
G01 X63.1940 Y-22.3877
G01 X63.1910 Y-22.3771
G01 X63.1874 Y-22.3670
G01 X63.1830 Y-22.3569
G01 X63.1783 Y-22.3473
G01 X63.1690 Y-22.3318
G01 X63.1628 Y-22.3231
G01 X63.1559 Y-22.3145
G01 X63.1435 Y-22.3013
G01 X63.1355 Y-22.2941
G01 X63.1269 Y-22.2872
G01 X63.1182 Y-22.2810
G01 X63.1091 Y-22.2754
G01 X63.0931 Y-22.2670
G01 X63.0830 Y-22.2626
G01 X63.0729 Y-22.2590
G01 X63.0555 Y-22.2543
G01 X63.0377 Y-22.2513
G01 X63.0197 Y-22.2500
G01 X62.7501 Y-22.2500
G01 X62.7501 Y-22.1492
G00 Z0.7000
G00 X63.9482 Y-21.1501
G01 F30.00
G01 Z-0.0640
G01 F120.00
G01 X64.1037 Y-21.1501
G01 X64.1173 Y-21.1724
G01 X64.1384 Y-21.2010
G01 X64.1455 Y-21.2095
G01 X64.1670 Y-21.2330
G01 X64.1905 Y-21.2545
G01 X64.2019 Y-21.2638
G01 X64.2276 Y-21.2827
G01 X64.2580 Y-21.3010
G01 X64.2678 Y-21.3061
G01 X64.2967 Y-21.3196
G01 X64.3266 Y-21.3305
G01 X64.3407 Y-21.3348
G01 X64.3716 Y-21.3423
G01 X64.4031 Y-21.3472
G01 X64.4178 Y-21.3486
G01 X64.4499 Y-21.3500
G01 X64.4499 Y-21.4509
G01 X64.2127 Y-21.4524
G01 X64.1510 Y-21.4463
G01 X64.1039 Y-21.4320
G01 X64.0605 Y-21.4088
G01 X64.0224 Y-21.3776
G01 X63.9912 Y-21.3395
G01 X63.9680 Y-21.2961
G01 X63.9537 Y-21.2490
G01 X63.9477 Y-21.1882
G01 X63.9482 Y-21.1501
G00 Z0.7000
G00 X65.5501 Y-21.4509
G01 F30.00
G01 Z-0.0640
G01 F120.00
G01 X65.5501 Y-21.3500
G01 X65.5822 Y-21.3486
G01 X65.5969 Y-21.3472
G01 X65.6284 Y-21.3423
G01 X65.6593 Y-21.3348
G01 X65.6734 Y-21.3305
G01 X65.7033 Y-21.3196
G01 X65.7322 Y-21.3061
G01 X65.7420 Y-21.3010
G01 X65.7724 Y-21.2827
G01 X65.7981 Y-21.2638
G01 X65.8095 Y-21.2545
G01 X65.8330 Y-21.2330
G01 X65.8545 Y-21.2095
G01 X65.8616 Y-21.2010
G01 X65.8827 Y-21.1724
G01 X65.8963 Y-21.1501
G01 X66.0518 Y-21.1501
G01 X66.0523 Y-21.1882
G01 X66.0463 Y-21.2490
G01 X66.0320 Y-21.2961
G01 X66.0088 Y-21.3395
G01 X65.9776 Y-21.3776
G01 X65.9395 Y-21.4088
G01 X65.8961 Y-21.4320
G01 X65.8490 Y-21.4463
G01 X65.7873 Y-21.4524
G01 X65.5501 Y-21.4509
G00 Z0.7000
G00 X65.5986 Y-19.5279
G01 F30.00
G01 Z-0.0640
G01 F120.00
G01 X65.5985 Y-19.5471
G01 X65.5994 Y-19.5676
G01 X65.6006 Y-19.5838
G01 X65.6026 Y-19.5999
G01 X65.6057 Y-19.6202
G01 X65.6089 Y-19.6361
G01 X65.6138 Y-19.6561
G01 X65.6189 Y-19.6742
G01 X65.6072 Y-19.6728
G01 X65.5911 Y-19.6716
G01 X65.5504 Y-19.6700
G01 X64.4496 Y-19.6700
G01 X64.4089 Y-19.6716
G01 X64.3928 Y-19.6728
G01 X64.3811 Y-19.6742
G01 X64.3862 Y-19.6561
G01 X64.3911 Y-19.6361
G01 X64.3943 Y-19.6202
G01 X64.3974 Y-19.5999
G01 X64.3994 Y-19.5838
G01 X64.4006 Y-19.5676
G01 X64.4015 Y-19.5471
G01 X64.4014 Y-19.5279
G01 X64.4334 Y-19.5296
G01 X64.4496 Y-19.5300
G01 X65.5504 Y-19.5300
G01 X65.5666 Y-19.5296
G01 X65.5986 Y-19.5279
G00 Z0.7000
G00 X64.1674 Y-14.5998
G01 F30.00
G01 Z-0.0640
G01 F120.00
G01 X64.2654 Y-14.5950
G01 X64.2800 Y-14.5936
G01 X64.3844 Y-14.5779
G01 X64.4867 Y-14.5524
G01 X64.5008 Y-14.5482
G01 X64.6001 Y-14.5125
G01 X64.7021 Y-14.4642
G01 X64.7989 Y-14.4062
G01 X64.8837 Y-14.3435
G01 X64.8951 Y-14.3342
G01 X64.9732 Y-14.2632
G01 X65.0442 Y-14.1851
G01 X65.0535 Y-14.1737
G01 X65.1141 Y-14.0919
G01 X65.1201 Y-14.0827
G01 X65.1742 Y-13.9921
G01 X65.2225 Y-13.8901
G01 X65.2605 Y-13.7838
G01 X65.2863 Y-13.6815
G01 X65.2886 Y-13.6707
G01 X65.3045 Y-13.5627
G01 X65.3100 Y-13.4537
G01 X65.3100 Y-12.9500
G01 X65.3045 Y-12.8373
G01 X65.2879 Y-12.7256
G01 X65.2605 Y-12.6162
G01 X65.2225 Y-12.5099
G01 X65.1742 Y-12.4079
G01 X65.1162 Y-12.3111
G01 X65.0490 Y-12.2204
G01 X64.9732 Y-12.1368
G01 X64.8896 Y-12.0610
G01 X64.7989 Y-11.9938
G01 X64.7021 Y-11.9358
G01 X64.6001 Y-11.8875
G01 X64.4938 Y-11.8495
G01 X64.3844 Y-11.8221
G01 X64.2727 Y-11.8055
G01 X64.1600 Y-11.8000
G01 X64.0546 Y-11.8050
G01 X64.0400 Y-11.8064
G01 X63.9356 Y-11.8221
G01 X63.8333 Y-11.8476
G01 X63.8192 Y-11.8518
G01 X63.7199 Y-11.8875
G01 X63.6179 Y-11.9358
G01 X63.5211 Y-11.9938
G01 X63.4363 Y-12.0565
G01 X63.4249 Y-12.0658
G01 X63.3468 Y-12.1368
G01 X63.2758 Y-12.2149
G01 X63.2665 Y-12.2263
G01 X63.2059 Y-12.3081
G01 X63.1999 Y-12.3173
G01 X63.1458 Y-12.4079
G01 X63.0975 Y-12.5099
G01 X63.0595 Y-12.6162
G01 X63.0337 Y-12.7185
G01 X63.0314 Y-12.7293
G01 X63.0155 Y-12.8373
G01 X63.0100 Y-12.9463
G01 X63.0100 Y-13.4500
G01 X63.0155 Y-13.5627
G01 X63.0321 Y-13.6744
G01 X63.0595 Y-13.7838
G01 X63.0975 Y-13.8901
G01 X63.1458 Y-13.9921
G01 X63.2038 Y-14.0889
G01 X63.2710 Y-14.1796
G01 X63.3468 Y-14.2632
G01 X63.4304 Y-14.3390
G01 X63.5211 Y-14.4062
G01 X63.6179 Y-14.4642
G01 X63.7199 Y-14.5125
G01 X63.8262 Y-14.5505
G01 X63.9356 Y-14.5779
G01 X64.0473 Y-14.5945
G01 X64.1526 Y-14.5998
G01 X64.1674 Y-14.5998
G00 Z0.7000
G00 X62.8873 Y-13.8525
G01 F30.00
G01 Z-0.0640
G01 F120.00
G01 X62.8876 Y-13.8515
G01 X62.8900 Y-13.8446
G01 X62.8927 Y-13.8525
G01 X62.8873 Y-13.8525
G00 Z0.7000
G00 X62.8927 Y-12.5475
G01 F30.00
G01 Z-0.0640
G01 F120.00
G01 X62.8924 Y-12.5485
G01 X62.8900 Y-12.5554
G01 X62.8873 Y-12.5475
G01 X62.8927 Y-12.5475
G00 Z0.7000
G00 X61.6274 Y-14.5998
G01 F30.00
G01 Z-0.0640
G01 F120.00
G01 X61.7254 Y-14.5950
G01 X61.7400 Y-14.5936
G01 X61.8444 Y-14.5779
G01 X61.9467 Y-14.5524
G01 X61.9608 Y-14.5482
G01 X62.0601 Y-14.5125
G01 X62.1621 Y-14.4642
G01 X62.2589 Y-14.4062
G01 X62.3437 Y-14.3435
G01 X62.3551 Y-14.3342
G01 X62.4332 Y-14.2632
G01 X62.5042 Y-14.1851
G01 X62.5135 Y-14.1737
G01 X62.5741 Y-14.0919
G01 X62.5801 Y-14.0827
G01 X62.6342 Y-13.9921
G01 X62.6825 Y-13.8901
G01 X62.7205 Y-13.7838
G01 X62.7463 Y-13.6815
G01 X62.7486 Y-13.6707
G01 X62.7645 Y-13.5627
G01 X62.7700 Y-13.4537
G01 X62.7700 Y-12.9500
G01 X62.7645 Y-12.8373
G01 X62.7479 Y-12.7256
G01 X62.7205 Y-12.6162
G01 X62.6825 Y-12.5099
G01 X62.6342 Y-12.4079
G01 X62.5762 Y-12.3111
G01 X62.5090 Y-12.2204
G01 X62.4332 Y-12.1368
G01 X62.3496 Y-12.0610
G01 X62.2589 Y-11.9938
G01 X62.1621 Y-11.9358
G01 X62.0601 Y-11.8875
G01 X61.9538 Y-11.8495
G01 X61.8444 Y-11.8221
G01 X61.7327 Y-11.8055
G01 X61.6200 Y-11.8000
G01 X61.5146 Y-11.8050
G01 X61.5000 Y-11.8064
G01 X61.3956 Y-11.8221
G01 X61.2933 Y-11.8476
G01 X61.2792 Y-11.8518
G01 X61.1799 Y-11.8875
G01 X61.0779 Y-11.9358
G01 X60.9811 Y-11.9938
G01 X60.8963 Y-12.0565
G01 X60.8849 Y-12.0658
G01 X60.8068 Y-12.1368
G01 X60.7358 Y-12.2149
G01 X60.7265 Y-12.2263
G01 X60.6659 Y-12.3081
G01 X60.6599 Y-12.3173
G01 X60.6058 Y-12.4079
G01 X60.5575 Y-12.5099
G01 X60.5195 Y-12.6162
G01 X60.4937 Y-12.7185
G01 X60.4914 Y-12.7293
G01 X60.4755 Y-12.8373
G01 X60.4700 Y-12.9463
G01 X60.4700 Y-13.4500
G01 X60.4755 Y-13.5627
G01 X60.4921 Y-13.6744
G01 X60.5195 Y-13.7838
G01 X60.5575 Y-13.8901
G01 X60.6058 Y-13.9921
G01 X60.6638 Y-14.0889
G01 X60.7310 Y-14.1796
G01 X60.8068 Y-14.2632
G01 X60.8904 Y-14.3390
G01 X60.9811 Y-14.4062
G01 X61.0779 Y-14.4642
G01 X61.1799 Y-14.5125
G01 X61.2862 Y-14.5505
G01 X61.3956 Y-14.5779
G01 X61.5073 Y-14.5945
G01 X61.6126 Y-14.5998
G01 X61.6274 Y-14.5998
G00 Z0.7000
G00 X60.3473 Y-13.8525
G01 F30.00
G01 Z-0.0640
G01 F120.00
G01 X60.3476 Y-13.8515
G01 X60.3500 Y-13.8446
G01 X60.3527 Y-13.8525
G01 X60.3473 Y-13.8525
G00 Z0.7000
G00 X60.3527 Y-12.5475
G01 F30.00
G01 Z-0.0640
G01 F120.00
G01 X60.3524 Y-12.5485
G01 X60.3500 Y-12.5554
G01 X60.3473 Y-12.5475
G01 X60.3527 Y-12.5475
G00 Z0.7000
G00 X59.0874 Y-14.5998
G01 F30.00
G01 Z-0.0640
G01 F120.00
G01 X59.1854 Y-14.5950
G01 X59.2000 Y-14.5936
G01 X59.3044 Y-14.5779
G01 X59.4067 Y-14.5524
G01 X59.4208 Y-14.5482
G01 X59.5201 Y-14.5125
G01 X59.6221 Y-14.4642
G01 X59.7189 Y-14.4062
G01 X59.8037 Y-14.3435
G01 X59.8151 Y-14.3342
G01 X59.8932 Y-14.2632
G01 X59.9642 Y-14.1851
G01 X59.9735 Y-14.1737
G01 X60.0341 Y-14.0919
G01 X60.0401 Y-14.0827
G01 X60.0942 Y-13.9921
G01 X60.1425 Y-13.8901
G01 X60.1805 Y-13.7838
G01 X60.2063 Y-13.6815
G01 X60.2086 Y-13.6707
G01 X60.2245 Y-13.5627
G01 X60.2300 Y-13.4537
G01 X60.2300 Y-12.9500
G01 X60.2245 Y-12.8373
G01 X60.2079 Y-12.7256
G01 X60.1805 Y-12.6162
G01 X60.1425 Y-12.5099
G01 X60.0942 Y-12.4079
G01 X60.0362 Y-12.3111
G01 X59.9690 Y-12.2204
G01 X59.8932 Y-12.1368
G01 X59.8096 Y-12.0610
G01 X59.7189 Y-11.9938
G01 X59.6221 Y-11.9358
G01 X59.5201 Y-11.8875
G01 X59.4138 Y-11.8495
G01 X59.3044 Y-11.8221
G01 X59.1927 Y-11.8055
G01 X59.0800 Y-11.8000
G01 X58.9746 Y-11.8050
G01 X58.9600 Y-11.8064
G01 X58.8556 Y-11.8221
G01 X58.7533 Y-11.8476
G01 X58.7392 Y-11.8518
G01 X58.6399 Y-11.8875
G01 X58.5379 Y-11.9358
G01 X58.4411 Y-11.9938
G01 X58.3563 Y-12.0565
G01 X58.3449 Y-12.0658
G01 X58.2668 Y-12.1368
G01 X58.1958 Y-12.2149
G01 X58.1865 Y-12.2263
G01 X58.1259 Y-12.3081
G01 X58.1199 Y-12.3173
G01 X58.0658 Y-12.4079
G01 X58.0175 Y-12.5099
G01 X57.9795 Y-12.6162
G01 X57.9537 Y-12.7185
G01 X57.9514 Y-12.7293
G01 X57.9355 Y-12.8373
G01 X57.9300 Y-12.9463
G01 X57.9300 Y-13.4500
G01 X57.9355 Y-13.5627
G01 X57.9521 Y-13.6744
G01 X57.9795 Y-13.7838
G01 X58.0175 Y-13.8901
G01 X58.0658 Y-13.9921
G01 X58.1238 Y-14.0889
G01 X58.1910 Y-14.1796
G01 X58.2668 Y-14.2632
G01 X58.3504 Y-14.3390
G01 X58.4411 Y-14.4062
G01 X58.5379 Y-14.4642
G01 X58.6399 Y-14.5125
G01 X58.7462 Y-14.5505
G01 X58.8556 Y-14.5779
G01 X58.9673 Y-14.5945
G01 X59.0726 Y-14.5998
G01 X59.0874 Y-14.5998
G00 Z0.7000
G00 X57.8073 Y-13.8525
G01 F30.00
G01 Z-0.0640
G01 F120.00
G01 X57.8076 Y-13.8515
G01 X57.8100 Y-13.8446
G01 X57.8127 Y-13.8525
G01 X57.8073 Y-13.8525
G00 Z0.7000
G00 X57.8127 Y-12.5475
G01 F30.00
G01 Z-0.0640
G01 F120.00
G01 X57.8124 Y-12.5485
G01 X57.8100 Y-12.5554
G01 X57.8073 Y-12.5475
G01 X57.8127 Y-12.5475
G00 Z0.7000
G00 X55.8897 Y-12.0020
G01 F30.00
G01 Z-0.0640
G01 F120.00
G01 X55.8104 Y-12.0610
G01 X55.7268 Y-12.1368
G01 X55.6510 Y-12.2204
G01 X55.5838 Y-12.3111
G01 X55.5258 Y-12.4079
G01 X55.4775 Y-12.5099
G01 X55.4395 Y-12.6162
G01 X55.4129 Y-12.7220
G01 X55.4108 Y-12.7329
G01 X55.3955 Y-12.8373
G01 X55.3900 Y-12.9463
G01 X55.3900 Y-13.4500
G01 X55.3950 Y-13.5554
G01 X55.3964 Y-13.5700
G01 X55.4108 Y-13.6671
G01 X55.4137 Y-13.6815
G01 X55.4395 Y-13.7838
G01 X55.4749 Y-13.8832
G01 X55.4790 Y-13.8935
G01 X55.5258 Y-13.9921
G01 X55.5838 Y-14.0889
G01 X55.6510 Y-14.1796
G01 X55.7268 Y-14.2632
G01 X55.8104 Y-14.3390
G01 X55.9011 Y-14.4062
G01 X55.9979 Y-14.4642
G01 X56.0999 Y-14.5125
G01 X56.2062 Y-14.5505
G01 X56.3156 Y-14.5779
G01 X56.4273 Y-14.5945
G01 X56.5400 Y-14.6000
G01 X56.6527 Y-14.5945
G01 X56.7644 Y-14.5779
G01 X56.8738 Y-14.5505
G01 X56.9732 Y-14.5151
G01 X56.9835 Y-14.5110
G01 X57.0821 Y-14.4642
G01 X57.1727 Y-14.4101
G01 X57.1849 Y-14.4020
G01 X57.2696 Y-14.3390
G01 X57.3478 Y-14.2682
G01 X57.3582 Y-14.2578
G01 X57.4290 Y-14.1796
G01 X57.4920 Y-14.0949
G01 X57.5001 Y-14.0827
G01 X57.5542 Y-13.9921
G01 X57.5995 Y-13.8968
G01 X57.6051 Y-13.8832
G01 X57.6405 Y-13.7838
G01 X57.6663 Y-13.6815
G01 X57.6692 Y-13.6671
G01 X57.6836 Y-13.5700
G01 X57.6850 Y-13.5554
G01 X57.6900 Y-13.4500
G01 X57.6898 Y-12.9426
G01 X57.6845 Y-12.8373
G01 X57.6692 Y-12.7329
G01 X57.6663 Y-12.7185
G01 X57.6424 Y-12.6233
G01 X57.6394 Y-12.6127
G01 X57.6025 Y-12.5099
G01 X57.5575 Y-12.4145
G01 X57.5506 Y-12.4015
G01 X57.5001 Y-12.3173
G01 X57.4920 Y-12.3051
G01 X57.4290 Y-12.2204
G01 X57.3532 Y-12.1368
G01 X57.2696 Y-12.0610
G01 X57.1903 Y-12.0020
G01 X57.1903 Y-10.6293
G01 X58.5224 Y-9.2972
G01 X58.5627 Y-9.2525
G01 X58.5964 Y-9.2073
G01 X58.6046 Y-9.1950
G01 X58.6335 Y-9.1465
G01 X58.6608 Y-9.0888
G01 X58.6799 Y-9.0357
G01 X58.6842 Y-9.0217
G01 X58.6978 Y-8.9669
G01 X58.7062 Y-8.9110
G01 X58.7077 Y-8.8964
G01 X58.7101 Y-8.8474
G01 X58.7103 Y-7.5578
G01 X58.7297 Y-7.5457
G01 X58.8213 Y-7.4776
G01 X58.9085 Y-7.3985
G01 X58.9876 Y-7.3113
G01 X59.0535 Y-7.2227
G01 X59.0617 Y-7.2105
G01 X59.1183 Y-7.1157
G01 X59.1657 Y-7.0160
G01 X59.1713 Y-7.0024
G01 X59.2083 Y-6.8983
G01 X59.2353 Y-6.7913
G01 X59.2382 Y-6.7769
G01 X59.2533 Y-6.6749
G01 X59.2548 Y-6.6603
G01 X59.2600 Y-6.5500
G01 X59.2600 Y-5.6500
G01 X59.2548 Y-5.5397
G01 X59.2533 Y-5.5251
G01 X59.2382 Y-5.4231
G01 X59.2353 Y-5.4087
G01 X59.2083 Y-5.3017
G01 X59.1700 Y-5.1942
G01 X59.1657 Y-5.1840
G01 X59.1183 Y-5.0843
G01 X59.0578 Y-4.9833
G01 X58.9876 Y-4.8887
G01 X58.9136 Y-4.8068
G01 X58.9032 Y-4.7964
G01 X58.8268 Y-4.7272
G01 X58.8155 Y-4.7179
G01 X58.7267 Y-4.6522
G01 X58.6321 Y-4.5953
G01 X58.6191 Y-4.5884
G01 X58.5192 Y-4.5413
G01 X58.4119 Y-4.5028
G01 X58.4012 Y-4.4997
G01 X58.2941 Y-4.4731
G01 X58.1776 Y-4.4558
G01 X58.0600 Y-4.4500
G01 X57.9424 Y-4.4558
G01 X57.8259 Y-4.4731
G01 X57.7117 Y-4.5017
G01 X57.6008 Y-4.5413
G01 X57.4943 Y-4.5917
G01 X57.3933 Y-4.6522
G01 X57.2987 Y-4.7224
G01 X57.2115 Y-4.8015
G01 X57.1324 Y-4.8887
G01 X57.0622 Y-4.9833
G01 X57.0017 Y-5.0843
G01 X56.9513 Y-5.1908
G01 X56.9128 Y-5.2981
G01 X56.9097 Y-5.3088
G01 X56.8847 Y-5.4087
G01 X56.8818 Y-5.4231
G01 X56.8658 Y-5.5324
G01 X56.8600 Y-5.6463
G01 X56.8600 Y-6.5537
G01 X56.8658 Y-6.6676
G01 X56.8818 Y-6.7769
G01 X56.8847 Y-6.7913
G01 X56.9117 Y-6.8983
G01 X56.9513 Y-7.0092
G01 X57.0017 Y-7.1157
G01 X57.0622 Y-7.2167
G01 X57.1324 Y-7.3113
G01 X57.2115 Y-7.3985
G01 X57.2987 Y-7.4776
G01 X57.3903 Y-7.5457
G01 X57.4097 Y-7.5578
G01 X57.4097 Y-8.5707
G01 X56.0776 Y-9.9028
G01 X56.0373 Y-9.9475
G01 X55.9993 Y-9.9987
G01 X55.9665 Y-10.0535
G01 X55.9407 Y-10.1078
G01 X55.9366 Y-10.1180
G01 X55.9177 Y-10.1712
G01 X55.9022 Y-10.2331
G01 X55.8929 Y-10.2963
G01 X55.8898 Y-10.3563
G01 X55.8897 Y-12.0020
G00 Z0.7000
G00 X55.2673 Y-13.8525
G01 F30.00
G01 Z-0.0640
G01 F120.00
G01 X55.2676 Y-13.8515
G01 X55.2700 Y-13.8446
G01 X55.2727 Y-13.8525
G01 X55.2673 Y-13.8525
G00 Z0.7000
G00 X52.7273 Y-13.8525
G01 F30.00
G01 Z-0.0640
G01 F120.00
G01 X52.7276 Y-13.8515
G01 X52.7300 Y-13.8446
G01 X52.7327 Y-13.8525
G01 X52.7273 Y-13.8525
G00 Z0.7000
G00 X53.3497 Y-12.0020
G01 F30.00
G01 Z-0.0640
G01 F120.00
G01 X53.2704 Y-12.0610
G01 X53.1868 Y-12.1368
G01 X53.1110 Y-12.2204
G01 X53.0438 Y-12.3111
G01 X52.9858 Y-12.4079
G01 X52.9375 Y-12.5099
G01 X52.8995 Y-12.6162
G01 X52.8729 Y-12.7220
G01 X52.8708 Y-12.7329
G01 X52.8555 Y-12.8373
G01 X52.8500 Y-12.9463
G01 X52.8500 Y-13.4500
G01 X52.8550 Y-13.5554
G01 X52.8564 Y-13.5700
G01 X52.8708 Y-13.6671
G01 X52.8737 Y-13.6815
G01 X52.8995 Y-13.7838
G01 X52.9349 Y-13.8832
G01 X52.9390 Y-13.8935
G01 X52.9858 Y-13.9921
G01 X53.0438 Y-14.0889
G01 X53.1110 Y-14.1796
G01 X53.1868 Y-14.2632
G01 X53.2704 Y-14.3390
G01 X53.3611 Y-14.4062
G01 X53.4579 Y-14.4642
G01 X53.5599 Y-14.5125
G01 X53.6662 Y-14.5505
G01 X53.7756 Y-14.5779
G01 X53.8873 Y-14.5945
G01 X54.0000 Y-14.6000
G01 X54.1127 Y-14.5945
G01 X54.2244 Y-14.5779
G01 X54.3338 Y-14.5505
G01 X54.4332 Y-14.5151
G01 X54.4435 Y-14.5110
G01 X54.5421 Y-14.4642
G01 X54.6327 Y-14.4101
G01 X54.6449 Y-14.4020
G01 X54.7296 Y-14.3390
G01 X54.8132 Y-14.2632
G01 X54.8842 Y-14.1851
G01 X54.8935 Y-14.1737
G01 X54.9562 Y-14.0889
G01 X55.0142 Y-13.9921
G01 X55.0595 Y-13.8968
G01 X55.0651 Y-13.8832
G01 X55.1005 Y-13.7838
G01 X55.1263 Y-13.6815
G01 X55.1292 Y-13.6671
G01 X55.1445 Y-13.5627
G01 X55.1498 Y-13.4574
G01 X55.1500 Y-12.9500
G01 X55.1450 Y-12.8446
G01 X55.1436 Y-12.8300
G01 X55.1279 Y-12.7256
G01 X55.1024 Y-12.6233
G01 X55.0994 Y-12.6127
G01 X55.0625 Y-12.5099
G01 X55.0175 Y-12.4145
G01 X55.0106 Y-12.4015
G01 X54.9601 Y-12.3173
G01 X54.9520 Y-12.3051
G01 X54.8890 Y-12.2204
G01 X54.8132 Y-12.1368
G01 X54.7296 Y-12.0610
G01 X54.6503 Y-12.0020
G01 X54.6503 Y-10.1693
G01 X55.9824 Y-8.8372
G01 X56.0178 Y-8.7981
G01 X56.0272 Y-8.7867
G01 X56.0607 Y-8.7413
G01 X56.0898 Y-8.6929
G01 X56.0968 Y-8.6799
G01 X56.1208 Y-8.6288
G01 X56.1423 Y-8.5688
G01 X56.1578 Y-8.5069
G01 X56.1662 Y-8.4510
G01 X56.1674 Y-8.4401
G01 X56.1703 Y-8.3800
G01 X56.1703 Y-7.5578
G01 X56.1897 Y-7.5457
G01 X56.2813 Y-7.4776
G01 X56.3685 Y-7.3985
G01 X56.4476 Y-7.3113
G01 X56.5135 Y-7.2227
G01 X56.5217 Y-7.2105
G01 X56.5783 Y-7.1157
G01 X56.6257 Y-7.0160
G01 X56.6313 Y-7.0024
G01 X56.6683 Y-6.8983
G01 X56.6953 Y-6.7913
G01 X56.6982 Y-6.7769
G01 X56.7133 Y-6.6749
G01 X56.7148 Y-6.6603
G01 X56.7200 Y-6.5500
G01 X56.7200 Y-5.6500
G01 X56.7148 Y-5.5397
G01 X56.7133 Y-5.5251
G01 X56.6982 Y-5.4231
G01 X56.6953 Y-5.4087
G01 X56.6683 Y-5.3017
G01 X56.6300 Y-5.1942
G01 X56.6257 Y-5.1840
G01 X56.5783 Y-5.0843
G01 X56.5178 Y-4.9833
G01 X56.4476 Y-4.8887
G01 X56.3736 Y-4.8068
G01 X56.3632 Y-4.7964
G01 X56.2868 Y-4.7272
G01 X56.2755 Y-4.7179
G01 X56.1867 Y-4.6522
G01 X56.0921 Y-4.5953
G01 X56.0791 Y-4.5884
G01 X55.9792 Y-4.5413
G01 X55.8719 Y-4.5028
G01 X55.8612 Y-4.4997
G01 X55.7541 Y-4.4731
G01 X55.6376 Y-4.4558
G01 X55.5200 Y-4.4500
G01 X55.4024 Y-4.4558
G01 X55.2859 Y-4.4731
G01 X55.1717 Y-4.5017
G01 X55.0608 Y-4.5413
G01 X54.9543 Y-4.5917
G01 X54.8533 Y-4.6522
G01 X54.7587 Y-4.7224
G01 X54.6715 Y-4.8015
G01 X54.5924 Y-4.8887
G01 X54.5222 Y-4.9833
G01 X54.4617 Y-5.0843
G01 X54.4113 Y-5.1908
G01 X54.3728 Y-5.2981
G01 X54.3697 Y-5.3088
G01 X54.3447 Y-5.4087
G01 X54.3418 Y-5.4231
G01 X54.3258 Y-5.5324
G01 X54.3200 Y-5.6463
G01 X54.3200 Y-6.5537
G01 X54.3258 Y-6.6676
G01 X54.3424 Y-6.7805
G01 X54.3447 Y-6.7913
G01 X54.3717 Y-6.8983
G01 X54.4113 Y-7.0092
G01 X54.4617 Y-7.1157
G01 X54.5222 Y-7.2167
G01 X54.5924 Y-7.3113
G01 X54.6715 Y-7.3985
G01 X54.7587 Y-7.4776
G01 X54.8503 Y-7.5457
G01 X54.8697 Y-7.5578
G01 X54.8697 Y-8.1107
G01 X53.5376 Y-9.4428
G01 X53.4973 Y-9.4875
G01 X53.4593 Y-9.5387
G01 X53.4265 Y-9.5935
G01 X53.4022 Y-9.6444
G01 X53.3979 Y-9.6546
G01 X53.3777 Y-9.7112
G01 X53.3622 Y-9.7731
G01 X53.3529 Y-9.8363
G01 X53.3498 Y-9.8963
G01 X53.3497 Y-12.0020
G00 Z0.7000
G00 X50.8097 Y-12.0020
G01 F30.00
G01 Z-0.0640
G01 F120.00
G01 X50.7304 Y-12.0610
G01 X50.6468 Y-12.1368
G01 X50.5710 Y-12.2204
G01 X50.5038 Y-12.3111
G01 X50.4458 Y-12.4079
G01 X50.3975 Y-12.5099
G01 X50.3595 Y-12.6162
G01 X50.3329 Y-12.7220
G01 X50.3308 Y-12.7329
G01 X50.3155 Y-12.8373
G01 X50.3100 Y-12.9463
G01 X50.3100 Y-13.4500
G01 X50.3150 Y-13.5554
G01 X50.3164 Y-13.5700
G01 X50.3308 Y-13.6671
G01 X50.3337 Y-13.6815
G01 X50.3595 Y-13.7838
G01 X50.3949 Y-13.8832
G01 X50.3990 Y-13.8935
G01 X50.4458 Y-13.9921
G01 X50.5038 Y-14.0889
G01 X50.5710 Y-14.1796
G01 X50.6468 Y-14.2632
G01 X50.7304 Y-14.3390
G01 X50.8211 Y-14.4062
G01 X50.9179 Y-14.4642
G01 X51.0199 Y-14.5125
G01 X51.1262 Y-14.5505
G01 X51.2356 Y-14.5779
G01 X51.3473 Y-14.5945
G01 X51.4600 Y-14.6000
G01 X51.5727 Y-14.5945
G01 X51.6844 Y-14.5779
G01 X51.7938 Y-14.5505
G01 X51.8932 Y-14.5151
G01 X51.9035 Y-14.5110
G01 X52.0021 Y-14.4642
G01 X52.0927 Y-14.4101
G01 X52.1049 Y-14.4020
G01 X52.1896 Y-14.3390
G01 X52.2732 Y-14.2632
G01 X52.3442 Y-14.1851
G01 X52.3535 Y-14.1737
G01 X52.4162 Y-14.0889
G01 X52.4742 Y-13.9921
G01 X52.5195 Y-13.8968
G01 X52.5251 Y-13.8832
G01 X52.5605 Y-13.7838
G01 X52.5863 Y-13.6815
G01 X52.5892 Y-13.6671
G01 X52.6045 Y-13.5627
G01 X52.6098 Y-13.4574
G01 X52.6100 Y-12.9500
G01 X52.6050 Y-12.8446
G01 X52.6036 Y-12.8300
G01 X52.5879 Y-12.7256
G01 X52.5624 Y-12.6233
G01 X52.5594 Y-12.6127
G01 X52.5225 Y-12.5099
G01 X52.4775 Y-12.4145
G01 X52.4706 Y-12.4015
G01 X52.4201 Y-12.3173
G01 X52.4120 Y-12.3051
G01 X52.3490 Y-12.2204
G01 X52.2732 Y-12.1368
G01 X52.1896 Y-12.0610
G01 X52.1103 Y-12.0020
G01 X52.1103 Y-9.4093
G01 X53.4398 Y-8.0798
G01 X53.4778 Y-8.0381
G01 X53.4872 Y-8.0267
G01 X53.5207 Y-7.9813
G01 X53.5535 Y-7.9265
G01 X53.5808 Y-7.8688
G01 X53.6023 Y-7.8088
G01 X53.6178 Y-7.7469
G01 X53.6267 Y-7.6874
G01 X53.6277 Y-7.6764
G01 X53.6302 Y-7.6237
G01 X53.6303 Y-7.5578
G01 X53.6497 Y-7.5457
G01 X53.7413 Y-7.4776
G01 X53.8285 Y-7.3985
G01 X53.9076 Y-7.3113
G01 X53.9735 Y-7.2227
G01 X53.9817 Y-7.2105
G01 X54.0383 Y-7.1157
G01 X54.0857 Y-7.0160
G01 X54.0913 Y-7.0024
G01 X54.1283 Y-6.8983
G01 X54.1553 Y-6.7913
G01 X54.1582 Y-6.7769
G01 X54.1733 Y-6.6749
G01 X54.1748 Y-6.6603
G01 X54.1800 Y-6.5500
G01 X54.1800 Y-5.6500
G01 X54.1748 Y-5.5397
G01 X54.1733 Y-5.5251
G01 X54.1582 Y-5.4231
G01 X54.1553 Y-5.4087
G01 X54.1283 Y-5.3017
G01 X54.0900 Y-5.1942
G01 X54.0857 Y-5.1840
G01 X54.0383 Y-5.0843
G01 X53.9778 Y-4.9833
G01 X53.9076 Y-4.8887
G01 X53.8336 Y-4.8068
G01 X53.8232 Y-4.7964
G01 X53.7468 Y-4.7272
G01 X53.7355 Y-4.7179
G01 X53.6467 Y-4.6522
G01 X53.5521 Y-4.5953
G01 X53.5391 Y-4.5884
G01 X53.4392 Y-4.5413
G01 X53.3319 Y-4.5028
G01 X53.3212 Y-4.4997
G01 X53.2141 Y-4.4731
G01 X53.0976 Y-4.4558
G01 X52.9800 Y-4.4500
G01 X52.8624 Y-4.4558
G01 X52.7459 Y-4.4731
G01 X52.6317 Y-4.5017
G01 X52.5208 Y-4.5413
G01 X52.4143 Y-4.5917
G01 X52.3133 Y-4.6522
G01 X52.2187 Y-4.7224
G01 X52.1315 Y-4.8015
G01 X52.0524 Y-4.8887
G01 X51.9822 Y-4.9833
G01 X51.9217 Y-5.0843
G01 X51.8713 Y-5.1908
G01 X51.8328 Y-5.2981
G01 X51.8297 Y-5.3088
G01 X51.8047 Y-5.4087
G01 X51.8018 Y-5.4231
G01 X51.7858 Y-5.5324
G01 X51.7800 Y-5.6463
G01 X51.7800 Y-6.5537
G01 X51.7858 Y-6.6676
G01 X51.8024 Y-6.7805
G01 X51.8047 Y-6.7913
G01 X51.8317 Y-6.8983
G01 X51.8687 Y-7.0024
G01 X51.8743 Y-7.0160
G01 X51.9184 Y-7.1091
G01 X51.9253 Y-7.1221
G01 X51.9822 Y-7.2167
G01 X52.0524 Y-7.3113
G01 X52.1315 Y-7.3985
G01 X52.2102 Y-7.4702
G01 X50.9951 Y-8.6855
G01 X50.9622 Y-8.7219
G01 X50.9528 Y-8.7333
G01 X50.9193 Y-8.7787
G01 X50.8902 Y-8.8271
G01 X50.8832 Y-8.8401
G01 X50.8592 Y-8.8912
G01 X50.8377 Y-8.9512
G01 X50.8239 Y-9.0060
G01 X50.8210 Y-9.0204
G01 X50.8129 Y-9.0763
G01 X50.8097 Y-9.1400
G01 X50.8097 Y-12.0020
G00 Z0.7000
G00 X50.1927 Y-12.5475
G01 F30.00
G01 Z-0.0640
G01 F120.00
G01 X50.1924 Y-12.5485
G01 X50.1900 Y-12.5554
G01 X50.1873 Y-12.5475
G01 X50.1927 Y-12.5475
G00 Z0.7000
G00 X50.1873 Y-13.8525
G01 F30.00
G01 Z-0.0640
G01 F120.00
G01 X50.1876 Y-13.8515
G01 X50.1900 Y-13.8446
G01 X50.1927 Y-13.8525
G01 X50.1873 Y-13.8525
G00 Z0.7000
G00 X48.9274 Y-14.5998
G01 F30.00
G01 Z-0.0640
G01 F120.00
G01 X49.0254 Y-14.5950
G01 X49.0400 Y-14.5936
G01 X49.1444 Y-14.5779
G01 X49.2467 Y-14.5524
G01 X49.2608 Y-14.5482
G01 X49.3601 Y-14.5125
G01 X49.4621 Y-14.4642
G01 X49.5589 Y-14.4062
G01 X49.6437 Y-14.3435
G01 X49.6551 Y-14.3342
G01 X49.7332 Y-14.2632
G01 X49.8042 Y-14.1851
G01 X49.8135 Y-14.1737
G01 X49.8741 Y-14.0919
G01 X49.8801 Y-14.0827
G01 X49.9342 Y-13.9921
G01 X49.9825 Y-13.8901
G01 X50.0205 Y-13.7838
G01 X50.0463 Y-13.6815
G01 X50.0486 Y-13.6707
G01 X50.0645 Y-13.5627
G01 X50.0700 Y-13.4537
G01 X50.0700 Y-12.9500
G01 X50.0645 Y-12.8373
G01 X50.0479 Y-12.7256
G01 X50.0205 Y-12.6162
G01 X49.9825 Y-12.5099
G01 X49.9342 Y-12.4079
G01 X49.8762 Y-12.3111
G01 X49.8090 Y-12.2204
G01 X49.7332 Y-12.1368
G01 X49.6496 Y-12.0610
G01 X49.5589 Y-11.9938
G01 X49.4621 Y-11.9358
G01 X49.3601 Y-11.8875
G01 X49.2538 Y-11.8495
G01 X49.1444 Y-11.8221
G01 X49.0327 Y-11.8055
G01 X48.9200 Y-11.8000
G01 X48.8146 Y-11.8050
G01 X48.8000 Y-11.8064
G01 X48.6956 Y-11.8221
G01 X48.5933 Y-11.8476
G01 X48.5792 Y-11.8518
G01 X48.4799 Y-11.8875
G01 X48.3779 Y-11.9358
G01 X48.2811 Y-11.9938
G01 X48.1963 Y-12.0565
G01 X48.1849 Y-12.0658
G01 X48.1068 Y-12.1368
G01 X48.0358 Y-12.2149
G01 X48.0265 Y-12.2263
G01 X47.9659 Y-12.3081
G01 X47.9599 Y-12.3173
G01 X47.9058 Y-12.4079
G01 X47.8575 Y-12.5099
G01 X47.8195 Y-12.6162
G01 X47.7937 Y-12.7185
G01 X47.7914 Y-12.7293
G01 X47.7755 Y-12.8373
G01 X47.7700 Y-12.9463
G01 X47.7700 Y-13.4500
G01 X47.7755 Y-13.5627
G01 X47.7921 Y-13.6744
G01 X47.8195 Y-13.7838
G01 X47.8575 Y-13.8901
G01 X47.9058 Y-13.9921
G01 X47.9638 Y-14.0889
G01 X48.0310 Y-14.1796
G01 X48.1068 Y-14.2632
G01 X48.1904 Y-14.3390
G01 X48.2811 Y-14.4062
G01 X48.3779 Y-14.4642
G01 X48.4799 Y-14.5125
G01 X48.5862 Y-14.5505
G01 X48.6956 Y-14.5779
G01 X48.8073 Y-14.5945
G01 X48.9126 Y-14.5998
G01 X48.9274 Y-14.5998
G00 Z0.7000
G00 X47.6473 Y-13.8525
G01 F30.00
G01 Z-0.0640
G01 F120.00
G01 X47.6476 Y-13.8515
G01 X47.6500 Y-13.8446
G01 X47.6527 Y-13.8525
G01 X47.6473 Y-13.8525
G00 Z0.7000
G00 X47.6527 Y-12.5475
G01 F30.00
G01 Z-0.0640
G01 F120.00
G01 X47.6524 Y-12.5485
G01 X47.6500 Y-12.5554
G01 X47.6473 Y-12.5475
G01 X47.6527 Y-12.5475
G00 Z0.7000
G00 X47.1300 Y-10.3285
G01 F30.00
G01 Z-0.0640
G01 F120.00
G01 X47.1300 Y-9.2715
G01 X47.1471 Y-9.2740
G01 X47.1633 Y-9.2756
G01 X47.1838 Y-9.2767
G01 X47.2000 Y-9.2771
G01 X47.2162 Y-9.2767
G01 X47.2367 Y-9.2756
G01 X47.2529 Y-9.2740
G01 X47.2700 Y-9.2715
G01 X47.2700 Y-10.3285
G01 X47.2529 Y-10.3260
G01 X47.2367 Y-10.3244
G01 X47.2162 Y-10.3233
G01 X47.2000 Y-10.3229
G01 X47.1838 Y-10.3233
G01 X47.1633 Y-10.3244
G01 X47.1471 Y-10.3260
G01 X47.1300 Y-10.3285
G00 Z0.7000
G00 X45.7499 Y-10.7370
G01 F30.00
G01 Z-0.0640
G01 F120.00
G01 X45.7498 Y-11.9884
G01 X45.7351 Y-11.9980
G01 X45.6563 Y-12.0565
G01 X45.6449 Y-12.0658
G01 X45.5668 Y-12.1368
G01 X45.4958 Y-12.2149
G01 X45.4865 Y-12.2263
G01 X45.4238 Y-12.3111
G01 X45.3658 Y-12.4079
G01 X45.3175 Y-12.5099
G01 X45.2795 Y-12.6162
G01 X45.2537 Y-12.7185
G01 X45.2508 Y-12.7329
G01 X45.2355 Y-12.8373
G01 X45.2300 Y-12.9463
G01 X45.2300 Y-13.4537
G01 X45.2355 Y-13.5627
G01 X45.2508 Y-13.6671
G01 X45.2529 Y-13.6780
G01 X45.2795 Y-13.7838
G01 X45.3175 Y-13.8901
G01 X45.3658 Y-13.9921
G01 X45.4238 Y-14.0889
G01 X45.4910 Y-14.1796
G01 X45.5668 Y-14.2632
G01 X45.6504 Y-14.3390
G01 X45.7411 Y-14.4062
G01 X45.8379 Y-14.4642
G01 X45.9399 Y-14.5125
G01 X46.0462 Y-14.5505
G01 X46.1556 Y-14.5779
G01 X46.2673 Y-14.5945
G01 X46.3800 Y-14.6000
G01 X46.4927 Y-14.5945
G01 X46.5971 Y-14.5792
G01 X46.6080 Y-14.5771
G01 X46.7138 Y-14.5505
G01 X46.8201 Y-14.5125
G01 X46.9221 Y-14.4642
G01 X47.0127 Y-14.4101
G01 X47.0249 Y-14.4020
G01 X47.1037 Y-14.3435
G01 X47.1151 Y-14.3342
G01 X47.1932 Y-14.2632
G01 X47.2690 Y-14.1796
G01 X47.3362 Y-14.0889
G01 X47.3906 Y-13.9985
G01 X47.3975 Y-13.9855
G01 X47.4395 Y-13.8968
G01 X47.4451 Y-13.8832
G01 X47.4805 Y-13.7838
G01 X47.5079 Y-13.6744
G01 X47.5245 Y-13.5627
G01 X47.5300 Y-13.4537
G01 X47.5300 Y-12.9500
G01 X47.5250 Y-12.8446
G01 X47.5241 Y-12.8336
G01 X47.5079 Y-12.7256
G01 X47.4805 Y-12.6162
G01 X47.4425 Y-12.5099
G01 X47.3942 Y-12.4079
G01 X47.3362 Y-12.3111
G01 X47.2690 Y-12.2204
G01 X47.1932 Y-12.1368
G01 X47.1151 Y-12.0658
G01 X47.1067 Y-12.0587
G01 X47.0189 Y-11.9938
G01 X46.9285 Y-11.9394
G01 X46.9188 Y-11.9341
G01 X46.8268 Y-11.8905
G01 X46.8167 Y-11.8862
G01 X46.7173 Y-11.8506
G01 X46.7067 Y-11.8476
G01 X46.6501 Y-11.8334
G01 X46.6502 Y-10.7370
G01 X46.6699 Y-10.7317
G01 X46.6965 Y-10.7222
G01 X46.7067 Y-10.7181
G01 X46.7388 Y-10.7028
G01 X46.7693 Y-10.6847
G01 X46.7784 Y-10.6784
G01 X46.8010 Y-10.6616
G01 X46.8095 Y-10.6545
G01 X46.8276 Y-10.6380
G01 X46.8380 Y-10.6276
G01 X46.8545 Y-10.6095
G01 X46.8616 Y-10.6010
G01 X46.8827 Y-10.5724
G01 X46.9028 Y-10.5388
G01 X46.9196 Y-10.5033
G01 X46.9305 Y-10.4734
G01 X46.9348 Y-10.4593
G01 X46.9407 Y-10.4355
G01 X46.9430 Y-10.4247
G01 X46.9481 Y-10.3896
G01 X46.9500 Y-10.3541
G01 X46.9500 Y-9.2496
G01 X46.9483 Y-9.2127
G01 X46.9443 Y-9.1830
G01 X46.9418 Y-9.1694
G01 X46.9347 Y-9.1402
G01 X46.9254 Y-9.1118
G01 X46.9217 Y-9.1020
G01 X46.9081 Y-9.0715
G01 X46.8937 Y-9.0452
G01 X46.8883 Y-9.0363
G01 X46.8713 Y-9.0116
G01 X46.8650 Y-9.0034
G01 X46.8457 Y-8.9804
G01 X46.8246 Y-8.9591
G01 X46.8144 Y-8.9497
G01 X46.7912 Y-8.9307
G01 X46.7666 Y-8.9136
G01 X46.7578 Y-8.9081
G01 X46.7316 Y-8.8935
G01 X46.7222 Y-8.8889
G01 X46.6948 Y-8.8770
G01 X46.6664 Y-8.8673
G01 X46.6564 Y-8.8643
G01 X46.6272 Y-8.8575
G01 X46.6170 Y-8.8557
G01 X46.5873 Y-8.8517
G01 X46.5573 Y-8.8502
G01 X45.8496 Y-8.8500
G01 X45.8178 Y-8.8514
G01 X45.8031 Y-8.8528
G01 X45.7753 Y-8.8570
G01 X45.7645 Y-8.8593
G01 X45.7336 Y-8.8672
G01 X45.7035 Y-8.8778
G01 X45.6899 Y-8.8834
G01 X45.6612 Y-8.8972
G01 X45.6276 Y-8.9173
G01 X45.6019 Y-8.9362
G01 X45.5905 Y-8.9455
G01 X45.5670 Y-8.9670
G01 X45.5455 Y-8.9905
G01 X45.5362 Y-9.0019
G01 X45.5173 Y-9.0276
G01 X45.4972 Y-9.0612
G01 X45.4804 Y-9.0967
G01 X45.4695 Y-9.1266
G01 X45.4652 Y-9.1407
G01 X45.4577 Y-9.1716
G01 X45.4528 Y-9.2031
G01 X45.4516 Y-9.2141
G01 X45.4500 Y-9.2459
G01 X45.4500 Y-10.3504
G01 X45.4519 Y-10.3896
G01 X45.4564 Y-10.4211
G01 X45.4593 Y-10.4355
G01 X45.4652 Y-10.4593
G01 X45.4683 Y-10.4699
G01 X45.4804 Y-10.5033
G01 X45.4955 Y-10.5355
G01 X45.5008 Y-10.5452
G01 X45.5134 Y-10.5662
G01 X45.5194 Y-10.5754
G01 X45.5407 Y-10.6039
G01 X45.5620 Y-10.6276
G01 X45.5724 Y-10.6380
G01 X45.5905 Y-10.6545
G01 X45.5990 Y-10.6616
G01 X45.6276 Y-10.6827
G01 X45.6580 Y-10.7010
G01 X45.6678 Y-10.7061
G01 X45.6899 Y-10.7166
G01 X45.7001 Y-10.7209
G01 X45.7301 Y-10.7317
G01 X45.7499 Y-10.7370
G00 Z0.7000
G00 X45.1127 Y-12.5475
G01 F30.00
G01 Z-0.0640
G01 F120.00
G01 X45.1124 Y-12.5485
G01 X45.1100 Y-12.5554
G01 X45.1073 Y-12.5475
G01 X45.1127 Y-12.5475
G00 Z0.7000
G00 X45.1073 Y-13.8525
G01 F30.00
G01 Z-0.0640
G01 F120.00
G01 X45.1076 Y-13.8515
G01 X45.1100 Y-13.8446
G01 X45.1127 Y-13.8525
G01 X45.1073 Y-13.8525
G00 Z0.7000
G00 X43.8474 Y-14.5998
G01 F30.00
G01 Z-0.0640
G01 F120.00
G01 X43.9454 Y-14.5950
G01 X43.9600 Y-14.5936
G01 X44.0644 Y-14.5779
G01 X44.1667 Y-14.5524
G01 X44.1808 Y-14.5482
G01 X44.2801 Y-14.5125
G01 X44.3821 Y-14.4642
G01 X44.4789 Y-14.4062
G01 X44.5637 Y-14.3435
G01 X44.5751 Y-14.3342
G01 X44.6532 Y-14.2632
G01 X44.7242 Y-14.1851
G01 X44.7335 Y-14.1737
G01 X44.7941 Y-14.0919
G01 X44.8001 Y-14.0827
G01 X44.8542 Y-13.9921
G01 X44.9025 Y-13.8901
G01 X44.9405 Y-13.7838
G01 X44.9663 Y-13.6815
G01 X44.9686 Y-13.6707
G01 X44.9845 Y-13.5627
G01 X44.9900 Y-13.4537
G01 X44.9900 Y-12.9500
G01 X44.9845 Y-12.8373
G01 X44.9679 Y-12.7256
G01 X44.9405 Y-12.6162
G01 X44.9025 Y-12.5099
G01 X44.8542 Y-12.4079
G01 X44.7962 Y-12.3111
G01 X44.7290 Y-12.2204
G01 X44.6532 Y-12.1368
G01 X44.5696 Y-12.0610
G01 X44.4789 Y-11.9938
G01 X44.3821 Y-11.9358
G01 X44.2801 Y-11.8875
G01 X44.1738 Y-11.8495
G01 X44.0644 Y-11.8221
G01 X43.9527 Y-11.8055
G01 X43.8400 Y-11.8000
G01 X43.7346 Y-11.8050
G01 X43.7200 Y-11.8064
G01 X43.6156 Y-11.8221
G01 X43.5133 Y-11.8476
G01 X43.4992 Y-11.8518
G01 X43.3999 Y-11.8875
G01 X43.2979 Y-11.9358
G01 X43.2011 Y-11.9938
G01 X43.1163 Y-12.0565
G01 X43.1049 Y-12.0658
G01 X43.0268 Y-12.1368
G01 X42.9558 Y-12.2149
G01 X42.9465 Y-12.2263
G01 X42.8859 Y-12.3081
G01 X42.8799 Y-12.3173
G01 X42.8258 Y-12.4079
G01 X42.7775 Y-12.5099
G01 X42.7395 Y-12.6162
G01 X42.7137 Y-12.7185
G01 X42.7114 Y-12.7293
G01 X42.6955 Y-12.8373
G01 X42.6900 Y-12.9463
G01 X42.6900 Y-13.4500
G01 X42.6955 Y-13.5627
G01 X42.7121 Y-13.6744
G01 X42.7395 Y-13.7838
G01 X42.7775 Y-13.8901
G01 X42.8258 Y-13.9921
G01 X42.8838 Y-14.0889
G01 X42.9510 Y-14.1796
G01 X43.0268 Y-14.2632
G01 X43.1104 Y-14.3390
G01 X43.2011 Y-14.4062
G01 X43.2979 Y-14.4642
G01 X43.3999 Y-14.5125
G01 X43.5062 Y-14.5505
G01 X43.6156 Y-14.5779
G01 X43.7273 Y-14.5945
G01 X43.8326 Y-14.5998
G01 X43.8474 Y-14.5998
G00 Z0.7000
G00 X42.5673 Y-13.8525
G01 F30.00
G01 Z-0.0640
G01 F120.00
G01 X42.5676 Y-13.8515
G01 X42.5700 Y-13.8446
G01 X42.5727 Y-13.8525
G01 X42.5673 Y-13.8525
G00 Z0.7000
G00 X42.5727 Y-12.5475
G01 F30.00
G01 Z-0.0640
G01 F120.00
G01 X42.5724 Y-12.5485
G01 X42.5700 Y-12.5554
G01 X42.5673 Y-12.5475
G01 X42.5727 Y-12.5475
G00 Z0.7000
G00 X40.0273 Y-13.8525
G01 F30.00
G01 Z-0.0640
G01 F120.00
G01 X40.0276 Y-13.8515
G01 X40.0300 Y-13.8446
G01 X40.0327 Y-13.8525
G01 X40.0273 Y-13.8525
G00 Z0.7000
G00 X38.7674 Y-14.5998
G01 F30.00
G01 Z-0.0640
G01 F120.00
G01 X38.8654 Y-14.5950
G01 X38.8800 Y-14.5936
G01 X38.9844 Y-14.5779
G01 X39.0867 Y-14.5524
G01 X39.1008 Y-14.5482
G01 X39.2001 Y-14.5125
G01 X39.3021 Y-14.4642
G01 X39.3989 Y-14.4062
G01 X39.4837 Y-14.3435
G01 X39.4951 Y-14.3342
G01 X39.5732 Y-14.2632
G01 X39.6442 Y-14.1851
G01 X39.6535 Y-14.1737
G01 X39.7141 Y-14.0919
G01 X39.7201 Y-14.0827
G01 X39.7742 Y-13.9921
G01 X39.8225 Y-13.8901
G01 X39.8605 Y-13.7838
G01 X39.8863 Y-13.6815
G01 X39.8886 Y-13.6707
G01 X39.9045 Y-13.5627
G01 X39.9100 Y-13.4537
G01 X39.9100 Y-12.9500
G01 X39.9045 Y-12.8373
G01 X39.8879 Y-12.7256
G01 X39.8605 Y-12.6162
G01 X39.8225 Y-12.5099
G01 X39.7742 Y-12.4079
G01 X39.7162 Y-12.3111
G01 X39.6490 Y-12.2204
G01 X39.5732 Y-12.1368
G01 X39.4896 Y-12.0610
G01 X39.3989 Y-11.9938
G01 X39.3021 Y-11.9358
G01 X39.2001 Y-11.8875
G01 X39.0938 Y-11.8495
G01 X38.9844 Y-11.8221
G01 X38.8727 Y-11.8055
G01 X38.7600 Y-11.8000
G01 X38.6546 Y-11.8050
G01 X38.6400 Y-11.8064
G01 X38.5356 Y-11.8221
G01 X38.4333 Y-11.8476
G01 X38.4192 Y-11.8518
G01 X38.3199 Y-11.8875
G01 X38.2179 Y-11.9358
G01 X38.1211 Y-11.9938
G01 X38.0363 Y-12.0565
G01 X38.0249 Y-12.0658
G01 X37.9468 Y-12.1368
G01 X37.8758 Y-12.2149
G01 X37.8665 Y-12.2263
G01 X37.8059 Y-12.3081
G01 X37.7999 Y-12.3173
G01 X37.7458 Y-12.4079
G01 X37.6975 Y-12.5099
G01 X37.6595 Y-12.6162
G01 X37.6337 Y-12.7185
G01 X37.6314 Y-12.7293
G01 X37.6155 Y-12.8373
G01 X37.6100 Y-12.9463
G01 X37.6100 Y-13.4500
G01 X37.6155 Y-13.5627
G01 X37.6321 Y-13.6744
G01 X37.6595 Y-13.7838
G01 X37.6975 Y-13.8901
G01 X37.7458 Y-13.9921
G01 X37.8038 Y-14.0889
G01 X37.8710 Y-14.1796
G01 X37.9468 Y-14.2632
G01 X38.0304 Y-14.3390
G01 X38.1211 Y-14.4062
G01 X38.2179 Y-14.4642
G01 X38.3199 Y-14.5125
G01 X38.4262 Y-14.5505
G01 X38.5356 Y-14.5779
G01 X38.6473 Y-14.5945
G01 X38.7526 Y-14.5998
G01 X38.7674 Y-14.5998
G00 Z0.7000
G00 X36.6702 Y-16.2479
G01 F30.00
G01 Z-0.0640
G01 F120.00
G01 X36.8866 Y-16.2475
G01 X36.9490 Y-16.2537
G01 X36.9961 Y-16.2680
G01 X37.0395 Y-16.2912
G01 X37.0776 Y-16.3224
G01 X37.1088 Y-16.3605
G01 X37.1320 Y-16.4039
G01 X37.1463 Y-16.4510
G01 X37.1525 Y-16.5133
G01 X37.1503 Y-17.3499
G01 X37.0500 Y-17.3499
G01 X37.0500 Y-16.8108
G01 X37.0483 Y-16.7730
G01 X37.0474 Y-16.7620
G01 X37.0424 Y-16.7282
G01 X37.0395 Y-16.7137
G01 X37.0302 Y-16.6770
G01 X37.0176 Y-16.6413
G01 X37.0135 Y-16.6311
G01 X36.9973 Y-16.5968
G01 X36.9920 Y-16.5872
G01 X36.9723 Y-16.5548
G01 X36.9499 Y-16.5243
G01 X36.9406 Y-16.5129
G01 X36.9150 Y-16.4850
G01 X36.8871 Y-16.4594
G01 X36.8787 Y-16.4523
G01 X36.8452 Y-16.4277
G01 X36.8128 Y-16.4080
G01 X36.8032 Y-16.4027
G01 X36.7689 Y-16.3865
G01 X36.7587 Y-16.3824
G01 X36.7230 Y-16.3698
G01 X36.6827 Y-16.3596
G01 X36.6702 Y-16.3573
G01 X36.6702 Y-16.2479
G00 Z0.7000
G00 X35.5501 Y-16.2498
G01 F30.00
G01 Z-0.0640
G01 F120.00
G01 X35.7698 Y-16.2494
G01 X35.7698 Y-16.3500
G01 X35.5501 Y-16.3500
G01 X35.5501 Y-16.2498
G00 Z0.7000
G00 X33.6874 Y-14.5998
G01 F30.00
G01 Z-0.0640
G01 F120.00
G01 X33.7854 Y-14.5950
G01 X33.8000 Y-14.5936
G01 X33.9044 Y-14.5779
G01 X34.0067 Y-14.5524
G01 X34.0208 Y-14.5482
G01 X34.1201 Y-14.5125
G01 X34.2221 Y-14.4642
G01 X34.3189 Y-14.4062
G01 X34.4037 Y-14.3435
G01 X34.4151 Y-14.3342
G01 X34.4932 Y-14.2632
G01 X34.5642 Y-14.1851
G01 X34.5735 Y-14.1737
G01 X34.6341 Y-14.0919
G01 X34.6401 Y-14.0827
G01 X34.6942 Y-13.9921
G01 X34.7425 Y-13.8901
G01 X34.7805 Y-13.7838
G01 X34.8063 Y-13.6815
G01 X34.8086 Y-13.6707
G01 X34.8245 Y-13.5627
G01 X34.8300 Y-13.4537
G01 X34.8300 Y-12.9500
G01 X34.8245 Y-12.8373
G01 X34.8079 Y-12.7256
G01 X34.7805 Y-12.6162
G01 X34.7425 Y-12.5099
G01 X34.6942 Y-12.4079
G01 X34.6362 Y-12.3111
G01 X34.5690 Y-12.2204
G01 X34.4932 Y-12.1368
G01 X34.4096 Y-12.0610
G01 X34.3189 Y-11.9938
G01 X34.2221 Y-11.9358
G01 X34.1201 Y-11.8875
G01 X34.0138 Y-11.8495
G01 X33.9044 Y-11.8221
G01 X33.7927 Y-11.8055
G01 X33.6800 Y-11.8000
G01 X33.5746 Y-11.8050
G01 X33.5600 Y-11.8064
G01 X33.4556 Y-11.8221
G01 X33.3533 Y-11.8476
G01 X33.3392 Y-11.8518
G01 X33.2399 Y-11.8875
G01 X33.1379 Y-11.9358
G01 X33.0411 Y-11.9938
G01 X32.9563 Y-12.0565
G01 X32.9449 Y-12.0658
G01 X32.8668 Y-12.1368
G01 X32.7958 Y-12.2149
G01 X32.7865 Y-12.2263
G01 X32.7259 Y-12.3081
G01 X32.7199 Y-12.3173
G01 X32.6658 Y-12.4079
G01 X32.6175 Y-12.5099
G01 X32.5795 Y-12.6162
G01 X32.5537 Y-12.7185
G01 X32.5514 Y-12.7293
G01 X32.5355 Y-12.8373
G01 X32.5300 Y-12.9463
G01 X32.5300 Y-13.4500
G01 X32.5355 Y-13.5627
G01 X32.5521 Y-13.6744
G01 X32.5795 Y-13.7838
G01 X32.6175 Y-13.8901
G01 X32.6658 Y-13.9921
G01 X32.7238 Y-14.0889
G01 X32.7910 Y-14.1796
G01 X32.8668 Y-14.2632
G01 X32.9504 Y-14.3390
G01 X33.0411 Y-14.4062
G01 X33.1379 Y-14.4642
G01 X33.2399 Y-14.5125
G01 X33.3462 Y-14.5505
G01 X33.4556 Y-14.5779
G01 X33.5673 Y-14.5945
G01 X33.6726 Y-14.5998
G01 X33.6874 Y-14.5998
G00 Z0.7000
G00 X32.4073 Y-13.8525
G01 F30.00
G01 Z-0.0640
G01 F120.00
G01 X32.4076 Y-13.8515
G01 X32.4100 Y-13.8446
G01 X32.4127 Y-13.8525
G01 X32.4073 Y-13.8525
G00 Z0.7000
G00 X32.4127 Y-12.5475
G01 F30.00
G01 Z-0.0640
G01 F120.00
G01 X32.4124 Y-12.5485
G01 X32.4100 Y-12.5554
G01 X32.4073 Y-12.5475
G01 X32.4127 Y-12.5475
G00 Z0.7000
G00 X31.1474 Y-14.5998
G01 F30.00
G01 Z-0.0640
G01 F120.00
G01 X31.2454 Y-14.5950
G01 X31.2600 Y-14.5936
G01 X31.3644 Y-14.5779
G01 X31.4667 Y-14.5524
G01 X31.4808 Y-14.5482
G01 X31.5801 Y-14.5125
G01 X31.6821 Y-14.4642
G01 X31.7789 Y-14.4062
G01 X31.8637 Y-14.3435
G01 X31.8751 Y-14.3342
G01 X31.9532 Y-14.2632
G01 X32.0242 Y-14.1851
G01 X32.0335 Y-14.1737
G01 X32.0941 Y-14.0919
G01 X32.1001 Y-14.0827
G01 X32.1542 Y-13.9921
G01 X32.2025 Y-13.8901
G01 X32.2405 Y-13.7838
G01 X32.2663 Y-13.6815
G01 X32.2686 Y-13.6707
G01 X32.2845 Y-13.5627
G01 X32.2900 Y-13.4537
G01 X32.2900 Y-12.9500
G01 X32.2845 Y-12.8373
G01 X32.2679 Y-12.7256
G01 X32.2405 Y-12.6162
G01 X32.2025 Y-12.5099
G01 X32.1542 Y-12.4079
G01 X32.0962 Y-12.3111
G01 X32.0290 Y-12.2204
G01 X31.9532 Y-12.1368
G01 X31.8696 Y-12.0610
G01 X31.7789 Y-11.9938
G01 X31.6821 Y-11.9358
G01 X31.5801 Y-11.8875
G01 X31.4738 Y-11.8495
G01 X31.3644 Y-11.8221
G01 X31.2527 Y-11.8055
G01 X31.1400 Y-11.8000
G01 X31.0346 Y-11.8050
G01 X31.0200 Y-11.8064
G01 X30.9156 Y-11.8221
G01 X30.8133 Y-11.8476
G01 X30.7992 Y-11.8518
G01 X30.6999 Y-11.8875
G01 X30.5979 Y-11.9358
G01 X30.5011 Y-11.9938
G01 X30.4163 Y-12.0565
G01 X30.4049 Y-12.0658
G01 X30.3268 Y-12.1368
G01 X30.2558 Y-12.2149
G01 X30.2465 Y-12.2263
G01 X30.1859 Y-12.3081
G01 X30.1799 Y-12.3173
G01 X30.1258 Y-12.4079
G01 X30.0775 Y-12.5099
G01 X30.0395 Y-12.6162
G01 X30.0137 Y-12.7185
G01 X30.0114 Y-12.7293
G01 X29.9955 Y-12.8373
G01 X29.9900 Y-12.9463
G01 X29.9900 Y-13.4500
G01 X29.9955 Y-13.5627
G01 X30.0121 Y-13.6744
G01 X30.0395 Y-13.7838
G01 X30.0775 Y-13.8901
G01 X30.1258 Y-13.9921
G01 X30.1838 Y-14.0889
G01 X30.2510 Y-14.1796
G01 X30.3268 Y-14.2632
G01 X30.4104 Y-14.3390
G01 X30.5011 Y-14.4062
G01 X30.5979 Y-14.4642
G01 X30.6999 Y-14.5125
G01 X30.8062 Y-14.5505
G01 X30.9156 Y-14.5779
G01 X31.0273 Y-14.5945
G01 X31.1326 Y-14.5998
G01 X31.1474 Y-14.5998
G00 Z0.7000
G00 X29.9300 Y-14.0733
G01 F30.00
G01 Z-0.0640
G01 F120.00
G01 X29.9300 Y-13.9996
G01 X29.9617 Y-14.0665
G01 X29.9430 Y-14.0701
G01 X29.9300 Y-14.0733
G00 Z0.7000
G00 X29.9617 Y-12.3335
G01 F30.00
G01 Z-0.0640
G01 F120.00
G01 X29.9598 Y-12.3375
G01 X29.9300 Y-12.4004
G01 X29.9300 Y-12.3267
G01 X29.9430 Y-12.3299
G01 X29.9617 Y-12.3335
G00 Z0.7000
G00 X27.8926 Y-11.8002
G01 F30.00
G01 Z-0.0640
G01 F120.00
G01 X27.8559 Y-11.8022
G01 X27.8122 Y-11.8086
G01 X27.7694 Y-11.8194
G01 X27.7278 Y-11.8343
G01 X27.6879 Y-11.8531
G01 X27.6500 Y-11.8758
G01 X27.6145 Y-11.9021
G01 X27.5871 Y-11.9267
G01 X27.5767 Y-11.9371
G01 X27.5545 Y-11.9617
G01 X27.5476 Y-11.9703
G01 X27.5258 Y-12.0000
G01 X27.5068 Y-12.0315
G01 X27.5014 Y-12.0411
G01 X27.4843 Y-12.0778
G01 X27.4694 Y-12.1194
G01 X27.4586 Y-12.1622
G01 X27.4531 Y-12.1986
G01 X27.4516 Y-12.2132
G01 X27.4500 Y-12.2500
G01 X27.4500 Y-14.1537
G01 X27.4522 Y-14.1941
G01 X27.4574 Y-14.2305
G01 X27.4603 Y-14.2450
G01 X27.4694 Y-14.2806
G01 X27.4816 Y-14.3153
G01 X27.4872 Y-14.3289
G01 X27.5031 Y-14.3621
G01 X27.5219 Y-14.3938
G01 X27.5301 Y-14.4060
G01 X27.5521 Y-14.4355
G01 X27.5818 Y-14.4682
G01 X27.6145 Y-14.4979
G01 X27.6440 Y-14.5199
G01 X27.6562 Y-14.5281
G01 X27.6879 Y-14.5469
G01 X27.7211 Y-14.5628
G01 X27.7312 Y-14.5671
G01 X27.7624 Y-14.5783
G01 X27.7765 Y-14.5826
G01 X27.8122 Y-14.5914
G01 X27.8486 Y-14.5969
G01 X27.8596 Y-14.5981
G01 X27.9000 Y-14.6000
G01 X29.3069 Y-14.5998
G01 X29.3415 Y-14.5981
G01 X29.3758 Y-14.5935
G01 X29.3895 Y-14.5909
G01 X29.4231 Y-14.5828
G01 X29.4560 Y-14.5720
G01 X29.4690 Y-14.5670
G01 X29.5006 Y-14.5528
G01 X29.5339 Y-14.5344
G01 X29.5427 Y-14.5288
G01 X29.5712 Y-14.5091
G01 X29.5979 Y-14.4871
G01 X29.6082 Y-14.4778
G01 X29.6326 Y-14.4532
G01 X29.6548 Y-14.4266
G01 X29.6632 Y-14.4156
G01 X29.6826 Y-14.3869
G01 X29.6996 Y-14.3567
G01 X29.7058 Y-14.3443
G01 X29.7196 Y-14.3126
G01 X29.7308 Y-14.2798
G01 X29.7346 Y-14.2664
G01 X29.7423 Y-14.2327
G01 X29.7473 Y-14.1984
G01 X29.7486 Y-14.1846
G01 X29.7500 Y-14.1500
G01 X29.7500 Y-12.2463
G01 X29.7478 Y-12.2059
G01 X29.7426 Y-12.1695
G01 X29.7397 Y-12.1550
G01 X29.7306 Y-12.1194
G01 X29.7184 Y-12.0847
G01 X29.7128 Y-12.0711
G01 X29.6969 Y-12.0379
G01 X29.6781 Y-12.0062
G01 X29.6699 Y-11.9940
G01 X29.6479 Y-11.9645
G01 X29.6182 Y-11.9318
G01 X29.5855 Y-11.9021
G01 X29.5560 Y-11.8801
G01 X29.5469 Y-11.8738
G01 X29.5185 Y-11.8568
G01 X29.5089 Y-11.8514
G01 X29.4756 Y-11.8357
G01 X29.4653 Y-11.8316
G01 X29.4306 Y-11.8194
G01 X29.3950 Y-11.8103
G01 X29.3842 Y-11.8080
G01 X29.3478 Y-11.8026
G01 X29.3368 Y-11.8016
G01 X29.3000 Y-11.8000
G01 X27.8926 Y-11.8002
G00 Z0.7000
G00 X27.7477 Y-11.6390
G01 F30.00
G01 Z-0.0640
G01 F120.00
G01 X27.7249 Y-11.6449
G01 X27.7094 Y-11.6496
G01 X27.6664 Y-11.6649
G01 X27.6515 Y-11.6711
G01 X27.6175 Y-11.6871
G01 X27.6030 Y-11.6944
G01 X27.5886 Y-11.7026
G01 X27.7183 Y-11.5728
G01 X27.7238 Y-11.5878
G01 X27.7300 Y-11.6028
G01 X27.7423 Y-11.6287
G01 X27.7477 Y-11.6390
G00 Z0.7000
G00 X26.3487 Y-11.5135
G01 F30.00
G01 Z-0.0640
G01 F120.00
G01 X26.3474 Y-11.5000
G01 X26.3580 Y-11.3922
G01 X26.3895 Y-11.2885
G01 X26.4405 Y-11.1930
G01 X26.5092 Y-11.1093
G01 X26.5225 Y-11.0983
G01 X26.5399 Y-11.0824
G01 X30.0113 Y-7.6110
G01 X30.0272 Y-7.5936
G01 X30.0341 Y-7.5850
G01 X30.0458 Y-7.5690
G01 X30.0597 Y-7.5457
G01 X30.0699 Y-7.5245
G01 X30.0740 Y-7.5142
G01 X30.0805 Y-7.4955
G01 X30.0855 Y-7.4763
G01 X30.0878 Y-7.4655
G01 X30.0907 Y-7.4459
G01 X30.0917 Y-7.4349
G01 X30.0924 Y-7.4151
G01 X30.0917 Y-7.3952
G01 X30.0907 Y-7.3842
G01 X30.0878 Y-7.3646
G01 X30.0855 Y-7.3538
G01 X30.0805 Y-7.3346
G01 X30.0740 Y-7.3159
G01 X30.0699 Y-7.3057
G01 X30.0614 Y-7.2877
G01 X30.0561 Y-7.2780
G01 X30.0457 Y-7.2611
G01 X30.0341 Y-7.2451
G01 X30.0272 Y-7.2365
G01 X30.0113 Y-7.2191
G01 X29.9960 Y-7.2051
G01 X29.9728 Y-7.1769
G01 X29.9595 Y-7.1622
G01 X29.9543 Y-7.1570
G01 X29.9396 Y-7.1437
G01 X29.9310 Y-7.1368
G01 X29.9149 Y-7.1251
G01 X29.8980 Y-7.1147
G01 X29.8883 Y-7.1094
G01 X29.8704 Y-7.1009
G01 X29.8602 Y-7.0968
G01 X29.8414 Y-7.0903
G01 X29.8222 Y-7.0853
G01 X29.8078 Y-7.0825
G01 X29.7845 Y-7.0794
G01 X29.7610 Y-7.0784
G01 X29.7339 Y-7.0797
G01 X29.7070 Y-7.0837
G01 X29.6841 Y-7.0893
G01 X29.6618 Y-7.0968
G01 X29.6482 Y-7.1025
G01 X29.6272 Y-7.1129
G01 X29.6102 Y-7.1231
G01 X29.6040 Y-7.1272
G01 X29.5852 Y-7.1413
G01 X29.5651 Y-7.1596
G01 X29.5468 Y-7.1797
G01 X29.5349 Y-7.1955
G01 X29.5286 Y-7.2046
G01 X29.5203 Y-7.2185
G01 X29.5088 Y-7.2395
G01 X29.4776 Y-7.2776
G01 X29.4395 Y-7.3088
G01 X29.3961 Y-7.3320
G01 X29.3490 Y-7.3463
G01 X29.2882 Y-7.3523
G01 X29.2501 Y-7.3518
G01 X29.2501 Y-7.1963
G01 X29.2724 Y-7.1827
G01 X29.3010 Y-7.1616
G01 X29.3095 Y-7.1545
G01 X29.3330 Y-7.1330
G01 X29.3545 Y-7.1095
G01 X29.3638 Y-7.0981
G01 X29.3827 Y-7.0724
G01 X29.4010 Y-7.0420
G01 X29.4061 Y-7.0322
G01 X29.4196 Y-7.0033
G01 X29.4305 Y-6.9734
G01 X29.4348 Y-6.9593
G01 X29.4423 Y-6.9284
G01 X29.4472 Y-6.8969
G01 X29.4486 Y-6.8822
G01 X29.4500 Y-6.8504
G01 X29.4500 Y-5.7496
G01 X29.4488 Y-5.7196
G01 X29.4479 Y-5.7093
G01 X29.4438 Y-5.6796
G01 X29.4418 Y-5.6694
G01 X29.4347 Y-5.6402
G01 X29.4254 Y-5.6118
G01 X29.4204 Y-5.5988
G01 X29.4081 Y-5.5715
G01 X29.3937 Y-5.5452
G01 X29.3883 Y-5.5363
G01 X29.3693 Y-5.5088
G01 X29.3503 Y-5.4856
G01 X29.3433 Y-5.4779
G01 X29.3221 Y-5.4567
G01 X29.3144 Y-5.4497
G01 X29.2884 Y-5.4287
G01 X29.2637 Y-5.4117
G01 X29.2501 Y-5.4037
G01 X29.2501 Y-5.2482
G01 X29.2882 Y-5.2477
G01 X29.3490 Y-5.2537
G01 X29.3961 Y-5.2680
G01 X29.4395 Y-5.2912
G01 X29.4776 Y-5.3224
G01 X29.5088 Y-5.3605
G01 X29.5184 Y-5.3784
G01 X29.5286 Y-5.3954
G01 X29.5423 Y-5.4145
G01 X29.5492 Y-5.4231
G01 X29.5651 Y-5.4404
G01 X29.5824 Y-5.4563
G01 X29.5910 Y-5.4632
G01 X29.6102 Y-5.4769
G01 X29.6304 Y-5.4889
G01 X29.6550 Y-5.5005
G01 X29.6806 Y-5.5097
G01 X29.6998 Y-5.5147
G01 X29.7142 Y-5.5175
G01 X29.7375 Y-5.5206
G01 X29.7610 Y-5.5216
G01 X29.7845 Y-5.5206
G01 X29.7955 Y-5.5194
G01 X29.8151 Y-5.5163
G01 X29.8343 Y-5.5116
G01 X29.8449 Y-5.5086
G01 X29.8636 Y-5.5019
G01 X29.8738 Y-5.4975
G01 X29.8916 Y-5.4889
G01 X29.9087 Y-5.4788
G01 X29.9180 Y-5.4728
G01 X29.9339 Y-5.4610
G01 X29.9396 Y-5.4563
G01 X29.9543 Y-5.4430
G01 X29.9595 Y-5.4378
G01 X29.9728 Y-5.4231
G01 X29.9955 Y-5.3955
G01 X30.0714 Y-5.3332
G01 X30.1580 Y-5.2870
G01 X30.2604 Y-5.2557
G01 X30.2824 Y-5.2474
G01 X30.3003 Y-5.2389
G01 X30.3068 Y-5.2355
G01 X30.3238 Y-5.2253
G01 X30.3329 Y-5.2190
G01 X30.3488 Y-5.2071
G01 X30.3636 Y-5.1939
G01 X30.3715 Y-5.1862
G01 X30.3848 Y-5.1715
G01 X30.3895 Y-5.1658
G01 X30.4013 Y-5.1498
G01 X30.4073 Y-5.1406
G01 X30.4173 Y-5.1235
G01 X30.4275 Y-5.1023
G01 X30.4316 Y-5.0920
G01 X30.4381 Y-5.0733
G01 X30.4431 Y-5.0541
G01 X30.4454 Y-5.0433
G01 X30.4487 Y-5.0200
G01 X30.4501 Y-4.9929
G01 X30.4501 Y-4.4406
G01 X30.4490 Y-4.4171
G01 X30.4474 Y-4.4000
G01 X30.4580 Y-4.2922
G01 X30.4895 Y-4.1885
G01 X30.5405 Y-4.0930
G01 X30.6093 Y-4.0093
G01 X30.6225 Y-3.9983
G01 X30.6399 Y-3.9824
G01 X30.9689 Y-3.6533
G01 X30.9846 Y-3.6358
G01 X31.0008 Y-3.6139
G01 X31.0148 Y-3.5906
G01 X31.0250 Y-3.5694
G01 X31.0278 Y-3.5626
G01 X31.0345 Y-3.5439
G01 X31.0366 Y-3.5369
G01 X31.0414 Y-3.5177
G01 X31.0429 Y-3.5104
G01 X31.0458 Y-3.4908
G01 X31.0473 Y-3.4674
G01 X31.0475 Y-2.8632
G01 X31.0585 Y-2.7519
G01 X31.0870 Y-2.6580
G01 X31.1332 Y-2.5714
G01 X31.1955 Y-2.4955
G01 X31.2714 Y-2.4332
G01 X31.3580 Y-2.3870
G01 X31.4519 Y-2.3585
G01 X31.5632 Y-2.3475
G01 X32.2368 Y-2.3475
G01 X32.3481 Y-2.3585
G01 X32.4420 Y-2.3870
G01 X32.5286 Y-2.4332
G01 X32.6044 Y-2.4955
G01 X32.6760 Y-2.5829
G01 X32.6858 Y-2.5958
G01 X32.7015 Y-2.6133
G01 X32.7094 Y-2.6210
G01 X32.7242 Y-2.6342
G01 X32.7430 Y-2.6483
G01 X32.7523 Y-2.6543
G01 X32.7694 Y-2.6644
G01 X32.7906 Y-2.6745
G01 X32.8008 Y-2.6786
G01 X32.8231 Y-2.6862
G01 X32.8459 Y-2.6918
G01 X32.8692 Y-2.6953
G01 X32.8802 Y-2.6963
G01 X32.9037 Y-2.6970
G01 X32.9272 Y-2.6958
G01 X32.9468 Y-2.6930
G01 X32.9577 Y-2.6910
G01 X32.9804 Y-2.6852
G01 X33.0026 Y-2.6774
G01 X33.0128 Y-2.6730
G01 X33.0306 Y-2.6644
G01 X33.0508 Y-2.6524
G01 X33.0600 Y-2.6461
G01 X33.0758 Y-2.6342
G01 X33.0933 Y-2.6185
G01 X33.1010 Y-2.6106
G01 X33.1142 Y-2.5958
G01 X33.1254 Y-2.5810
G01 X33.1955 Y-2.4955
G01 X33.2714 Y-2.4332
G01 X33.3580 Y-2.3870
G01 X33.4519 Y-2.3585
G01 X33.5632 Y-2.3475
G01 X34.2368 Y-2.3475
G01 X34.3481 Y-2.3585
G01 X34.4420 Y-2.3870
G01 X34.5286 Y-2.4332
G01 X34.6045 Y-2.4955
