(G-CODE GENERATED BY FLATCAM v8.994 - www.flatcam.org - Version Date: 2020/11/7)

(Name: pid_smt_oven.drl_cnc)
(Type: G-code from Geometry)
(Units: MM)

(Created on Sunday, 24 October 2021 at 20:38)

(This preprocessor is the default preprocessor used by FlatCAM.)
(It is made to work with MACH3 compatible motion controllers.)


(TOOLS DIAMETER: )
(Tool: 1 -> Dia: 0.8)
(Tool: 2 -> Dia: 1.6)
(Tool: 3 -> Dia: 2.0)

(FEEDRATE Z: )
(Tool: 1 -> Feedrate: 15.0)
(Tool: 2 -> Feedrate: 15.0)
(Tool: 3 -> Feedrate: 15.0)

(FEEDRATE RAPIDS: )
(Tool: 1 -> Feedrate Rapids: 1500)
(Tool: 2 -> Feedrate Rapids: 1500)
(Tool: 3 -> Feedrate Rapids: 1500)

(Z_CUT: )
(Tool: 1 -> Z_Cut: -1.8)
(Tool: 2 -> Z_Cut: -1.8)
(Tool: 3 -> Z_Cut: -1.85)

(Tools Offset: )
(Tool: 3 -> Offset Z: 0.0)

(Z_MOVE: )
(Tool: 1 -> Z_Move: 0.8)
(Tool: 2 -> Z_Move: 0.8)
(Tool: 3 -> Z_Move: 0.8)

(Z Toolchange: 2.0 mm)
(X,Y Toolchange: 0.0000, 0.0000 mm)
(Z Start: None mm)
(Z End: 16.0 mm)
(X,Y End: None mm)
(Steps per circle: 64)
(Preprocessor Excellon: default)

(X range:    2.3000 ...   67.3000  mm)
(Y range:  -42.9000 ...   -2.0000  mm)

(Spindle Speed: 7000 RPM)
G21
G90
G94

$1=255		
G01 F15.00

M5
G00 Z2.0000
T3
G00 X0.0000 Y0.0000                
M6
(MSG, Change to Tool Dia = 2.0000 ||| Total drills for tool T3 = 4)
M0
G00 Z2.0000

G01 F15.00
M03 S7000
G00 X3.3000 Y-3.0000
G01 Z-1.8500
G01 Z0
G00 Z0.8000
G00 X3.3000 Y-41.7000
G01 Z-1.8500
G01 Z0
G00 Z0.8000
G00 X66.3000 Y-41.7000
G01 Z-1.8500
G01 Z0
G00 Z0.8000
G00 X66.3000 Y-3.1000
G01 Z-1.8500
G01 Z0
G00 Z0.8000
M05
G00 Z16.00


$1=254
