(G-CODE GENERATED BY FLATCAM v8.994 - www.flatcam.org - Version Date: 2020/11/7)

(Name: pid_smt_oven-F_Cu_punched_iso_combined_1_cnc)
(Type: G-code from Geometry)
(Units: MM)

(Created on Sunday, 24 October 2021 at 20:13)

(This preprocessor is the default preprocessor used by FlatCAM.)
(It is made to work with MACH3 compatible motion controllers.)

(TOOL DIAMETER: 0.16 mm)
(Feedrate_XY: 110.0 mm/min)
(Feedrate_Z: 30.0 mm/min)
(Feedrate rapids 1500.0 mm/min)

(Z_Cut: -0.061 mm)
(Z_Move: 0.7 mm)
(Z Start: None mm)
(Z End: 25.0 mm)
(X,Y End: None mm)
(Steps per circle: 64)
(Preprocessor Geometry: default)

(X range:    1.8275 ...   67.5687  mm)
(Y range:  -43.4698 ...   -1.6801  mm)

(Spindle Speed: 12000.0 RPM)
G21
G90
G94

$1=255		
G01 F110.00

M5
G00 Z2.0000
G00 X0.0000 Y0.0000
T1
M6    
(MSG, Change to Tool Dia = 0.1600)
M0
G00 Z2.0000

M03 S12000.0
G01 F110.00
G00 X66.4199 Y-41.7000
G01 F30.00
G01 Z-0.0610
G01 F110.00
G01 X66.4193 Y-41.7118
G01 X66.4176 Y-41.7234
G01 X66.4147 Y-41.7348
G01 X66.4108 Y-41.7459
G01 X66.4057 Y-41.7565
G01 X66.3997 Y-41.7666
G01 X66.3927 Y-41.7761
G01 X66.3848 Y-41.7848
G01 X66.3761 Y-41.7927
G01 X66.3666 Y-41.7997
G01 X66.3565 Y-41.8057
G01 X66.3459 Y-41.8108
G01 X66.3348 Y-41.8147
G01 X66.3234 Y-41.8176
G01 X66.3118 Y-41.8193
G01 X66.3000 Y-41.8199
G01 X66.2882 Y-41.8193
G01 X66.2766 Y-41.8176
G01 X66.2652 Y-41.8147
G01 X66.2541 Y-41.8108
G01 X66.2435 Y-41.8057
G01 X66.2334 Y-41.7997
G01 X66.2239 Y-41.7927
G01 X66.2152 Y-41.7848
G01 X66.2073 Y-41.7761
G01 X66.2003 Y-41.7666
G01 X66.1943 Y-41.7565
G01 X66.1892 Y-41.7459
G01 X66.1853 Y-41.7348
G01 X66.1824 Y-41.7234
G01 X66.1807 Y-41.7118
G01 X66.1801 Y-41.7000
G01 X66.1807 Y-41.6882
G01 X66.1824 Y-41.6766
G01 X66.1853 Y-41.6652
G01 X66.1892 Y-41.6541
G01 X66.1943 Y-41.6435
G01 X66.2003 Y-41.6334
G01 X66.2073 Y-41.6239
G01 X66.2152 Y-41.6152
G01 X66.2239 Y-41.6073
G01 X66.2334 Y-41.6003
G01 X66.2435 Y-41.5943
G01 X66.2541 Y-41.5892
G01 X66.2652 Y-41.5853
G01 X66.2766 Y-41.5824
G01 X66.2882 Y-41.5807
G01 X66.3000 Y-41.5801
G01 X66.3118 Y-41.5807
G01 X66.3234 Y-41.5824
G01 X66.3348 Y-41.5853
G01 X66.3459 Y-41.5892
G01 X66.3565 Y-41.5943
G01 X66.3666 Y-41.6003
G01 X66.3761 Y-41.6073
G01 X66.3848 Y-41.6152
G01 X66.3927 Y-41.6239
G01 X66.3997 Y-41.6334
G01 X66.4057 Y-41.6435
G01 X66.4108 Y-41.6541
G01 X66.4147 Y-41.6652
G01 X66.4176 Y-41.6766
G01 X66.4193 Y-41.6882
G01 X66.4199 Y-41.7000
G00 Z0.7000
G00 X66.4199 Y-41.7000
G01 F30.00
G01 Z-0.0610
G01 F110.00
G01 X66.4193 Y-41.7118
G01 X66.4176 Y-41.7234
G01 X66.4147 Y-41.7348
G01 X66.4108 Y-41.7459
G01 X66.4057 Y-41.7565
G01 X66.3997 Y-41.7666
G01 X66.3927 Y-41.7761
G01 X66.3848 Y-41.7848
G01 X66.3761 Y-41.7927
G01 X66.3666 Y-41.7997
G01 X66.3565 Y-41.8057
G01 X66.3459 Y-41.8108
G01 X66.3348 Y-41.8147
G01 X66.3234 Y-41.8176
G01 X66.3118 Y-41.8193
G01 X66.3000 Y-41.8199
G01 X66.2882 Y-41.8193
G01 X66.2766 Y-41.8176
G01 X66.2652 Y-41.8147
G01 X66.2541 Y-41.8108
G01 X66.2435 Y-41.8057
G01 X66.2334 Y-41.7997
G01 X66.2239 Y-41.7927
G01 X66.2152 Y-41.7848
G01 X66.2073 Y-41.7761
G01 X66.2003 Y-41.7666
G01 X66.1943 Y-41.7565
G01 X66.1892 Y-41.7459
G01 X66.1853 Y-41.7348
G01 X66.1824 Y-41.7234
G01 X66.1807 Y-41.7118
G01 X66.1801 Y-41.7000
G01 X66.1807 Y-41.6882
G01 X66.1824 Y-41.6766
G01 X66.1853 Y-41.6652
G01 X66.1892 Y-41.6541
G01 X66.1943 Y-41.6435
G01 X66.2003 Y-41.6334
G01 X66.2073 Y-41.6239
G01 X66.2152 Y-41.6152
G01 X66.2239 Y-41.6073
G01 X66.2334 Y-41.6003
G01 X66.2435 Y-41.5943
G01 X66.2541 Y-41.5892
G01 X66.2652 Y-41.5853
G01 X66.2766 Y-41.5824
G01 X66.2882 Y-41.5807
G01 X66.3000 Y-41.5801
G01 X66.3118 Y-41.5807
G01 X66.3234 Y-41.5824
G01 X66.3348 Y-41.5853
G01 X66.3459 Y-41.5892
G01 X66.3565 Y-41.5943
G01 X66.3666 Y-41.6003
G01 X66.3761 Y-41.6073
G01 X66.3848 Y-41.6152
G01 X66.3927 Y-41.6239
G01 X66.3997 Y-41.6334
G01 X66.4057 Y-41.6435
G01 X66.4108 Y-41.6541
G01 X66.4147 Y-41.6652
G01 X66.4176 Y-41.6766
G01 X66.4193 Y-41.6882
G01 X66.4199 Y-41.7000
G00 Z0.7000
G00 X66.3686 Y-41.7000
G01 F30.00
G01 Z-0.0610
G01 F110.00
G01 X66.3683 Y-41.7067
G01 X66.3673 Y-41.7134
G01 X66.3657 Y-41.7199
G01 X66.3634 Y-41.7263
G01 X66.3605 Y-41.7324
G01 X66.3571 Y-41.7381
G01 X66.3531 Y-41.7435
G01 X66.3485 Y-41.7485
G01 X66.3435 Y-41.7531
G01 X66.3381 Y-41.7571
G01 X66.3324 Y-41.7605
G01 X66.3263 Y-41.7634
G01 X66.3199 Y-41.7657
G01 X66.3134 Y-41.7673
G01 X66.3067 Y-41.7683
G01 X66.3000 Y-41.7686
G01 X66.2933 Y-41.7683
G01 X66.2866 Y-41.7673
G01 X66.2801 Y-41.7657
G01 X66.2737 Y-41.7634
G01 X66.2676 Y-41.7605
G01 X66.2619 Y-41.7571
G01 X66.2565 Y-41.7531
G01 X66.2515 Y-41.7485
G01 X66.2469 Y-41.7435
G01 X66.2429 Y-41.7381
G01 X66.2395 Y-41.7324
G01 X66.2366 Y-41.7263
G01 X66.2343 Y-41.7199
G01 X66.2327 Y-41.7134
G01 X66.2317 Y-41.7067
G01 X66.2314 Y-41.7000
G01 X66.2317 Y-41.6933
G01 X66.2327 Y-41.6866
G01 X66.2343 Y-41.6801
G01 X66.2366 Y-41.6737
G01 X66.2395 Y-41.6676
G01 X66.2429 Y-41.6619
G01 X66.2469 Y-41.6565
G01 X66.2515 Y-41.6515
G01 X66.2565 Y-41.6469
G01 X66.2619 Y-41.6429
G01 X66.2676 Y-41.6395
G01 X66.2737 Y-41.6366
G01 X66.2801 Y-41.6343
G01 X66.2866 Y-41.6327
G01 X66.2933 Y-41.6317
G01 X66.3000 Y-41.6314
G01 X66.3067 Y-41.6317
G01 X66.3134 Y-41.6327
G01 X66.3199 Y-41.6343
G01 X66.3263 Y-41.6366
G01 X66.3324 Y-41.6395
G01 X66.3381 Y-41.6429
G01 X66.3435 Y-41.6469
G01 X66.3485 Y-41.6515
G01 X66.3531 Y-41.6565
G01 X66.3571 Y-41.6619
G01 X66.3605 Y-41.6676
G01 X66.3634 Y-41.6737
G01 X66.3657 Y-41.6801
G01 X66.3673 Y-41.6866
G01 X66.3683 Y-41.6933
G01 X66.3686 Y-41.7000
G00 Z0.7000
G00 X66.3174 Y-41.7000
G01 F30.00
G01 Z-0.0610
G01 F110.00
G01 X66.3170 Y-41.7034
G01 X66.3161 Y-41.7067
G01 X66.3145 Y-41.7097
G01 X66.3123 Y-41.7123
G01 X66.3097 Y-41.7145
G01 X66.3067 Y-41.7161
G01 X66.3034 Y-41.7170
G01 X66.3000 Y-41.7174
G01 X66.2966 Y-41.7170
G01 X66.2933 Y-41.7161
G01 X66.2903 Y-41.7145
G01 X66.2877 Y-41.7123
G01 X66.2855 Y-41.7097
G01 X66.2839 Y-41.7067
G01 X66.2830 Y-41.7034
G01 X66.2826 Y-41.7000
G01 X66.2830 Y-41.6966
G01 X66.2839 Y-41.6933
G01 X66.2855 Y-41.6903
G01 X66.2877 Y-41.6877
G01 X66.2903 Y-41.6855
G01 X66.2933 Y-41.6839
G01 X66.2966 Y-41.6830
G01 X66.3000 Y-41.6826
G01 X66.3034 Y-41.6830
G01 X66.3067 Y-41.6839
G01 X66.3097 Y-41.6855
G01 X66.3123 Y-41.6877
G01 X66.3145 Y-41.6903
G01 X66.3161 Y-41.6933
G01 X66.3170 Y-41.6966
G01 X66.3174 Y-41.7000
G00 Z0.7000
G00 X67.4310 Y-41.6936
G01 F30.00
G01 Z-0.0610
G01 F110.00
G01 X67.4258 Y-41.5891
G01 X67.4095 Y-41.4793
G01 X67.3825 Y-41.3716
G01 X67.3451 Y-41.2671
G01 X67.2976 Y-41.1668
G01 X67.2406 Y-41.0715
G01 X67.1744 Y-40.9824
G01 X67.0999 Y-40.9001
G01 X67.0176 Y-40.8256
G01 X66.9285 Y-40.7594
G01 X66.8332 Y-40.7024
G01 X66.7329 Y-40.6549
G01 X66.6284 Y-40.6175
G01 X66.5207 Y-40.5905
G01 X66.4109 Y-40.5742
G01 X66.3000 Y-40.5688
G01 X66.1891 Y-40.5742
G01 X66.0793 Y-40.5905
G01 X65.9716 Y-40.6175
G01 X65.8671 Y-40.6549
G01 X65.7668 Y-40.7024
G01 X65.6715 Y-40.7594
G01 X65.5824 Y-40.8256
G01 X65.5001 Y-40.9001
G01 X65.4256 Y-40.9824
G01 X65.3594 Y-41.0715
G01 X65.3024 Y-41.1668
G01 X65.2549 Y-41.2671
G01 X65.2175 Y-41.3716
G01 X65.1905 Y-41.4793
G01 X65.1742 Y-41.5891
G01 X65.1688 Y-41.7000
G01 X65.1742 Y-41.8109
G01 X65.1905 Y-41.9207
G01 X65.2175 Y-42.0284
G01 X65.2549 Y-42.1329
G01 X65.3024 Y-42.2332
G01 X65.3594 Y-42.3285
G01 X65.4256 Y-42.4176
G01 X65.5001 Y-42.4999
G01 X65.5824 Y-42.5744
G01 X65.6715 Y-42.6406
G01 X65.7668 Y-42.6976
G01 X65.8671 Y-42.7451
G01 X65.9716 Y-42.7825
G01 X66.0793 Y-42.8095
G01 X66.1891 Y-42.8258
G01 X66.3000 Y-42.8312
G01 X66.4109 Y-42.8258
G01 X66.5207 Y-42.8095
G01 X66.6284 Y-42.7825
G01 X66.7329 Y-42.7451
G01 X66.8332 Y-42.6976
G01 X66.9285 Y-42.6406
G01 X67.0176 Y-42.5744
G01 X67.0999 Y-42.4999
G01 X67.1744 Y-42.4176
G01 X67.2406 Y-42.3285
G01 X67.2976 Y-42.2332
G01 X67.3451 Y-42.1329
G01 X67.3825 Y-42.0284
G01 X67.4095 Y-41.9207
G01 X67.4258 Y-41.8109
G01 X67.4310 Y-41.7064
G01 X67.4310 Y-41.6936
G00 Z0.7000
G00 X67.4822 Y-41.6911
G01 F30.00
G01 Z-0.0610
G01 F110.00
G01 X67.4767 Y-41.5841
G01 X67.4597 Y-41.4693
G01 X67.4315 Y-41.3568
G01 X67.3924 Y-41.2475
G01 X67.3428 Y-41.1426
G01 X67.2831 Y-41.0431
G01 X67.2140 Y-40.9499
G01 X67.1361 Y-40.8639
G01 X67.0501 Y-40.7860
G01 X66.9569 Y-40.7169
G01 X66.8574 Y-40.6572
G01 X66.7525 Y-40.6076
G01 X66.6432 Y-40.5685
G01 X66.5307 Y-40.5403
G01 X66.4159 Y-40.5233
G01 X66.3000 Y-40.5176
G01 X66.1841 Y-40.5233
G01 X66.0693 Y-40.5403
G01 X65.9568 Y-40.5685
G01 X65.8475 Y-40.6076
G01 X65.7426 Y-40.6572
G01 X65.6431 Y-40.7169
G01 X65.5499 Y-40.7860
G01 X65.4639 Y-40.8639
G01 X65.3860 Y-40.9499
G01 X65.3169 Y-41.0431
G01 X65.2572 Y-41.1426
G01 X65.2076 Y-41.2475
G01 X65.1685 Y-41.3568
G01 X65.1403 Y-41.4693
G01 X65.1233 Y-41.5841
G01 X65.1176 Y-41.7000
G01 X65.1233 Y-41.8159
G01 X65.1403 Y-41.9307
G01 X65.1685 Y-42.0432
G01 X65.2076 Y-42.1525
G01 X65.2572 Y-42.2574
G01 X65.3169 Y-42.3569
G01 X65.3860 Y-42.4501
G01 X65.4639 Y-42.5361
G01 X65.5499 Y-42.6140
G01 X65.6431 Y-42.6831
G01 X65.7426 Y-42.7428
G01 X65.8475 Y-42.7924
G01 X65.9568 Y-42.8315
G01 X66.0693 Y-42.8597
G01 X66.1841 Y-42.8767
G01 X66.3000 Y-42.8824
G01 X66.4159 Y-42.8767
G01 X66.5307 Y-42.8597
G01 X66.6432 Y-42.8315
G01 X66.7525 Y-42.7924
G01 X66.8574 Y-42.7428
G01 X66.9569 Y-42.6831
G01 X67.0501 Y-42.6140
G01 X67.1361 Y-42.5361
G01 X67.2140 Y-42.4501
G01 X67.2831 Y-42.3569
G01 X67.3428 Y-42.2574
G01 X67.3924 Y-42.1525
G01 X67.4315 Y-42.0432
G01 X67.4597 Y-41.9307
G01 X67.4767 Y-41.8159
G01 X67.4822 Y-41.7089
G01 X67.4822 Y-41.6911
G00 Z0.7000
G00 X65.0825 Y-41.5801
G01 F30.00
G01 Z-0.0610
G01 F110.00
G01 X65.1293 Y-41.3449
G01 X65.2210 Y-41.1233
G01 X65.3543 Y-40.9239
G01 X65.5239 Y-40.7543
G01 X65.7233 Y-40.6210
G01 X65.9449 Y-40.5293
G01 X66.1801 Y-40.4825
G01 X66.4199 Y-40.4825
G01 X66.6551 Y-40.5293
G01 X66.8767 Y-40.6210
G01 X67.0761 Y-40.7543
G01 X67.2457 Y-40.9239
G01 X67.3790 Y-41.1233
G01 X67.4707 Y-41.3449
G01 X67.5175 Y-41.5801
G01 X67.5175 Y-41.8199
G01 X67.4707 Y-42.0551
G01 X67.3790 Y-42.2767
G01 X67.2457 Y-42.4761
G01 X67.0761 Y-42.6457
G01 X66.8767 Y-42.7790
G01 X66.6551 Y-42.8707
G01 X66.4199 Y-42.9175
G01 X66.1801 Y-42.9175
G01 X65.9449 Y-42.8707
G01 X65.7233 Y-42.7790
G01 X65.5239 Y-42.6457
G01 X65.3543 Y-42.4761
G01 X65.2210 Y-42.2767
G01 X65.1293 Y-42.0551
G01 X65.0825 Y-41.8199
G01 X65.0825 Y-41.5801
G00 Z0.7000
G00 X65.0313 Y-41.5750
G01 F30.00
G01 Z-0.0610
G01 F110.00
G01 X65.0800 Y-41.3299
G01 X65.1757 Y-41.0990
G01 X65.3145 Y-40.8912
G01 X65.4912 Y-40.7145
G01 X65.6990 Y-40.5757
G01 X65.9299 Y-40.4800
G01 X66.1750 Y-40.4313
G01 X66.4250 Y-40.4313
G01 X66.6701 Y-40.4800
G01 X66.9010 Y-40.5757
G01 X67.1088 Y-40.7145
G01 X67.2855 Y-40.8912
G01 X67.4243 Y-41.0990
G01 X67.5200 Y-41.3299
G01 X67.5687 Y-41.5750
G01 X67.5687 Y-41.8250
G01 X67.5200 Y-42.0701
G01 X67.4243 Y-42.3010
G01 X67.2855 Y-42.5088
G01 X67.1088 Y-42.6855
G01 X66.9010 Y-42.8243
G01 X66.6701 Y-42.9200
G01 X66.4250 Y-42.9687
G01 X66.1750 Y-42.9687
G01 X65.9299 Y-42.9200
G01 X65.6990 Y-42.8243
G01 X65.4912 Y-42.6855
G01 X65.3145 Y-42.5088
G01 X65.1757 Y-42.3010
G01 X65.0800 Y-42.0701
G01 X65.0313 Y-41.8250
G01 X65.0313 Y-41.5750
G00 Z0.7000
G00 X61.4337 Y-40.8415
G01 F30.00
G01 Z-0.0610
G01 F110.00
G01 X61.4569 Y-40.8239
G01 X61.4838 Y-40.8000
G01 X61.4961 Y-40.7880
G01 X61.5164 Y-40.7656
G01 X61.5275 Y-40.7525
G01 X61.5489 Y-40.7236
G01 X61.5553 Y-40.7140
G01 X61.5678 Y-40.6933
G01 X61.5639 Y-40.7326
G01 X61.5544 Y-40.7640
G01 X61.5390 Y-40.7929
G01 X61.5182 Y-40.8182
G01 X61.4929 Y-40.8390
G01 X61.4640 Y-40.8544
G01 X61.4337 Y-40.8636
G01 X61.4337 Y-40.8415
G00 Z0.7000
G00 X61.3825 Y-40.9198
G01 F30.00
G01 Z-0.0610
G01 F110.00
G01 X61.3826 Y-40.8146
G01 X61.3941 Y-40.8071
G01 X61.4210 Y-40.7871
G01 X61.4312 Y-40.7785
G01 X61.4527 Y-40.7590
G01 X61.4620 Y-40.7494
G01 X61.4843 Y-40.7245
G01 X61.5071 Y-40.6941
G01 X61.5120 Y-40.6867
G01 X61.5270 Y-40.6618
G01 X61.5335 Y-40.6501
G01 X61.5495 Y-40.6157
G01 X61.5610 Y-40.5843
G01 X61.5650 Y-40.5715
G01 X61.5741 Y-40.5347
G01 X61.5798 Y-40.4972
G01 X61.5810 Y-40.4825
G01 X61.6187 Y-40.4825
G01 X61.6200 Y-40.6858
G01 X61.6144 Y-40.7426
G01 X61.6019 Y-40.7837
G01 X61.5818 Y-40.8214
G01 X61.5546 Y-40.8546
G01 X61.5214 Y-40.8818
G01 X61.4837 Y-40.9019
G01 X61.4426 Y-40.9144
G01 X61.3868 Y-40.9199
G01 X61.3825 Y-40.9198
G00 Z0.7000
G00 X61.3313 Y-40.9704
G01 F30.00
G01 Z-0.0610
G01 F110.00
G01 X61.3314 Y-40.7854
G01 X61.3620 Y-40.7670
G01 X61.3869 Y-40.7487
G01 X61.3969 Y-40.7406
G01 X61.4197 Y-40.7197
G01 X61.4406 Y-40.6969
G01 X61.4487 Y-40.6869
G01 X61.4670 Y-40.6620
G01 X61.4847 Y-40.6327
G01 X61.4891 Y-40.6242
G01 X61.4996 Y-40.6020
G01 X61.5045 Y-40.5901
G01 X61.5148 Y-40.5609
G01 X61.5232 Y-40.5278
G01 X61.5250 Y-40.5183
G01 X61.5286 Y-40.4941
G01 X61.5296 Y-40.4845
G01 X61.5312 Y-40.4536
G01 X61.5312 Y-40.4313
G01 X61.6695 Y-40.4313
G01 X61.6712 Y-40.6881
G01 X61.6648 Y-40.7527
G01 X61.6495 Y-40.8033
G01 X61.6245 Y-40.8500
G01 X61.5909 Y-40.8909
G01 X61.5500 Y-40.9245
G01 X61.5033 Y-40.9495
G01 X61.4527 Y-40.9648
G01 X61.3890 Y-40.9711
G01 X61.3313 Y-40.9704
G00 Z0.7000
G00 X61.2802 Y-40.7533
G01 F30.00
G01 Z-0.0610
G01 F110.00
G01 X61.3058 Y-40.7411
G01 X61.3335 Y-40.7245
G01 X61.3595 Y-40.7052
G01 X61.3806 Y-40.6862
G01 X61.3862 Y-40.6806
G01 X61.4026 Y-40.6625
G01 X61.4076 Y-40.6564
G01 X61.4245 Y-40.6335
G01 X61.4411 Y-40.6058
G01 X61.4549 Y-40.5765
G01 X61.4646 Y-40.5498
G01 X61.4669 Y-40.5423
G01 X61.4740 Y-40.5128
G01 X61.4784 Y-40.4827
G01 X61.4799 Y-40.4543
G01 X61.4800 Y-40.3801
G01 X61.7095 Y-40.3801
G01 X61.7205 Y-40.3911
G01 X61.7224 Y-40.6905
G01 X61.7153 Y-40.7627
G01 X61.6970 Y-40.8230
G01 X61.6673 Y-40.8786
G01 X61.6273 Y-40.9273
G01 X61.5786 Y-40.9673
G01 X61.5230 Y-40.9970
G01 X61.4627 Y-41.0153
G01 X61.3912 Y-41.0224
G01 X61.2916 Y-41.0211
G01 X61.2801 Y-41.0096
G01 X61.2802 Y-40.7533
G00 Z0.7000
G00 X61.3302 Y-39.0734
G01 F30.00
G01 Z-0.0610
G01 F110.00
G01 X61.3302 Y-38.5266
G01 X61.3367 Y-38.5222
G01 X61.3564 Y-38.5076
G01 X61.3625 Y-38.5026
G01 X61.3835 Y-38.4835
G01 X61.4052 Y-38.4595
G01 X61.4222 Y-38.4367
G01 X61.4266 Y-38.4302
G01 X61.4411 Y-38.4058
G01 X61.4541 Y-38.3783
G01 X61.4646 Y-38.3498
G01 X61.4669 Y-38.3423
G01 X61.4737 Y-38.3147
G01 X61.4782 Y-38.2847
G01 X61.4800 Y-38.2524
G01 X61.4800 Y-38.1801
G01 X61.7095 Y-38.1801
G01 X61.7205 Y-38.1911
G01 X61.7224 Y-38.4905
G01 X61.7153 Y-38.5627
G01 X61.6970 Y-38.6230
G01 X61.6656 Y-38.6818
G01 X61.6613 Y-38.6883
G01 X61.6529 Y-38.7024
G01 X61.6458 Y-38.7172
G01 X61.6428 Y-38.7244
G01 X61.6374 Y-38.7399
G01 X61.6325 Y-38.7596
G01 X61.6295 Y-38.7797
G01 X61.6285 Y-38.8000
G01 X61.6295 Y-38.8203
G01 X61.6325 Y-38.8404
G01 X61.6374 Y-38.8601
G01 X61.6428 Y-38.8756
G01 X61.6458 Y-38.8828
G01 X61.6529 Y-38.8976
G01 X61.6613 Y-38.9117
G01 X61.6656 Y-38.9182
G01 X61.6970 Y-38.9770
G01 X61.7153 Y-39.0373
G01 X61.7224 Y-39.1095
G01 X61.7205 Y-39.4089
G01 X61.7095 Y-39.4199
G01 X61.4800 Y-39.4199
G01 X61.4800 Y-39.3476
G01 X61.4782 Y-39.3153
G01 X61.4737 Y-39.2853
G01 X61.4669 Y-39.2577
G01 X61.4646 Y-39.2502
G01 X61.4541 Y-39.2217
G01 X61.4411 Y-39.1942
G01 X61.4266 Y-39.1698
G01 X61.4222 Y-39.1633
G01 X61.4052 Y-39.1405
G01 X61.3835 Y-39.1165
G01 X61.3625 Y-39.0974
G01 X61.3564 Y-39.0924
G01 X61.3367 Y-39.0778
G01 X61.3302 Y-39.0734
G00 Z0.7000
G00 X61.3814 Y-39.0472
G01 F30.00
G01 Z-0.0610
G01 F110.00
G01 X61.3814 Y-38.5528
G01 X61.3944 Y-38.5427
G01 X61.4174 Y-38.5219
G01 X61.4241 Y-38.5150
G01 X61.4406 Y-38.4969
G01 X61.4468 Y-38.4895
G01 X61.4652 Y-38.4646
G01 X61.4705 Y-38.4565
G01 X61.4862 Y-38.4299
G01 X61.4996 Y-38.4020
G01 X61.5045 Y-38.3901
G01 X61.5148 Y-38.3609
G01 X61.5225 Y-38.3310
G01 X61.5245 Y-38.3215
G01 X61.5286 Y-38.2941
G01 X61.5296 Y-38.2845
G01 X61.5312 Y-38.2536
G01 X61.5312 Y-38.2313
G01 X61.6695 Y-38.2313
G01 X61.6712 Y-38.4881
G01 X61.6648 Y-38.5527
G01 X61.6495 Y-38.6033
G01 X61.6219 Y-38.6549
G01 X61.6110 Y-38.6727
G01 X61.6063 Y-38.6811
G01 X61.5969 Y-38.7012
G01 X61.5904 Y-38.7189
G01 X61.5867 Y-38.7312
G01 X61.5817 Y-38.7528
G01 X61.5785 Y-38.7747
G01 X61.5773 Y-38.8000
G01 X61.5785 Y-38.8253
G01 X61.5817 Y-38.8472
G01 X61.5867 Y-38.8688
G01 X61.5904 Y-38.8811
G01 X61.5969 Y-38.8988
G01 X61.6063 Y-38.9189
G01 X61.6110 Y-38.9273
G01 X61.6219 Y-38.9451
G01 X61.6495 Y-38.9967
G01 X61.6648 Y-39.0473
G01 X61.6712 Y-39.1119
G01 X61.6695 Y-39.3687
G01 X61.5312 Y-39.3687
G01 X61.5312 Y-39.3464
G01 X61.5296 Y-39.3155
G01 X61.5286 Y-39.3059
G01 X61.5245 Y-39.2785
G01 X61.5225 Y-39.2690
G01 X61.5148 Y-39.2391
G01 X61.5045 Y-39.2099
G01 X61.4996 Y-39.1980
G01 X61.4862 Y-39.1701
G01 X61.4705 Y-39.1435
G01 X61.4652 Y-39.1354
G01 X61.4468 Y-39.1105
G01 X61.4406 Y-39.1031
G01 X61.4241 Y-39.0850
G01 X61.4174 Y-39.0781
G01 X61.3944 Y-39.0573
G01 X61.3814 Y-39.0472
G00 Z0.7000
G00 X61.4838 Y-38.8793
G01 F30.00
G01 Z-0.0610
G01 F110.00
G01 X61.4888 Y-38.8992
G01 X61.4921 Y-38.9102
G01 X61.5002 Y-38.9327
G01 X61.5046 Y-38.9433
G01 X61.5175 Y-38.9700
G01 X61.5339 Y-38.9977
G01 X61.5544 Y-39.0360
G01 X61.5639 Y-39.0674
G01 X61.5678 Y-39.1067
G01 X61.5522 Y-39.0811
G01 X61.5275 Y-39.0475
G01 X61.5202 Y-39.0387
G01 X61.5000 Y-39.0162
G01 X61.4921 Y-39.0079
G01 X61.4838 Y-39.0000
G01 X61.4838 Y-38.8793
G00 Z0.7000
G00 X61.5678 Y-38.4933
G01 F30.00
G01 Z-0.0610
G01 F110.00
G01 X61.5639 Y-38.5326
G01 X61.5544 Y-38.5640
G01 X61.5339 Y-38.6023
G01 X61.5175 Y-38.6300
G01 X61.5046 Y-38.6567
G01 X61.5002 Y-38.6673
G01 X61.4921 Y-38.6898
G01 X61.4888 Y-38.7008
G01 X61.4838 Y-38.7207
G01 X61.4838 Y-38.6000
G01 X61.4921 Y-38.5921
G01 X61.5000 Y-38.5838
G01 X61.5202 Y-38.5613
G01 X61.5275 Y-38.5525
G01 X61.5522 Y-38.5189
G01 X61.5678 Y-38.4933
G00 Z0.7000
G00 X61.5810 Y-38.2825
G01 F30.00
G01 Z-0.0610
G01 F110.00
G01 X61.6187 Y-38.2825
G01 X61.6200 Y-38.4858
G01 X61.6144 Y-38.5426
G01 X61.6019 Y-38.5837
G01 X61.5781 Y-38.6283
G01 X61.5670 Y-38.6463
G01 X61.5606 Y-38.6581
G01 X61.5496 Y-38.6816
G01 X61.5408 Y-38.7059
G01 X61.5382 Y-38.7145
G01 X61.5340 Y-38.7309
G01 X61.5305 Y-38.7484
G01 X61.5281 Y-38.7652
G01 X61.5272 Y-38.7741
G01 X61.5261 Y-38.7955
G01 X61.5261 Y-38.8045
G01 X61.5276 Y-38.8303
G01 X61.5312 Y-38.8560
G01 X61.5330 Y-38.8648
G01 X61.5370 Y-38.8812
G01 X61.5422 Y-38.8983
G01 X61.5496 Y-38.9184
G01 X61.5606 Y-38.9419
G01 X61.5670 Y-38.9537
G01 X61.5781 Y-38.9717
G01 X61.6019 Y-39.0163
G01 X61.6144 Y-39.0574
G01 X61.6200 Y-39.1142
G01 X61.6187 Y-39.3175
G01 X61.5810 Y-39.3175
G01 X61.5798 Y-39.3028
G01 X61.5749 Y-39.2697
G01 X61.5721 Y-39.2566
G01 X61.5650 Y-39.2285
G01 X61.5610 Y-39.2157
G01 X61.5495 Y-39.1843
G01 X61.5335 Y-39.1499
G01 X61.5270 Y-39.1382
G01 X61.5096 Y-39.1096
G01 X61.4871 Y-39.0790
G01 X61.4785 Y-39.0688
G01 X61.4590 Y-39.0473
G01 X61.4527 Y-39.0410
G01 X61.4326 Y-39.0227
G01 X61.4326 Y-38.5773
G01 X61.4527 Y-38.5590
G01 X61.4590 Y-38.5527
G01 X61.4785 Y-38.5312
G01 X61.4871 Y-38.5210
G01 X61.5096 Y-38.4904
G01 X61.5270 Y-38.4618
G01 X61.5335 Y-38.4501
G01 X61.5495 Y-38.4157
G01 X61.5610 Y-38.3843
G01 X61.5650 Y-38.3715
G01 X61.5721 Y-38.3434
G01 X61.5749 Y-38.3303
G01 X61.5798 Y-38.2972
G01 X61.5810 Y-38.2825
G00 Z0.7000
G00 X61.3302 Y-36.8734
G01 F30.00
G01 Z-0.0610
G01 F110.00
G01 X61.3302 Y-36.3266
G01 X61.3367 Y-36.3222
G01 X61.3564 Y-36.3076
G01 X61.3625 Y-36.3026
G01 X61.3835 Y-36.2835
G01 X61.4052 Y-36.2595
G01 X61.4222 Y-36.2367
G01 X61.4266 Y-36.2302
G01 X61.4411 Y-36.2058
G01 X61.4541 Y-36.1783
G01 X61.4646 Y-36.1498
G01 X61.4669 Y-36.1423
G01 X61.4737 Y-36.1147
G01 X61.4782 Y-36.0847
G01 X61.4800 Y-36.0524
G01 X61.4800 Y-35.9801
G01 X61.7095 Y-35.9801
G01 X61.7205 Y-35.9911
G01 X61.7224 Y-36.2905
G01 X61.7153 Y-36.3627
G01 X61.6970 Y-36.4230
G01 X61.6656 Y-36.4818
G01 X61.6613 Y-36.4883
G01 X61.6529 Y-36.5024
G01 X61.6458 Y-36.5172
G01 X61.6428 Y-36.5244
G01 X61.6374 Y-36.5399
G01 X61.6325 Y-36.5596
G01 X61.6295 Y-36.5797
G01 X61.6285 Y-36.6000
G01 X61.6295 Y-36.6203
G01 X61.6325 Y-36.6404
G01 X61.6374 Y-36.6601
G01 X61.6428 Y-36.6756
G01 X61.6458 Y-36.6828
G01 X61.6529 Y-36.6976
G01 X61.6613 Y-36.7117
G01 X61.6656 Y-36.7182
G01 X61.6970 Y-36.7770
G01 X61.7153 Y-36.8373
G01 X61.7224 Y-36.9095
G01 X61.7205 Y-37.2089
G01 X61.7095 Y-37.2199
G01 X61.4800 Y-37.2199
G01 X61.4800 Y-37.1476
G01 X61.4782 Y-37.1153
G01 X61.4737 Y-37.0853
G01 X61.4669 Y-37.0577
G01 X61.4646 Y-37.0502
G01 X61.4541 Y-37.0217
G01 X61.4411 Y-36.9942
G01 X61.4266 Y-36.9698
G01 X61.4222 Y-36.9633
G01 X61.4052 Y-36.9405
G01 X61.3835 Y-36.9165
G01 X61.3625 Y-36.8974
G01 X61.3564 Y-36.8924
G01 X61.3367 Y-36.8778
G01 X61.3302 Y-36.8734
G00 Z0.7000
G00 X61.3814 Y-36.8472
G01 F30.00
G01 Z-0.0610
G01 F110.00
G01 X61.3814 Y-36.3528
G01 X61.3944 Y-36.3427
G01 X61.4174 Y-36.3219
G01 X61.4241 Y-36.3150
G01 X61.4406 Y-36.2969
G01 X61.4468 Y-36.2895
G01 X61.4652 Y-36.2646
G01 X61.4705 Y-36.2565
G01 X61.4862 Y-36.2299
G01 X61.4996 Y-36.2020
G01 X61.5045 Y-36.1901
G01 X61.5148 Y-36.1609
G01 X61.5225 Y-36.1310
G01 X61.5245 Y-36.1215
G01 X61.5286 Y-36.0941
G01 X61.5296 Y-36.0845
G01 X61.5312 Y-36.0536
G01 X61.5312 Y-36.0313
G01 X61.6695 Y-36.0313
G01 X61.6712 Y-36.2881
G01 X61.6648 Y-36.3527
G01 X61.6495 Y-36.4033
G01 X61.6219 Y-36.4549
G01 X61.6110 Y-36.4727
G01 X61.6063 Y-36.4811
G01 X61.5969 Y-36.5012
G01 X61.5904 Y-36.5189
G01 X61.5867 Y-36.5312
G01 X61.5817 Y-36.5528
G01 X61.5785 Y-36.5747
G01 X61.5773 Y-36.6000
G01 X61.5785 Y-36.6253
G01 X61.5817 Y-36.6472
G01 X61.5867 Y-36.6688
G01 X61.5904 Y-36.6811
G01 X61.5969 Y-36.6988
G01 X61.6063 Y-36.7189
G01 X61.6110 Y-36.7273
G01 X61.6219 Y-36.7451
G01 X61.6495 Y-36.7967
G01 X61.6648 Y-36.8473
G01 X61.6712 Y-36.9119
G01 X61.6695 Y-37.1687
G01 X61.5312 Y-37.1687
G01 X61.5312 Y-37.1464
G01 X61.5296 Y-37.1155
G01 X61.5286 Y-37.1059
G01 X61.5245 Y-37.0785
G01 X61.5225 Y-37.0690
G01 X61.5148 Y-37.0391
G01 X61.5045 Y-37.0099
G01 X61.4996 Y-36.9980
G01 X61.4862 Y-36.9701
G01 X61.4705 Y-36.9435
G01 X61.4652 Y-36.9354
G01 X61.4468 Y-36.9105
G01 X61.4406 Y-36.9031
G01 X61.4241 Y-36.8850
G01 X61.4174 Y-36.8781
G01 X61.3944 Y-36.8573
G01 X61.3814 Y-36.8472
G00 Z0.7000
G00 X61.4838 Y-36.6793
G01 F30.00
G01 Z-0.0610
G01 F110.00
G01 X61.4888 Y-36.6992
G01 X61.4921 Y-36.7102
G01 X61.5002 Y-36.7327
G01 X61.5046 Y-36.7433
G01 X61.5175 Y-36.7700
G01 X61.5339 Y-36.7977
G01 X61.5544 Y-36.8360
G01 X61.5639 Y-36.8674
G01 X61.5678 Y-36.9067
G01 X61.5522 Y-36.8811
G01 X61.5275 Y-36.8475
G01 X61.5202 Y-36.8387
G01 X61.5000 Y-36.8162
G01 X61.4921 Y-36.8079
G01 X61.4838 Y-36.8000
G01 X61.4838 Y-36.6793
G00 Z0.7000
G00 X61.5678 Y-36.2933
G01 F30.00
G01 Z-0.0610
G01 F110.00
G01 X61.5639 Y-36.3326
G01 X61.5544 Y-36.3640
G01 X61.5339 Y-36.4023
G01 X61.5175 Y-36.4300
G01 X61.5046 Y-36.4567
G01 X61.5002 Y-36.4673
G01 X61.4921 Y-36.4898
G01 X61.4888 Y-36.5008
G01 X61.4838 Y-36.5207
G01 X61.4838 Y-36.4000
G01 X61.4921 Y-36.3921
G01 X61.5000 Y-36.3838
G01 X61.5202 Y-36.3613
G01 X61.5275 Y-36.3525
G01 X61.5522 Y-36.3189
G01 X61.5678 Y-36.2933
G00 Z0.7000
G00 X61.5810 Y-36.0825
G01 F30.00
G01 Z-0.0610
G01 F110.00
G01 X61.6187 Y-36.0825
G01 X61.6200 Y-36.2858
G01 X61.6144 Y-36.3426
G01 X61.6019 Y-36.3837
G01 X61.5781 Y-36.4283
G01 X61.5670 Y-36.4463
G01 X61.5606 Y-36.4581
G01 X61.5496 Y-36.4816
G01 X61.5408 Y-36.5059
G01 X61.5382 Y-36.5145
G01 X61.5340 Y-36.5309
G01 X61.5305 Y-36.5484
G01 X61.5281 Y-36.5652
G01 X61.5272 Y-36.5741
G01 X61.5261 Y-36.5955
G01 X61.5261 Y-36.6045
G01 X61.5276 Y-36.6303
G01 X61.5312 Y-36.6560
G01 X61.5330 Y-36.6648
G01 X61.5370 Y-36.6812
G01 X61.5422 Y-36.6983
G01 X61.5496 Y-36.7184
G01 X61.5606 Y-36.7419
G01 X61.5670 Y-36.7537
G01 X61.5781 Y-36.7717
G01 X61.6019 Y-36.8163
G01 X61.6144 Y-36.8574
G01 X61.6200 Y-36.9142
G01 X61.6187 Y-37.1175
G01 X61.5810 Y-37.1175
G01 X61.5798 Y-37.1028
G01 X61.5749 Y-37.0697
G01 X61.5721 Y-37.0566
G01 X61.5650 Y-37.0285
G01 X61.5610 Y-37.0157
G01 X61.5495 Y-36.9843
G01 X61.5335 Y-36.9499
G01 X61.5270 Y-36.9382
G01 X61.5096 Y-36.9096
G01 X61.4871 Y-36.8790
G01 X61.4785 Y-36.8688
G01 X61.4590 Y-36.8473
G01 X61.4527 Y-36.8410
G01 X61.4326 Y-36.8227
G01 X61.4326 Y-36.3773
G01 X61.4527 Y-36.3590
G01 X61.4590 Y-36.3527
G01 X61.4785 Y-36.3312
G01 X61.4871 Y-36.3210
G01 X61.5096 Y-36.2904
G01 X61.5270 Y-36.2618
G01 X61.5335 Y-36.2501
G01 X61.5495 Y-36.2157
G01 X61.5610 Y-36.1843
G01 X61.5650 Y-36.1715
G01 X61.5721 Y-36.1434
G01 X61.5749 Y-36.1303
G01 X61.5798 Y-36.0972
G01 X61.5810 Y-36.0825
G00 Z0.7000
G00 X61.2801 Y-34.6467
G01 F30.00
G01 Z-0.0610
G01 F110.00
G01 X61.2801 Y-34.3905
G01 X61.2916 Y-34.3789
G01 X61.3912 Y-34.3776
G01 X61.4627 Y-34.3847
G01 X61.5230 Y-34.4030
G01 X61.5786 Y-34.4327
G01 X61.6273 Y-34.4727
G01 X61.6673 Y-34.5214
G01 X61.6970 Y-34.5770
G01 X61.7153 Y-34.6373
G01 X61.7224 Y-34.7095
G01 X61.7205 Y-35.0089
G01 X61.7095 Y-35.0199
G01 X61.4800 Y-35.0199
G01 X61.4799 Y-34.9457
G01 X61.4784 Y-34.9173
G01 X61.4740 Y-34.8872
G01 X61.4669 Y-34.8577
G01 X61.4646 Y-34.8502
G01 X61.4549 Y-34.8235
G01 X61.4411 Y-34.7942
G01 X61.4245 Y-34.7665
G01 X61.4076 Y-34.7436
G01 X61.4026 Y-34.7375
G01 X61.3862 Y-34.7194
G01 X61.3806 Y-34.7138
G01 X61.3595 Y-34.6948
G01 X61.3335 Y-34.6755
G01 X61.3058 Y-34.6589
G01 X61.2801 Y-34.6467
G00 Z0.7000
G00 X61.3313 Y-34.6145
G01 F30.00
G01 Z-0.0610
G01 F110.00
G01 X61.3313 Y-34.4296
G01 X61.3890 Y-34.4289
G01 X61.4527 Y-34.4352
G01 X61.5033 Y-34.4505
G01 X61.5500 Y-34.4755
G01 X61.5909 Y-34.5091
G01 X61.6245 Y-34.5500
G01 X61.6495 Y-34.5967
G01 X61.6648 Y-34.6473
G01 X61.6712 Y-34.7119
G01 X61.6695 Y-34.9687
G01 X61.5312 Y-34.9687
G01 X61.5312 Y-34.9464
G01 X61.5296 Y-34.9155
G01 X61.5286 Y-34.9059
G01 X61.5250 Y-34.8817
G01 X61.5232 Y-34.8722
G01 X61.5148 Y-34.8391
G01 X61.5045 Y-34.8099
G01 X61.4996 Y-34.7980
G01 X61.4891 Y-34.7758
G01 X61.4847 Y-34.7673
G01 X61.4670 Y-34.7380
G01 X61.4487 Y-34.7131
G01 X61.4406 Y-34.7031
G01 X61.4197 Y-34.6803
G01 X61.3969 Y-34.6594
G01 X61.3869 Y-34.6513
G01 X61.3620 Y-34.6330
G01 X61.3313 Y-34.6145
G00 Z0.7000
G00 X61.3825 Y-34.5854
G01 F30.00
G01 Z-0.0610
G01 F110.00
G01 X61.3825 Y-34.4802
G01 X61.3868 Y-34.4801
G01 X61.4426 Y-34.4856
G01 X61.4837 Y-34.4981
G01 X61.5214 Y-34.5182
G01 X61.5546 Y-34.5454
G01 X61.5818 Y-34.5786
G01 X61.6019 Y-34.6163
G01 X61.6144 Y-34.6574
G01 X61.6200 Y-34.7142
G01 X61.6187 Y-34.9175
G01 X61.5810 Y-34.9175
G01 X61.5798 Y-34.9028
G01 X61.5741 Y-34.8653
G01 X61.5650 Y-34.8285
G01 X61.5610 Y-34.8157
G01 X61.5495 Y-34.7843
G01 X61.5335 Y-34.7499
G01 X61.5270 Y-34.7382
G01 X61.5120 Y-34.7133
G01 X61.5071 Y-34.7059
G01 X61.4843 Y-34.6755
G01 X61.4620 Y-34.6506
G01 X61.4527 Y-34.6410
G01 X61.4312 Y-34.6215
G01 X61.4210 Y-34.6129
G01 X61.3941 Y-34.5929
G01 X61.3825 Y-34.5854
G00 Z0.7000
G00 X61.4337 Y-34.5585
G01 F30.00
G01 Z-0.0610
G01 F110.00
G01 X61.4337 Y-34.5364
G01 X61.4640 Y-34.5456
G01 X61.4929 Y-34.5610
G01 X61.5182 Y-34.5818
G01 X61.5390 Y-34.6071
G01 X61.5544 Y-34.6360
G01 X61.5639 Y-34.6674
G01 X61.5678 Y-34.7067
G01 X61.5553 Y-34.6860
G01 X61.5489 Y-34.6764
G01 X61.5275 Y-34.6475
G01 X61.5164 Y-34.6344
G01 X61.4961 Y-34.6120
G01 X61.4838 Y-34.6000
G01 X61.4569 Y-34.5761
G01 X61.4337 Y-34.5585
G00 Z0.7000
G00 X59.7343 Y-34.9075
G01 F30.00
G01 Z-0.0610
G01 F110.00
G01 X59.7472 Y-34.9075
G01 X59.7762 Y-34.9061
G01 X59.8007 Y-34.9033
G01 X59.8293 Y-34.8987
G01 X59.8454 Y-34.8951
G01 X59.8671 Y-34.8895
G01 X59.8656 Y-34.9086
G01 X59.8640 Y-34.9496
G01 X59.8640 Y-36.0504
G01 X59.8656 Y-36.0914
G01 X59.8677 Y-36.1160
G01 X59.8724 Y-36.1484
G01 X59.8753 Y-36.1646
G01 X59.8789 Y-36.1807
G01 X59.8892 Y-36.2204
G01 X59.8944 Y-36.2361
G01 X59.9086 Y-36.2745
G01 X59.9257 Y-36.3117
G01 X59.9331 Y-36.3264
G01 X59.9413 Y-36.3408
G01 X59.9627 Y-36.3757
G01 X59.9722 Y-36.3892
G01 X59.9918 Y-36.4155
G01 X60.0022 Y-36.4282
G01 X60.0298 Y-36.4586
G01 X60.0414 Y-36.4702
G01 X60.0639 Y-36.4908
G01 X60.0639 Y-36.7092
G01 X60.0355 Y-36.7355
G01 X60.0077 Y-36.7656
G01 X59.9918 Y-36.7845
G01 X59.9722 Y-36.8108
G01 X59.9582 Y-36.8312
G01 X59.9371 Y-36.8663
G01 X59.9293 Y-36.8809
G01 X59.9153 Y-36.9104
G01 X59.9055 Y-36.9332
G01 X59.8917 Y-36.9717
G01 X59.8869 Y-36.9875
G01 X59.8770 Y-37.0273
G01 X59.8737 Y-37.0435
G01 X59.8677 Y-37.0840
G01 X59.8661 Y-37.1004
G01 X59.8644 Y-37.1331
G01 X59.8640 Y-37.1496
G01 X59.8640 Y-38.2504
G01 X59.8656 Y-38.2914
G01 X59.8677 Y-38.3160
G01 X59.8724 Y-38.3484
G01 X59.8753 Y-38.3646
G01 X59.8789 Y-38.3807
G01 X59.8892 Y-38.4204
G01 X59.8944 Y-38.4361
G01 X59.9086 Y-38.4745
G01 X59.9257 Y-38.5117
G01 X59.9331 Y-38.5264
G01 X59.9413 Y-38.5408
G01 X59.9627 Y-38.5757
G01 X59.9722 Y-38.5892
G01 X59.9918 Y-38.6155
G01 X60.0022 Y-38.6282
G01 X60.0298 Y-38.6586
G01 X60.0414 Y-38.6702
G01 X60.0639 Y-38.6908
G01 X60.0639 Y-38.9092
G01 X60.0414 Y-38.9298
G01 X60.0298 Y-38.9414
G01 X60.0022 Y-38.9718
G01 X59.9918 Y-38.9845
G01 X59.9674 Y-39.0175
G01 X59.9582 Y-39.0312
G01 X59.9371 Y-39.0663
G01 X59.9293 Y-39.0809
G01 X59.9153 Y-39.1104
G01 X59.9086 Y-39.1255
G01 X59.9026 Y-39.1409
G01 X59.8892 Y-39.1796
G01 X59.8789 Y-39.2193
G01 X59.8753 Y-39.2354
G01 X59.8724 Y-39.2516
G01 X59.8668 Y-39.2922
G01 X59.8656 Y-39.3086
G01 X59.8640 Y-39.3496
G01 X59.8640 Y-40.4504
G01 X59.8656 Y-40.4914
G01 X59.8671 Y-40.5105
G01 X59.8454 Y-40.5049
G01 X59.8293 Y-40.5013
G01 X59.8007 Y-40.4967
G01 X59.7762 Y-40.4939
G01 X59.7472 Y-40.4925
G01 X59.7343 Y-40.4925
G01 X59.7356 Y-40.4669
G01 X59.7360 Y-40.4504
G01 X59.7360 Y-39.3496
G01 X59.7344 Y-39.3086
G01 X59.7332 Y-39.2922
G01 X59.7276 Y-39.2516
G01 X59.7230 Y-39.2273
G01 X59.7152 Y-39.1955
G01 X59.7108 Y-39.1796
G01 X59.7056 Y-39.1639
G01 X59.6914 Y-39.1255
G01 X59.6743 Y-39.0883
G01 X59.6669 Y-39.0736
G01 X59.6587 Y-39.0592
G01 X59.6373 Y-39.0243
G01 X59.6132 Y-38.9911
G01 X59.6031 Y-38.9781
G01 X59.5759 Y-38.9475
G01 X59.5645 Y-38.9355
G01 X59.5344 Y-38.9077
G01 X59.5219 Y-38.8969
G01 X59.5089 Y-38.8868
G01 X59.4863 Y-38.8701
G01 X59.4863 Y-38.7299
G01 X59.5155 Y-38.7082
G01 X59.5344 Y-38.6923
G01 X59.5645 Y-38.6645
G01 X59.5923 Y-38.6344
G01 X59.6082 Y-38.6155
G01 X59.6326 Y-38.5825
G01 X59.6418 Y-38.5688
G01 X59.6629 Y-38.5337
G01 X59.6743 Y-38.5117
G01 X59.6914 Y-38.4745
G01 X59.6974 Y-38.4591
G01 X59.7108 Y-38.4204
G01 X59.7211 Y-38.3807
G01 X59.7247 Y-38.3646
G01 X59.7312 Y-38.3242
G01 X59.7339 Y-38.2996
G01 X59.7356 Y-38.2669
G01 X59.7360 Y-38.2504
G01 X59.7360 Y-37.1496
G01 X59.7356 Y-37.1331
G01 X59.7339 Y-37.1004
G01 X59.7323 Y-37.0840
G01 X59.7276 Y-37.0516
G01 X59.7230 Y-37.0273
G01 X59.7131 Y-36.9875
G01 X59.7083 Y-36.9717
G01 X59.6945 Y-36.9332
G01 X59.6882 Y-36.9179
G01 X59.6707 Y-36.8809
G01 X59.6629 Y-36.8663
G01 X59.6418 Y-36.8312
G01 X59.6326 Y-36.8175
G01 X59.6082 Y-36.7845
G01 X59.5978 Y-36.7718
G01 X59.5702 Y-36.7414
G01 X59.5586 Y-36.7298
G01 X59.5282 Y-36.7022
G01 X59.5155 Y-36.6918
G01 X59.4863 Y-36.6701
G01 X59.4863 Y-36.5299
G01 X59.5155 Y-36.5082
G01 X59.5282 Y-36.4978
G01 X59.5586 Y-36.4702
G01 X59.5702 Y-36.4586
G01 X59.5978 Y-36.4282
G01 X59.6082 Y-36.4155
G01 X59.6326 Y-36.3825
G01 X59.6461 Y-36.3618
G01 X59.6629 Y-36.3337
G01 X59.6707 Y-36.3191
G01 X59.6882 Y-36.2821
G01 X59.6974 Y-36.2591
G01 X59.7108 Y-36.2204
G01 X59.7211 Y-36.1807
G01 X59.7263 Y-36.1565
G01 X59.7312 Y-36.1242
G01 X59.7339 Y-36.0996
G01 X59.7356 Y-36.0669
G01 X59.7360 Y-36.0504
G01 X59.7360 Y-34.9496
G01 X59.7356 Y-34.9331
G01 X59.7343 Y-34.9075
G00 Z0.7000
G00 X59.6757 Y-34.8514
G01 F30.00
G01 Z-0.0610
G01 F110.00
G01 X59.6917 Y-34.8536
G01 X59.7056 Y-34.8550
G01 X59.7390 Y-34.8564
G01 X59.7530 Y-34.8561
G01 X59.7794 Y-34.8544
G01 X59.8125 Y-34.8498
G01 X59.8262 Y-34.8470
G01 X59.8451 Y-34.8424
G01 X59.8586 Y-34.8387
G01 X59.8718 Y-34.8343
G01 X59.8901 Y-34.8276
G01 X59.9030 Y-34.8223
G01 X59.9207 Y-34.8140
G01 X59.9348 Y-34.8069
G01 X59.9255 Y-34.8453
G01 X59.9195 Y-34.8833
G01 X59.9172 Y-34.9042
G01 X59.9153 Y-34.9426
G01 X59.9152 Y-36.0504
G01 X59.9167 Y-36.0888
G01 X59.9178 Y-36.1028
G01 X59.9195 Y-36.1167
G01 X59.9255 Y-36.1547
G01 X59.9285 Y-36.1683
G01 X59.9382 Y-36.2055
G01 X59.9426 Y-36.2188
G01 X59.9559 Y-36.2549
G01 X59.9720 Y-36.2898
G01 X59.9783 Y-36.3023
G01 X59.9852 Y-36.3145
G01 X60.0053 Y-36.3473
G01 X60.0279 Y-36.3784
G01 X60.0365 Y-36.3894
G01 X60.0621 Y-36.4182
G01 X60.0717 Y-36.4283
G01 X60.1000 Y-36.4544
G01 X60.1151 Y-36.4671
G01 X60.1151 Y-36.7329
G01 X60.1000 Y-36.7456
G01 X60.0717 Y-36.7717
G01 X60.0456 Y-36.8000
G01 X60.0365 Y-36.8106
G01 X60.0279 Y-36.8216
G01 X60.0053 Y-36.8527
G01 X59.9852 Y-36.8855
G01 X59.9751 Y-36.9039
G01 X59.9586 Y-36.9387
G01 X59.9533 Y-36.9516
G01 X59.9403 Y-36.9878
G01 X59.9345 Y-37.0079
G01 X59.9255 Y-37.0453
G01 X59.9195 Y-37.0833
G01 X59.9172 Y-37.1042
G01 X59.9155 Y-37.1356
G01 X59.9152 Y-37.1496
G01 X59.9152 Y-38.2504
G01 X59.9167 Y-38.2888
G01 X59.9185 Y-38.3097
G01 X59.9231 Y-38.3409
G01 X59.9255 Y-38.3547
G01 X59.9285 Y-38.3683
G01 X59.9382 Y-38.4055
G01 X59.9426 Y-38.4188
G01 X59.9559 Y-38.4549
G01 X59.9720 Y-38.4898
G01 X59.9783 Y-38.5023
G01 X59.9852 Y-38.5145
G01 X60.0053 Y-38.5473
G01 X60.0279 Y-38.5784
G01 X60.0365 Y-38.5894
G01 X60.0621 Y-38.6182
G01 X60.0717 Y-38.6283
G01 X60.1000 Y-38.6544
G01 X60.1151 Y-38.6671
G01 X60.1151 Y-38.9329
G01 X60.1000 Y-38.9456
G01 X60.0717 Y-38.9717
G01 X60.0456 Y-39.0000
G01 X60.0365 Y-39.0106
G01 X60.0279 Y-39.0216
G01 X60.0053 Y-39.0527
G01 X59.9852 Y-39.0855
G01 X59.9783 Y-39.0977
G01 X59.9720 Y-39.1102
G01 X59.9559 Y-39.1451
G01 X59.9508 Y-39.1581
G01 X59.9382 Y-39.1945
G01 X59.9285 Y-39.2317
G01 X59.9255 Y-39.2453
G01 X59.9231 Y-39.2591
G01 X59.9178 Y-39.2972
G01 X59.9167 Y-39.3112
G01 X59.9152 Y-39.3496
G01 X59.9153 Y-40.4574
G01 X59.9172 Y-40.4958
G01 X59.9195 Y-40.5167
G01 X59.9255 Y-40.5547
G01 X59.9348 Y-40.5931
G01 X59.9207 Y-40.5860
G01 X59.9030 Y-40.5777
G01 X59.8901 Y-40.5724
G01 X59.8718 Y-40.5657
G01 X59.8586 Y-40.5613
G01 X59.8451 Y-40.5576
G01 X59.8262 Y-40.5530
G01 X59.8125 Y-40.5502
G01 X59.7794 Y-40.5456
G01 X59.7530 Y-40.5439
G01 X59.7390 Y-40.5436
G01 X59.7056 Y-40.5450
G01 X59.6917 Y-40.5464
G01 X59.6757 Y-40.5486
G01 X59.6805 Y-40.5167
G01 X59.6822 Y-40.5028
G01 X59.6833 Y-40.4888
G01 X59.6848 Y-40.4504
G01 X59.6848 Y-39.3496
G01 X59.6845 Y-39.3356
G01 X59.6828 Y-39.3042
G01 X59.6805 Y-39.2833
G01 X59.6758 Y-39.2522
G01 X59.6715 Y-39.2317
G01 X59.6618 Y-39.1945
G01 X59.6492 Y-39.1581
G01 X59.6414 Y-39.1387
G01 X59.6249 Y-39.1039
G01 X59.6183 Y-39.0916
G01 X59.5985 Y-39.0586
G01 X59.5867 Y-39.0413
G01 X59.5635 Y-39.0106
G01 X59.5379 Y-38.9818
G01 X59.5283 Y-38.9717
G01 X59.5000 Y-38.9456
G01 X59.4840 Y-38.9321
G01 X59.4531 Y-38.9092
G01 X59.4351 Y-38.8975
G01 X59.4351 Y-38.7024
G01 X59.4531 Y-38.6908
G01 X59.4840 Y-38.6679
G01 X59.5000 Y-38.6544
G01 X59.5283 Y-38.6283
G01 X59.5544 Y-38.6000
G01 X59.5679 Y-38.5840
G01 X59.5908 Y-38.5531
G01 X59.6022 Y-38.5355
G01 X59.6217 Y-38.5023
G01 X59.6385 Y-38.4677
G01 X59.6467 Y-38.4484
G01 X59.6597 Y-38.4122
G01 X59.6655 Y-38.3921
G01 X59.6745 Y-38.3547
G01 X59.6769 Y-38.3409
G01 X59.6815 Y-38.3097
G01 X59.6833 Y-38.2888
G01 X59.6848 Y-38.2504
G01 X59.6848 Y-37.1496
G01 X59.6833 Y-37.1112
G01 X59.6822 Y-37.0972
G01 X59.6769 Y-37.0591
G01 X59.6731 Y-37.0385
G01 X59.6637 Y-37.0012
G01 X59.6597 Y-36.9878
G01 X59.6467 Y-36.9516
G01 X59.6385 Y-36.9323
G01 X59.6217 Y-36.8977
G01 X59.6148 Y-36.8855
G01 X59.5947 Y-36.8527
G01 X59.5721 Y-36.8216
G01 X59.5635 Y-36.8106
G01 X59.5379 Y-36.7818
G01 X59.5233 Y-36.7668
G01 X59.4948 Y-36.7410
G01 X59.4840 Y-36.7321
G01 X59.4531 Y-36.7092
G01 X59.4351 Y-36.6975
G01 X59.4351 Y-36.5024
G01 X59.4531 Y-36.4908
G01 X59.4840 Y-36.4679
G01 X59.5000 Y-36.4544
G01 X59.5283 Y-36.4283
G01 X59.5544 Y-36.4000
G01 X59.5635 Y-36.3894
G01 X59.5867 Y-36.3587
G01 X59.5985 Y-36.3414
G01 X59.6183 Y-36.3084
G01 X59.6249 Y-36.2961
G01 X59.6414 Y-36.2613
G01 X59.6492 Y-36.2419
G01 X59.6618 Y-36.2055
G01 X59.6715 Y-36.1683
G01 X59.6758 Y-36.1478
G01 X59.6815 Y-36.1097
G01 X59.6833 Y-36.0888
G01 X59.6848 Y-36.0504
G01 X59.6848 Y-34.9496
G01 X59.6833 Y-34.9112
G01 X59.6822 Y-34.8972
G01 X59.6805 Y-34.8833
G01 X59.6757 Y-34.8514
G00 Z0.7000
G00 X59.6019 Y-34.7781
G01 F30.00
G01 Z-0.0610
G01 F110.00
G01 X59.6234 Y-34.7861
G01 X59.6343 Y-34.7897
G01 X59.6453 Y-34.7927
G01 X59.6686 Y-34.7983
G01 X59.6799 Y-34.8002
G01 X59.7036 Y-34.8035
G01 X59.7275 Y-34.8049
G01 X59.7390 Y-34.8052
G01 X59.7505 Y-34.8049
G01 X59.7743 Y-34.8035
G01 X59.7981 Y-34.8002
G01 X59.8094 Y-34.7983
G01 X59.8205 Y-34.7958
G01 X59.8437 Y-34.7897
G01 X59.8546 Y-34.7861
G01 X59.8770 Y-34.7777
G01 X59.8988 Y-34.7678
G01 X59.9090 Y-34.7626
G01 X59.9190 Y-34.7570
G01 X59.9394 Y-34.7444
G01 X59.9588 Y-34.7304
G01 X59.9678 Y-34.7233
G01 X59.9899 Y-34.7036
G01 X59.9980 Y-34.6955
G01 X60.0103 Y-34.6820
G01 X60.0178 Y-34.6733
G01 X60.0248 Y-34.6643
G01 X60.0356 Y-34.6496
G01 X60.0420 Y-34.6401
G01 X60.0543 Y-34.6196
G01 X60.0610 Y-34.6071
G01 X60.0818 Y-34.5818
G01 X60.1071 Y-34.5610
G01 X60.1360 Y-34.5456
G01 X60.1663 Y-34.5364
G01 X60.1663 Y-34.5585
G01 X60.1431 Y-34.5761
G01 X60.1162 Y-34.6000
G01 X60.1039 Y-34.6120
G01 X60.0798 Y-34.6387
G01 X60.0690 Y-34.6521
G01 X60.0478 Y-34.6811
G01 X60.0291 Y-34.7118
G01 X60.0208 Y-34.7269
G01 X60.0054 Y-34.7594
G01 X59.9991 Y-34.7754
G01 X59.9872 Y-34.8093
G01 X59.9782 Y-34.8441
G01 X59.9746 Y-34.8610
G01 X59.9694 Y-34.8965
G01 X59.9679 Y-34.9137
G01 X59.9665 Y-34.9439
G01 X59.9664 Y-36.0504
G01 X59.9679 Y-36.0863
G01 X59.9694 Y-36.1035
G01 X59.9757 Y-36.1447
G01 X59.9782 Y-36.1559
G01 X59.9872 Y-36.1907
G01 X59.9908 Y-36.2016
G01 X60.0032 Y-36.2353
G01 X60.0183 Y-36.2679
G01 X60.0262 Y-36.2832
G01 X60.0417 Y-36.3092
G01 X60.0511 Y-36.3236
G01 X60.0725 Y-36.3525
G01 X60.0836 Y-36.3656
G01 X60.1039 Y-36.3880
G01 X60.1162 Y-36.4000
G01 X60.1431 Y-36.4239
G01 X60.1663 Y-36.4415
G01 X60.1663 Y-36.7585
G01 X60.1431 Y-36.7761
G01 X60.1162 Y-36.8000
G01 X60.1039 Y-36.8120
G01 X60.0836 Y-36.8344
G01 X60.0725 Y-36.8475
G01 X60.0511 Y-36.8764
G01 X60.0417 Y-36.8908
G01 X60.0262 Y-36.9168
G01 X60.0183 Y-36.9321
G01 X60.0032 Y-36.9647
G01 X59.9991 Y-36.9754
G01 X59.9872 Y-37.0093
G01 X59.9782 Y-37.0441
G01 X59.9757 Y-37.0553
G01 X59.9737 Y-37.0666
G01 X59.9687 Y-37.1022
G01 X59.9679 Y-37.1137
G01 X59.9664 Y-37.1496
G01 X59.9664 Y-38.2504
G01 X59.9679 Y-38.2863
G01 X59.9694 Y-38.3035
G01 X59.9746 Y-38.3390
G01 X59.9782 Y-38.3559
G01 X59.9872 Y-38.3907
G01 X59.9908 Y-38.4016
G01 X60.0032 Y-38.4353
G01 X60.0183 Y-38.4679
G01 X60.0262 Y-38.4832
G01 X60.0417 Y-38.5092
G01 X60.0511 Y-38.5236
G01 X60.0725 Y-38.5525
G01 X60.0836 Y-38.5656
G01 X60.1039 Y-38.5880
G01 X60.1162 Y-38.6000
G01 X60.1431 Y-38.6239
G01 X60.1663 Y-38.6415
G01 X60.1663 Y-38.9585
G01 X60.1431 Y-38.9761
G01 X60.1162 Y-39.0000
G01 X60.1039 Y-39.0120
G01 X60.0836 Y-39.0344
G01 X60.0725 Y-39.0475
G01 X60.0511 Y-39.0764
G01 X60.0417 Y-39.0908
G01 X60.0262 Y-39.1168
G01 X60.0183 Y-39.1321
G01 X60.0032 Y-39.1647
G01 X59.9991 Y-39.1754
G01 X59.9872 Y-39.2093
G01 X59.9782 Y-39.2441
G01 X59.9757 Y-39.2553
G01 X59.9694 Y-39.2965
G01 X59.9679 Y-39.3137
G01 X59.9664 Y-39.3496
G01 X59.9664 Y-40.4504
G01 X59.9679 Y-40.4863
G01 X59.9694 Y-40.5035
G01 X59.9746 Y-40.5390
G01 X59.9782 Y-40.5559
G01 X59.9856 Y-40.5852
G01 X59.9908 Y-40.6016
G01 X60.0032 Y-40.6353
G01 X60.0183 Y-40.6679
G01 X60.0262 Y-40.6832
G01 X60.0478 Y-40.7189
G01 X60.0690 Y-40.7479
G01 X60.0798 Y-40.7613
G01 X60.1039 Y-40.7880
G01 X60.1162 Y-40.8000
G01 X60.1431 Y-40.8239
G01 X60.1663 Y-40.8415
G01 X60.1663 Y-40.8636
G01 X60.1360 Y-40.8544
G01 X60.1071 Y-40.8390
G01 X60.0818 Y-40.8182
G01 X60.0610 Y-40.7929
G01 X60.0543 Y-40.7804
G01 X60.0420 Y-40.7599
G01 X60.0356 Y-40.7504
G01 X60.0248 Y-40.7357
G01 X60.0178 Y-40.7267
G01 X60.0103 Y-40.7180
G01 X59.9980 Y-40.7045
G01 X59.9899 Y-40.6964
G01 X59.9678 Y-40.6767
G01 X59.9588 Y-40.6696
G01 X59.9394 Y-40.6556
G01 X59.9190 Y-40.6430
G01 X59.9090 Y-40.6374
G01 X59.8988 Y-40.6322
G01 X59.8770 Y-40.6223
G01 X59.8663 Y-40.6181
G01 X59.8437 Y-40.6103
G01 X59.8205 Y-40.6042
G01 X59.8094 Y-40.6017
G01 X59.7981 Y-40.5998
G01 X59.7743 Y-40.5965
G01 X59.7505 Y-40.5951
G01 X59.7390 Y-40.5948
G01 X59.7275 Y-40.5951
G01 X59.7036 Y-40.5965
G01 X59.6923 Y-40.5979
G01 X59.6686 Y-40.6017
G01 X59.6453 Y-40.6073
G01 X59.6343 Y-40.6103
G01 X59.6234 Y-40.6139
G01 X59.6019 Y-40.6219
G01 X59.6128 Y-40.5907
G01 X59.6218 Y-40.5559
G01 X59.6243 Y-40.5447
G01 X59.6263 Y-40.5334
G01 X59.6313 Y-40.4978
G01 X59.6335 Y-40.4561
G01 X59.6336 Y-39.3496
G01 X59.6321 Y-39.3137
G01 X59.6306 Y-39.2965
G01 X59.6254 Y-39.2610
G01 X59.6218 Y-39.2441
G01 X59.6128 Y-39.2093
G01 X59.6009 Y-39.1754
G01 X59.5946 Y-39.1594
G01 X59.5792 Y-39.1269
G01 X59.5709 Y-39.1118
G01 X59.5522 Y-39.0811
G01 X59.5310 Y-39.0521
G01 X59.5202 Y-39.0387
G01 X59.4961 Y-39.0120
G01 X59.4838 Y-39.0000
G01 X59.4569 Y-38.9761
G01 X59.4282 Y-38.9544
G01 X59.4140 Y-38.9447
G01 X59.3839 Y-38.9266
G01 X59.3839 Y-38.6733
G01 X59.4189 Y-38.6522
G01 X59.4479 Y-38.6310
G01 X59.4613 Y-38.6202
G01 X59.4880 Y-38.5961
G01 X59.5000 Y-38.5838
G01 X59.5239 Y-38.5569
G01 X59.5456 Y-38.5282
G01 X59.5553 Y-38.5140
G01 X59.5738 Y-38.4832
G01 X59.5817 Y-38.4679
G01 X59.5968 Y-38.4353
G01 X59.6111 Y-38.3961
G01 X59.6159 Y-38.3796
G01 X59.6243 Y-38.3447
G01 X59.6306 Y-38.3035
G01 X59.6321 Y-38.2863
G01 X59.6336 Y-38.2504
G01 X59.6336 Y-37.1496
G01 X59.6321 Y-37.1137
G01 X59.6313 Y-37.1022
G01 X59.6263 Y-37.0666
G01 X59.6231 Y-37.0497
G01 X59.6144 Y-37.0148
G01 X59.6092 Y-36.9984
G01 X59.5968 Y-36.9647
G01 X59.5817 Y-36.9321
G01 X59.5765 Y-36.9218
G01 X59.5583 Y-36.8908
G01 X59.5489 Y-36.8764
G01 X59.5310 Y-36.8521
G01 X59.5202 Y-36.8387
G01 X59.4961 Y-36.8120
G01 X59.4838 Y-36.8000
G01 X59.4569 Y-36.7761
G01 X59.4282 Y-36.7544
G01 X59.4140 Y-36.7447
G01 X59.3839 Y-36.7266
G01 X59.3839 Y-36.4733
G01 X59.4140 Y-36.4553
G01 X59.4282 Y-36.4456
G01 X59.4569 Y-36.4239
G01 X59.4838 Y-36.4000
G01 X59.4961 Y-36.3880
G01 X59.5202 Y-36.3613
G01 X59.5310 Y-36.3479
G01 X59.5522 Y-36.3189
G01 X59.5709 Y-36.2882
G01 X59.5792 Y-36.2731
G01 X59.5946 Y-36.2406
G01 X59.6009 Y-36.2246
G01 X59.6128 Y-36.1907
G01 X59.6218 Y-36.1559
G01 X59.6254 Y-36.1390
G01 X59.6306 Y-36.1035
G01 X59.6321 Y-36.0863
G01 X59.6336 Y-36.0504
G01 X59.6335 Y-34.9439
G01 X59.6313 Y-34.9022
G01 X59.6299 Y-34.8909
G01 X59.6243 Y-34.8553
G01 X59.6218 Y-34.8441
G01 X59.6128 Y-34.8093
G01 X59.6019 Y-34.7781
G00 Z0.7000
G00 X57.9330 Y-37.1663
G01 F30.00
G01 Z-0.0610
G01 F110.00
G01 X57.9520 Y-37.1518
G01 X57.9667 Y-37.1389
G01 X57.9664 Y-37.1663
G01 X57.9330 Y-37.1663
G00 Z0.7000
G00 X55.3871 Y-36.8093
G01 F30.00
G01 Z-0.0610
G01 F110.00
G01 X55.3845 Y-36.8272
G01 X55.3833 Y-36.8386
G01 X55.3821 Y-36.8682
G01 X55.3833 Y-36.8979
G01 X55.3845 Y-36.9093
G01 X55.3871 Y-36.9272
G01 X55.3281 Y-36.8682
G01 X55.3871 Y-36.8093
G00 Z0.7000
G00 X54.3094 Y-35.8496
G01 F30.00
G01 Z-0.0610
G01 F110.00
G01 X54.3351 Y-35.8531
G01 X54.3647 Y-35.8548
G01 X54.3819 Y-35.8546
G01 X54.4001 Y-35.8536
G01 X54.4115 Y-35.8525
G01 X54.4408 Y-35.8479
G01 X54.4641 Y-35.8424
G01 X54.4806 Y-35.8376
G01 X54.5085 Y-35.8274
G01 X54.5354 Y-35.8149
G01 X54.5455 Y-35.8095
G01 X54.5611 Y-35.8002
G01 X54.5756 Y-35.7908
G01 X54.5993 Y-35.7730
G01 X54.6214 Y-35.7532
G01 X54.6334 Y-35.7409
G01 X54.6492 Y-35.7230
G01 X54.6664 Y-35.7003
G01 X54.6664 Y-35.7373
G01 X54.4318 Y-35.9719
G01 X54.3094 Y-35.8496
G00 Z0.7000
G00 X53.2247 Y-35.5151
G01 F30.00
G01 Z-0.0610
G01 F110.00
G01 X53.2511 Y-35.5002
G01 X53.2623 Y-35.4933
G01 X53.2908 Y-35.4739
G01 X53.3067 Y-35.4622
G01 X53.3432 Y-35.4315
G01 X53.3725 Y-35.4027
G01 X53.3849 Y-35.3894
G01 X53.3900 Y-35.4051
G01 X53.3993 Y-35.4299
G01 X53.4134 Y-35.4601
G01 X53.4200 Y-35.4724
G01 X53.4336 Y-35.4951
G01 X53.4475 Y-35.5151
G01 X53.2247 Y-35.5151
G00 Z0.7000
G00 X54.9781 Y-34.8981
G01 F30.00
G01 Z-0.0610
G01 F110.00
G01 X54.9861 Y-34.8766
G01 X54.9897 Y-34.8657
G01 X54.9927 Y-34.8547
G01 X54.9983 Y-34.8314
G01 X55.0002 Y-34.8201
G01 X55.0035 Y-34.7964
G01 X55.0049 Y-34.7725
G01 X55.0052 Y-34.7610
G01 X55.0049 Y-34.7495
G01 X55.0035 Y-34.7257
G01 X55.0002 Y-34.7019
G01 X54.9983 Y-34.6906
G01 X54.9958 Y-34.6795
G01 X54.9897 Y-34.6563
G01 X54.9861 Y-34.6454
G01 X54.9777 Y-34.6230
G01 X54.9678 Y-34.6012
G01 X54.9626 Y-34.5910
G01 X54.9570 Y-34.5810
G01 X54.9444 Y-34.5606
G01 X54.9304 Y-34.5412
G01 X54.9233 Y-34.5322
G01 X54.9036 Y-34.5101
G01 X54.8955 Y-34.5020
G01 X54.8820 Y-34.4897
G01 X54.8733 Y-34.4822
G01 X54.8643 Y-34.4752
G01 X54.8496 Y-34.4644
G01 X54.8401 Y-34.4580
G01 X54.8196 Y-34.4457
G01 X54.8071 Y-34.4390
G01 X54.7818 Y-34.4182
G01 X54.7610 Y-34.3929
G01 X54.7456 Y-34.3640
G01 X54.7364 Y-34.3337
G01 X54.7585 Y-34.3337
G01 X54.7761 Y-34.3569
G01 X54.8000 Y-34.3838
G01 X54.8120 Y-34.3961
G01 X54.8387 Y-34.4202
G01 X54.8521 Y-34.4310
G01 X54.8811 Y-34.4522
G01 X54.9118 Y-34.4709
G01 X54.9218 Y-34.4765
G01 X54.9321 Y-34.4817
G01 X54.9647 Y-34.4968
G01 X54.9754 Y-34.5009
G01 X55.0093 Y-34.5128
G01 X55.0441 Y-34.5218
G01 X55.0553 Y-34.5243
G01 X55.0965 Y-34.5306
G01 X55.1137 Y-34.5321
G01 X55.1496 Y-34.5336
G01 X56.2504 Y-34.5336
G01 X56.2863 Y-34.5321
G01 X56.3035 Y-34.5306
G01 X56.3390 Y-34.5254
G01 X56.3559 Y-34.5218
G01 X56.3852 Y-34.5144
G01 X56.4016 Y-34.5092
G01 X56.4353 Y-34.4968
G01 X56.4679 Y-34.4817
G01 X56.4832 Y-34.4738
G01 X56.5189 Y-34.4522
G01 X56.5479 Y-34.4310
G01 X56.5613 Y-34.4202
G01 X56.5880 Y-34.3961
G01 X56.6000 Y-34.3838
G01 X56.6239 Y-34.3569
G01 X56.6415 Y-34.3337
G01 X56.6636 Y-34.3337
G01 X56.6544 Y-34.3640
G01 X56.6390 Y-34.3929
G01 X56.6182 Y-34.4182
G01 X56.5929 Y-34.4390
G01 X56.5804 Y-34.4457
G01 X56.5599 Y-34.4580
G01 X56.5504 Y-34.4644
G01 X56.5357 Y-34.4752
G01 X56.5267 Y-34.4822
G01 X56.5180 Y-34.4897
G01 X56.5045 Y-34.5020
G01 X56.4964 Y-34.5101
G01 X56.4767 Y-34.5322
G01 X56.4696 Y-34.5412
G01 X56.4556 Y-34.5606
G01 X56.4430 Y-34.5810
G01 X56.4374 Y-34.5910
G01 X56.4322 Y-34.6012
G01 X56.4223 Y-34.6230
G01 X56.4181 Y-34.6337
G01 X56.4103 Y-34.6563
G01 X56.4042 Y-34.6795
G01 X56.4017 Y-34.6906
G01 X56.3998 Y-34.7019
G01 X56.3965 Y-34.7257
G01 X56.3951 Y-34.7495
G01 X56.3948 Y-34.7610
G01 X56.3951 Y-34.7725
G01 X56.3965 Y-34.7964
G01 X56.3979 Y-34.8077
G01 X56.4017 Y-34.8314
G01 X56.4073 Y-34.8547
G01 X56.4103 Y-34.8657
G01 X56.4139 Y-34.8766
G01 X56.4219 Y-34.8981
G01 X56.3907 Y-34.8872
G01 X56.3559 Y-34.8782
G01 X56.3447 Y-34.8757
G01 X56.3334 Y-34.8737
G01 X56.2978 Y-34.8687
G01 X56.2561 Y-34.8665
G01 X55.1496 Y-34.8664
G01 X55.1137 Y-34.8679
G01 X55.1022 Y-34.8687
G01 X55.0610 Y-34.8746
G01 X55.0441 Y-34.8782
G01 X55.0148 Y-34.8856
G01 X55.0039 Y-34.8889
G01 X54.9781 Y-34.8981
G00 Z0.7000
G00 X55.0514 Y-34.8243
G01 F30.00
G01 Z-0.0610
G01 F110.00
G01 X55.0536 Y-34.8083
G01 X55.0550 Y-34.7944
G01 X55.0564 Y-34.7610
G01 X55.0561 Y-34.7470
G01 X55.0544 Y-34.7206
G01 X55.0498 Y-34.6875
G01 X55.0470 Y-34.6738
G01 X55.0424 Y-34.6549
G01 X55.0387 Y-34.6414
G01 X55.0343 Y-34.6282
G01 X55.0276 Y-34.6099
G01 X55.0223 Y-34.5970
G01 X55.0140 Y-34.5793
G01 X55.0069 Y-34.5652
G01 X55.0453 Y-34.5745
G01 X55.0833 Y-34.5805
G01 X55.1042 Y-34.5828
G01 X55.1426 Y-34.5847
G01 X56.2504 Y-34.5848
G01 X56.2644 Y-34.5845
G01 X56.2958 Y-34.5828
G01 X56.3167 Y-34.5805
G01 X56.3547 Y-34.5745
G01 X56.3931 Y-34.5652
G01 X56.3860 Y-34.5793
G01 X56.3777 Y-34.5970
G01 X56.3724 Y-34.6099
G01 X56.3657 Y-34.6282
G01 X56.3613 Y-34.6414
G01 X56.3576 Y-34.6549
G01 X56.3530 Y-34.6738
G01 X56.3502 Y-34.6875
G01 X56.3456 Y-34.7206
G01 X56.3439 Y-34.7470
G01 X56.3436 Y-34.7610
G01 X56.3450 Y-34.7944
G01 X56.3464 Y-34.8083
G01 X56.3486 Y-34.8243
G01 X56.3167 Y-34.8195
G01 X56.3028 Y-34.8178
G01 X56.2888 Y-34.8167
G01 X56.2504 Y-34.8152
G01 X55.1496 Y-34.8152
G01 X55.1112 Y-34.8167
G01 X55.0972 Y-34.8178
G01 X55.0833 Y-34.8195
G01 X55.0514 Y-34.8243
G00 Z0.7000
G00 X55.1075 Y-34.7657
G01 F30.00
G01 Z-0.0610
G01 F110.00
G01 X55.1075 Y-34.7528
G01 X55.1061 Y-34.7238
G01 X55.1033 Y-34.6993
G01 X55.0987 Y-34.6707
G01 X55.0951 Y-34.6546
G01 X55.0895 Y-34.6329
G01 X55.1086 Y-34.6344
G01 X55.1496 Y-34.6360
G01 X56.2504 Y-34.6360
G01 X56.2914 Y-34.6344
G01 X56.3105 Y-34.6329
G01 X56.3049 Y-34.6546
G01 X56.3013 Y-34.6707
G01 X56.2967 Y-34.6993
G01 X56.2939 Y-34.7238
G01 X56.2925 Y-34.7528
G01 X56.2925 Y-34.7657
G01 X56.2669 Y-34.7644
G01 X56.2504 Y-34.7640
G01 X55.1496 Y-34.7640
G01 X55.1331 Y-34.7644
G01 X55.1075 Y-34.7657
G00 Z0.7000
G00 X54.8467 Y-33.2199
G01 F30.00
G01 Z-0.0610
G01 F110.00
G01 X54.5905 Y-33.2199
G01 X54.5789 Y-33.2084
G01 X54.5776 Y-33.1088
G01 X54.5847 Y-33.0373
G01 X54.6030 Y-32.9770
G01 X54.6327 Y-32.9214
G01 X54.6727 Y-32.8727
G01 X54.7214 Y-32.8327
G01 X54.7770 Y-32.8030
G01 X54.8373 Y-32.7847
G01 X54.9095 Y-32.7776
G01 X55.2089 Y-32.7795
G01 X55.2199 Y-32.7905
G01 X55.2199 Y-33.0200
G01 X55.1457 Y-33.0201
G01 X55.1173 Y-33.0216
G01 X55.0872 Y-33.0260
G01 X55.0577 Y-33.0331
G01 X55.0502 Y-33.0354
G01 X55.0235 Y-33.0451
G01 X54.9942 Y-33.0589
G01 X54.9665 Y-33.0755
G01 X54.9436 Y-33.0924
G01 X54.9375 Y-33.0974
G01 X54.9194 Y-33.1138
G01 X54.9138 Y-33.1194
G01 X54.8948 Y-33.1405
G01 X54.8755 Y-33.1665
G01 X54.8589 Y-33.1942
G01 X54.8467 Y-33.2199
G00 Z0.7000
G00 X54.7585 Y-33.0663
G01 F30.00
G01 Z-0.0610
G01 F110.00
G01 X54.7364 Y-33.0663
G01 X54.7456 Y-33.0360
G01 X54.7610 Y-33.0071
G01 X54.7818 Y-32.9818
G01 X54.8071 Y-32.9610
G01 X54.8360 Y-32.9456
G01 X54.8674 Y-32.9361
G01 X54.9067 Y-32.9322
G01 X54.8860 Y-32.9447
G01 X54.8764 Y-32.9511
G01 X54.8475 Y-32.9725
G01 X54.8344 Y-32.9836
G01 X54.8120 Y-33.0039
G01 X54.8000 Y-33.0162
G01 X54.7761 Y-33.0431
G01 X54.7585 Y-33.0663
G00 Z0.7000
G00 X54.6802 Y-33.1175
G01 F30.00
G01 Z-0.0610
G01 F110.00
G01 X54.6801 Y-33.1132
G01 X54.6856 Y-33.0574
G01 X54.6981 Y-33.0163
G01 X54.7182 Y-32.9786
G01 X54.7454 Y-32.9454
G01 X54.7786 Y-32.9182
G01 X54.8163 Y-32.8981
G01 X54.8574 Y-32.8856
G01 X54.9142 Y-32.8800
G01 X55.1175 Y-32.8813
G01 X55.1175 Y-32.9190
G01 X55.1028 Y-32.9202
G01 X55.0653 Y-32.9259
G01 X55.0285 Y-32.9350
G01 X55.0157 Y-32.9390
G01 X54.9843 Y-32.9505
G01 X54.9499 Y-32.9665
G01 X54.9382 Y-32.9730
G01 X54.9133 Y-32.9880
G01 X54.9059 Y-32.9929
G01 X54.8755 Y-33.0157
G01 X54.8506 Y-33.0380
G01 X54.8410 Y-33.0473
G01 X54.8215 Y-33.0688
G01 X54.8129 Y-33.0790
G01 X54.7929 Y-33.1059
G01 X54.7854 Y-33.1175
G01 X54.6802 Y-33.1175
G00 Z0.7000
G00 X54.6296 Y-33.1687
G01 F30.00
G01 Z-0.0610
G01 F110.00
G01 X54.6289 Y-33.1110
G01 X54.6352 Y-33.0473
G01 X54.6505 Y-32.9967
G01 X54.6755 Y-32.9500
G01 X54.7091 Y-32.9091
G01 X54.7500 Y-32.8755
G01 X54.7967 Y-32.8505
G01 X54.8473 Y-32.8352
G01 X54.9119 Y-32.8288
G01 X55.1687 Y-32.8305
G01 X55.1687 Y-32.9688
G01 X55.1464 Y-32.9688
G01 X55.1155 Y-32.9704
G01 X55.1059 Y-32.9714
G01 X55.0817 Y-32.9750
G01 X55.0722 Y-32.9768
G01 X55.0391 Y-32.9852
G01 X55.0099 Y-32.9955
G01 X54.9980 Y-33.0004
G01 X54.9758 Y-33.0109
G01 X54.9673 Y-33.0153
G01 X54.9380 Y-33.0330
G01 X54.9131 Y-33.0513
G01 X54.9031 Y-33.0594
G01 X54.8803 Y-33.0803
G01 X54.8594 Y-33.1031
G01 X54.8513 Y-33.1131
G01 X54.8330 Y-33.1380
G01 X54.8145 Y-33.1687
G01 X54.6296 Y-33.1687
G00 Z0.7000
G00 X53.3300 Y-33.2199
G01 F30.00
G01 Z-0.0610
G01 F110.00
G01 X53.3299 Y-32.5985
G01 X53.3282 Y-32.5649
G01 X53.3227 Y-32.5278
G01 X53.3135 Y-32.4914
G01 X53.3001 Y-32.4543
G01 X53.2848 Y-32.4221
G01 X53.2656 Y-32.3900
G01 X53.2432 Y-32.3598
G01 X53.2180 Y-32.3320
G01 X53.1902 Y-32.3068
G01 X53.1600 Y-32.2844
G01 X53.1279 Y-32.2652
G01 X53.0957 Y-32.2499
G01 X53.0623 Y-32.2377
G01 X53.0548 Y-32.2354
G01 X53.0222 Y-32.2273
G01 X52.9851 Y-32.2218
G01 X52.9476 Y-32.2200
G01 X52.7801 Y-32.2200
G01 X52.7801 Y-31.9905
G01 X52.7909 Y-31.9797
G01 X53.2403 Y-31.9776
G01 X53.3127 Y-31.9847
G01 X53.3730 Y-32.0030
G01 X53.4286 Y-32.0327
G01 X53.4773 Y-32.0727
G01 X53.5173 Y-32.1214
G01 X53.5470 Y-32.1770
G01 X53.5653 Y-32.2373
G01 X53.5725 Y-32.3099
G01 X53.5702 Y-33.2093
G01 X53.5595 Y-33.2199
G01 X53.3300 Y-33.2199
G00 Z0.7000
G00 X53.2033 Y-32.1313
G01 F30.00
G01 Z-0.0610
G01 F110.00
G01 X53.2331 Y-32.1312
G01 X53.2826 Y-32.1361
G01 X53.3140 Y-32.1456
G01 X53.3429 Y-32.1610
G01 X53.3682 Y-32.1818
G01 X53.3890 Y-32.2071
G01 X53.4044 Y-32.2360
G01 X53.4139 Y-32.2674
G01 X53.4188 Y-32.3173
G01 X53.4188 Y-32.3469
G01 X53.3994 Y-32.3143
G01 X53.3933 Y-32.3046
G01 X53.3690 Y-32.2714
G01 X53.3582 Y-32.2580
G01 X53.3266 Y-32.2234
G01 X53.2920 Y-32.1918
G01 X53.2786 Y-32.1810
G01 X53.2454 Y-32.1567
G01 X53.2357 Y-32.1506
G01 X53.2033 Y-32.1313
G00 Z0.7000
G00 X52.8825 Y-32.0816
G01 F30.00
G01 Z-0.0610
G01 F110.00
G01 X53.2355 Y-32.0800
G01 X53.2926 Y-32.0856
G01 X53.3337 Y-32.0981
G01 X53.3714 Y-32.1182
G01 X53.4046 Y-32.1454
G01 X53.4318 Y-32.1786
G01 X53.4519 Y-32.2163
G01 X53.4644 Y-32.2574
G01 X53.4700 Y-32.3148
G01 X53.4680 Y-33.1175
G01 X53.4324 Y-33.1175
G01 X53.4324 Y-32.6024
G01 X53.4304 Y-32.5593
G01 X53.4290 Y-32.5460
G01 X53.4231 Y-32.5078
G01 X53.4115 Y-32.4617
G01 X53.3955 Y-32.4169
G01 X53.3792 Y-32.3819
G01 X53.3730 Y-32.3699
G01 X53.3507 Y-32.3331
G01 X53.3279 Y-32.3019
G01 X53.3165 Y-32.2881
G01 X53.2904 Y-32.2596
G01 X53.2619 Y-32.2335
G01 X53.2481 Y-32.2221
G01 X53.2169 Y-32.1993
G01 X53.1839 Y-32.1793
G01 X53.1722 Y-32.1728
G01 X53.1413 Y-32.1581
G01 X53.1248 Y-32.1513
G01 X53.0883 Y-32.1385
G01 X53.0422 Y-32.1269
G01 X53.0040 Y-32.1210
G01 X52.9862 Y-32.1193
G01 X52.9521 Y-32.1177
G01 X52.8825 Y-32.1176
G01 X52.8825 Y-32.0816
G00 Z0.7000
G00 X52.8313 Y-32.0307
G01 F30.00
G01 Z-0.0610
G01 F110.00
G01 X53.2379 Y-32.0288
G01 X53.3027 Y-32.0352
G01 X53.3533 Y-32.0505
G01 X53.4000 Y-32.0755
G01 X53.4409 Y-32.1091
G01 X53.4745 Y-32.1500
G01 X53.4995 Y-32.1967
G01 X53.5148 Y-32.2473
G01 X53.5213 Y-32.3124
G01 X53.5191 Y-33.1687
G01 X53.3812 Y-33.1687
G01 X53.3812 Y-32.6024
G01 X53.3791 Y-32.5599
G01 X53.3729 Y-32.5178
G01 X53.3642 Y-32.4827
G01 X53.3605 Y-32.4704
G01 X53.3494 Y-32.4395
G01 X53.3456 Y-32.4306
G01 X53.3300 Y-32.3980
G01 X53.3116 Y-32.3669
G01 X53.3044 Y-32.3562
G01 X53.2848 Y-32.3298
G01 X53.2786 Y-32.3225
G01 X53.2542 Y-32.2958
G01 X53.2227 Y-32.2672
G01 X53.1938 Y-32.2456
G01 X53.1831 Y-32.2384
G01 X53.1520 Y-32.2200
G01 X53.1135 Y-32.2018
G01 X53.0796 Y-32.1895
G01 X53.0673 Y-32.1858
G01 X53.0322 Y-32.1771
G01 X52.9933 Y-32.1712
G01 X52.9837 Y-32.1704
G01 X52.9508 Y-32.1688
G01 X52.8313 Y-32.1688
G01 X52.8313 Y-32.0307
G00 Z0.7000
G00 X50.8005 Y-32.5632
G01 F30.00
G01 Z-0.0610
G01 F110.00
G01 X50.8158 Y-32.5577
G01 X50.8145 Y-32.5832
G01 X50.8078 Y-32.5732
G01 X50.8005 Y-32.5632
G00 Z0.7000
G00 X50.7133 Y-32.5317
G01 F30.00
G01 Z-0.0610
G01 F110.00
G01 X50.7260 Y-32.5297
G01 X50.7397 Y-32.5270
G01 X50.7654 Y-32.5205
G01 X50.7788 Y-32.5165
G01 X50.8037 Y-32.5076
G01 X50.8229 Y-32.4993
G01 X50.8467 Y-32.4877
G01 X50.8695 Y-32.4744
G01 X50.8814 Y-32.4669
G01 X50.8765 Y-32.4878
G01 X50.8741 Y-32.5016
G01 X50.8688 Y-32.5379
G01 X50.8670 Y-32.5588
G01 X50.8652 Y-32.6024
G01 X50.8652 Y-32.7792
G01 X50.8435 Y-32.7333
G01 X50.8338 Y-32.7147
G01 X50.7773 Y-32.6202
G01 X50.7659 Y-32.6027
G01 X50.7133 Y-32.5317
G00 Z0.7000
G00 X50.6037 Y-32.4817
G01 F30.00
G01 Z-0.0610
G01 F110.00
G01 X50.6229 Y-32.4839
G01 X50.6468 Y-32.4851
G01 X50.6583 Y-32.4851
G01 X50.6879 Y-32.4834
G01 X50.7116 Y-32.4802
G01 X50.7229 Y-32.4782
G01 X50.7341 Y-32.4757
G01 X50.7572 Y-32.4696
G01 X50.7852 Y-32.4598
G01 X50.7958 Y-32.4554
G01 X50.8123 Y-32.4477
G01 X50.8225 Y-32.4426
G01 X50.8325 Y-32.4369
G01 X50.8481 Y-32.4275
G01 X50.8576 Y-32.4211
G01 X50.8769 Y-32.4069
G01 X50.8857 Y-32.3996
G01 X50.9035 Y-32.3835
G01 X50.9116 Y-32.3754
G01 X50.9276 Y-32.3577
G01 X50.9349 Y-32.3488
G01 X50.9524 Y-32.3248
G01 X50.9650 Y-32.3045
G01 X50.9706 Y-32.2945
G01 X50.9758 Y-32.2842
G01 X50.9857 Y-32.2625
G01 X50.9952 Y-32.2367
G01 X51.0110 Y-32.2071
G01 X51.0318 Y-32.1818
G01 X51.0571 Y-32.1610
G01 X51.0860 Y-32.1456
G01 X51.1174 Y-32.1361
G01 X51.1669 Y-32.1312
G01 X51.1967 Y-32.1313
G01 X51.1643 Y-32.1506
G01 X51.1546 Y-32.1567
G01 X51.1452 Y-32.1633
G01 X51.1124 Y-32.1881
G01 X51.1037 Y-32.1956
G01 X51.0734 Y-32.2234
G01 X51.0456 Y-32.2537
G01 X51.0381 Y-32.2624
G01 X51.0133 Y-32.2952
G01 X51.0067 Y-32.3046
G01 X51.0006 Y-32.3143
G01 X50.9797 Y-32.3497
G01 X50.9618 Y-32.3868
G01 X50.9572 Y-32.3973
G01 X50.9531 Y-32.4080
G01 X50.9395 Y-32.4468
G01 X50.9279 Y-32.4922
G01 X50.9247 Y-32.5091
G01 X50.9190 Y-32.5499
G01 X50.9165 Y-32.5967
G01 X50.9164 Y-33.0883
G01 X50.8914 Y-32.9884
G01 X50.8883 Y-32.9774
G01 X50.8847 Y-32.9665
G01 X50.8500 Y-32.8695
G01 X50.8459 Y-32.8588
G01 X50.8412 Y-32.8483
G01 X50.7947 Y-32.7500
G01 X50.7864 Y-32.7349
G01 X50.7334 Y-32.6466
G01 X50.7240 Y-32.6321
G01 X50.6558 Y-32.5402
G01 X50.6447 Y-32.5270
G01 X50.6037 Y-32.4817
G00 Z0.7000
G00 X49.7799 Y-33.8000
G01 F30.00
G01 Z-0.0610
G01 F110.00
G01 X49.7793 Y-33.8118
G01 X49.7776 Y-33.8234
G01 X49.7747 Y-33.8348
G01 X49.7708 Y-33.8459
G01 X49.7657 Y-33.8565
G01 X49.7597 Y-33.8666
G01 X49.7527 Y-33.8761
G01 X49.7448 Y-33.8848
G01 X49.7361 Y-33.8927
G01 X49.7266 Y-33.8997
G01 X49.7165 Y-33.9057
G01 X49.7059 Y-33.9108
G01 X49.6948 Y-33.9147
G01 X49.6834 Y-33.9176
G01 X49.6718 Y-33.9193
G01 X49.6600 Y-33.9199
G01 X49.6482 Y-33.9193
G01 X49.6366 Y-33.9176
G01 X49.6252 Y-33.9147
G01 X49.6141 Y-33.9108
G01 X49.6035 Y-33.9057
G01 X49.5934 Y-33.8997
G01 X49.5839 Y-33.8927
G01 X49.5752 Y-33.8848
G01 X49.5673 Y-33.8761
G01 X49.5603 Y-33.8666
G01 X49.5543 Y-33.8565
G01 X49.5492 Y-33.8459
G01 X49.5453 Y-33.8348
G01 X49.5424 Y-33.8234
G01 X49.5407 Y-33.8118
G01 X49.5401 Y-33.8000
G01 X49.5407 Y-33.7882
G01 X49.5424 Y-33.7766
G01 X49.5453 Y-33.7652
G01 X49.5492 Y-33.7541
G01 X49.5543 Y-33.7435
G01 X49.5603 Y-33.7334
G01 X49.5673 Y-33.7239
G01 X49.5752 Y-33.7152
G01 X49.5839 Y-33.7073
G01 X49.5934 Y-33.7003
G01 X49.6035 Y-33.6943
G01 X49.6141 Y-33.6892
G01 X49.6252 Y-33.6853
G01 X49.6366 Y-33.6824
G01 X49.6482 Y-33.6807
G01 X49.6600 Y-33.6801
G01 X49.6718 Y-33.6807
G01 X49.6834 Y-33.6824
G01 X49.6948 Y-33.6853
G01 X49.7059 Y-33.6892
G01 X49.7165 Y-33.6943
G01 X49.7266 Y-33.7003
G01 X49.7361 Y-33.7073
G01 X49.7448 Y-33.7152
G01 X49.7527 Y-33.7239
G01 X49.7597 Y-33.7334
G01 X49.7657 Y-33.7435
G01 X49.7708 Y-33.7541
G01 X49.7747 Y-33.7652
G01 X49.7776 Y-33.7766
G01 X49.7793 Y-33.7882
G01 X49.7799 Y-33.8000
G00 Z0.7000
G00 X49.7286 Y-33.8000
G01 F30.00
G01 Z-0.0610
G01 F110.00
G01 X49.7283 Y-33.8067
G01 X49.7273 Y-33.8134
G01 X49.7257 Y-33.8199
G01 X49.7234 Y-33.8263
G01 X49.7205 Y-33.8324
G01 X49.7171 Y-33.8381
G01 X49.7131 Y-33.8435
G01 X49.7085 Y-33.8485
G01 X49.7035 Y-33.8531
G01 X49.6981 Y-33.8571
G01 X49.6924 Y-33.8605
G01 X49.6863 Y-33.8634
G01 X49.6799 Y-33.8657
G01 X49.6734 Y-33.8673
G01 X49.6667 Y-33.8683
G01 X49.6600 Y-33.8686
G01 X49.6533 Y-33.8683
G01 X49.6466 Y-33.8673
G01 X49.6401 Y-33.8657
G01 X49.6337 Y-33.8634
G01 X49.6276 Y-33.8605
G01 X49.6219 Y-33.8571
G01 X49.6165 Y-33.8531
G01 X49.6115 Y-33.8485
G01 X49.6069 Y-33.8435
G01 X49.6029 Y-33.8381
G01 X49.5995 Y-33.8324
G01 X49.5966 Y-33.8263
G01 X49.5943 Y-33.8199
G01 X49.5927 Y-33.8134
G01 X49.5917 Y-33.8067
G01 X49.5914 Y-33.8000
G01 X49.5917 Y-33.7933
G01 X49.5927 Y-33.7866
G01 X49.5943 Y-33.7801
G01 X49.5966 Y-33.7737
G01 X49.5995 Y-33.7676
G01 X49.6029 Y-33.7619
G01 X49.6069 Y-33.7565
G01 X49.6115 Y-33.7515
G01 X49.6165 Y-33.7469
G01 X49.6219 Y-33.7429
G01 X49.6276 Y-33.7395
G01 X49.6337 Y-33.7366
G01 X49.6401 Y-33.7343
G01 X49.6466 Y-33.7327
G01 X49.6533 Y-33.7317
G01 X49.6600 Y-33.7314
G01 X49.6667 Y-33.7317
G01 X49.6734 Y-33.7327
G01 X49.6799 Y-33.7343
G01 X49.6863 Y-33.7366
G01 X49.6924 Y-33.7395
G01 X49.6981 Y-33.7429
G01 X49.7035 Y-33.7469
G01 X49.7085 Y-33.7515
G01 X49.7131 Y-33.7565
G01 X49.7171 Y-33.7619
G01 X49.7205 Y-33.7676
G01 X49.7234 Y-33.7737
G01 X49.7257 Y-33.7801
G01 X49.7273 Y-33.7866
G01 X49.7283 Y-33.7933
G01 X49.7286 Y-33.8000
G00 Z0.7000
G00 X49.6774 Y-33.8000
G01 F30.00
G01 Z-0.0610
G01 F110.00
G01 X49.6770 Y-33.8034
G01 X49.6761 Y-33.8067
G01 X49.6745 Y-33.8097
G01 X49.6723 Y-33.8123
G01 X49.6697 Y-33.8145
G01 X49.6667 Y-33.8161
G01 X49.6634 Y-33.8170
G01 X49.6600 Y-33.8174
G01 X49.6566 Y-33.8170
G01 X49.6533 Y-33.8161
G01 X49.6503 Y-33.8145
G01 X49.6477 Y-33.8123
G01 X49.6455 Y-33.8097
G01 X49.6439 Y-33.8067
G01 X49.6430 Y-33.8034
G01 X49.6426 Y-33.8000
G01 X49.6430 Y-33.7966
G01 X49.6439 Y-33.7933
G01 X49.6455 Y-33.7903
G01 X49.6477 Y-33.7877
G01 X49.6503 Y-33.7855
G01 X49.6533 Y-33.7839
G01 X49.6566 Y-33.7830
G01 X49.6600 Y-33.7826
G01 X49.6634 Y-33.7830
G01 X49.6667 Y-33.7839
G01 X49.6697 Y-33.7855
G01 X49.6723 Y-33.7877
G01 X49.6745 Y-33.7903
G01 X49.6761 Y-33.7933
G01 X49.6770 Y-33.7966
G01 X49.6774 Y-33.8000
G00 Z0.7000
G00 X50.9164 Y-34.5117
G01 F30.00
G01 Z-0.0610
G01 F110.00
G01 X50.9165 Y-35.0030
G01 X50.9187 Y-35.0471
G01 X50.9238 Y-35.0854
G01 X50.9278 Y-35.1066
G01 X50.9371 Y-35.1451
G01 X50.7379 Y-34.9459
G01 X50.7864 Y-34.8651
G01 X50.7920 Y-34.8551
G01 X50.7972 Y-34.8448
G01 X50.8412 Y-34.7517
G01 X50.8459 Y-34.7412
G01 X50.8500 Y-34.7305
G01 X50.8847 Y-34.6335
G01 X50.8883 Y-34.6226
G01 X50.8914 Y-34.6116
G01 X50.9164 Y-34.5117
G00 Z0.7000
G00 X50.8652 Y-34.8208
G01 F30.00
G01 Z-0.0610
G01 F110.00
G01 X50.8652 Y-34.9976
G01 X50.8652 Y-35.0008
G01 X50.8024 Y-34.9380
G01 X50.8303 Y-34.8914
G01 X50.8372 Y-34.8792
G01 X50.8435 Y-34.8667
G01 X50.8652 Y-34.8208
G00 Z0.7000
G00 X51.3049 Y-35.5129
G01 F30.00
G01 Z-0.0610
G01 F110.00
G01 X51.3434 Y-35.5222
G01 X51.3646 Y-35.5262
G01 X51.4029 Y-35.5313
G01 X51.4524 Y-35.5336
G01 X52.9476 Y-35.5336
G01 X52.9863 Y-35.5321
G01 X53.0024 Y-35.5308
G01 X53.0461 Y-35.5245
G01 X53.0838 Y-35.5159
G01 X53.0995 Y-35.5116
G01 X53.1362 Y-35.4993
G01 X53.1512 Y-35.4933
G01 X53.1865 Y-35.4774
G01 X53.2251 Y-35.4561
G01 X53.2388 Y-35.4474
G01 X53.2706 Y-35.4253
G01 X53.3006 Y-35.4008
G01 X53.3126 Y-35.3900
G01 X53.3437 Y-35.3587
G01 X53.3686 Y-35.3291
G01 X53.3785 Y-35.3163
G01 X53.4033 Y-35.2798
G01 X53.4188 Y-35.2525
G01 X53.4189 Y-35.2782
G01 X53.4201 Y-35.3020
G01 X53.4221 Y-35.3191
G01 X53.4259 Y-35.3427
G01 X53.4315 Y-35.3659
G01 X53.4363 Y-35.3824
G01 X53.4465 Y-35.4102
G01 X53.4565 Y-35.4319
G01 X53.4645 Y-35.4471
G01 X53.4799 Y-35.4724
G01 X53.4940 Y-35.4917
G01 X53.5047 Y-35.5051
G01 X53.5208 Y-35.5228
G01 X53.5331 Y-35.5348
G01 X53.5510 Y-35.5506
G01 X53.5718 Y-35.5663
G01 X51.3583 Y-35.5663
G01 X51.3049 Y-35.5129
G00 Z0.7000
G00 X49.9776 Y-35.6953
G01 F30.00
G01 Z-0.0610
G01 F110.00
G01 X49.9596 Y-35.6927
G01 X49.9482 Y-35.6915
G01 X49.9186 Y-35.6903
G01 X49.8889 Y-35.6915
G01 X49.8775 Y-35.6927
G01 X49.8596 Y-35.6953
G01 X49.9186 Y-35.6362
G01 X49.9776 Y-35.6953
G00 Z0.7000
G00 X47.9427 Y-35.3639
G01 F30.00
G01 Z-0.0610
G01 F110.00
G01 X47.9863 Y-35.3315
G01 X48.0056 Y-35.3161
G01 X48.0941 Y-35.2358
G01 X48.1114 Y-35.2181
G01 X48.1806 Y-35.1418
G01 X48.1965 Y-35.1228
G01 X48.2629 Y-35.0335
G01 X48.2724 Y-35.0200
G01 X48.2812 Y-35.0061
G01 X48.3342 Y-34.9177
G01 X48.3423 Y-34.9034
G01 X48.3498 Y-34.8886
G01 X48.3900 Y-34.8035
G01 X48.4302 Y-34.8886
G01 X48.4377 Y-34.9034
G01 X48.4458 Y-34.9177
G01 X48.4988 Y-35.0061
G01 X48.5076 Y-35.0200
G01 X48.5171 Y-35.0335
G01 X48.5785 Y-35.1163
G01 X48.5886 Y-35.1293
G01 X48.5994 Y-35.1418
G01 X48.6752 Y-35.2252
G01 X48.5365 Y-35.3639
G01 X47.9427 Y-35.3639
G00 Z0.7000
G00 X47.7701 Y-35.4151
G01 F30.00
G01 Z-0.0610
G01 F110.00
G01 X47.8498 Y-35.3673
G01 X47.8616 Y-35.3598
G01 X47.8730 Y-35.3518
G01 X47.9558 Y-35.2904
G01 X47.9668 Y-35.2818
G01 X47.9774 Y-35.2727
G01 X48.0537 Y-35.2035
G01 X48.0638 Y-35.1938
G01 X48.0735 Y-35.1837
G01 X48.1427 Y-35.1074
G01 X48.1518 Y-35.0968
G01 X48.1604 Y-35.0858
G01 X48.2218 Y-35.0030
G01 X48.2298 Y-34.9916
G01 X48.2373 Y-34.9798
G01 X48.2903 Y-34.8914
G01 X48.2972 Y-34.8792
G01 X48.3035 Y-34.8667
G01 X48.3475 Y-34.7736
G01 X48.3532 Y-34.7608
G01 X48.3582 Y-34.7478
G01 X48.3900 Y-34.6590
G01 X48.4218 Y-34.7478
G01 X48.4268 Y-34.7608
G01 X48.4325 Y-34.7736
G01 X48.4765 Y-34.8667
G01 X48.4828 Y-34.8792
G01 X48.4897 Y-34.8914
G01 X48.5463 Y-34.9857
G01 X48.5582 Y-35.0030
G01 X48.6196 Y-35.0858
G01 X48.6327 Y-35.1021
G01 X48.7113 Y-35.1888
G01 X48.7212 Y-35.1987
G01 X48.7488 Y-35.2239
G01 X48.5577 Y-35.4151
G01 X47.7701 Y-35.4151
G00 Z0.7000
G00 X47.5272 Y-35.4663
G01 F30.00
G01 Z-0.0610
G01 F110.00
G01 X47.6112 Y-35.4359
G01 X47.6217 Y-35.4312
G01 X47.7200 Y-35.3847
G01 X47.7351 Y-35.3764
G01 X47.8234 Y-35.3234
G01 X47.8379 Y-35.3140
G01 X47.9253 Y-35.2493
G01 X47.9343 Y-35.2422
G01 X47.9430 Y-35.2347
G01 X48.0193 Y-35.1655
G01 X48.0276 Y-35.1576
G01 X48.0355 Y-35.1493
G01 X48.1047 Y-35.0730
G01 X48.1122 Y-35.0643
G01 X48.1193 Y-35.0553
G01 X48.1807 Y-34.9725
G01 X48.1873 Y-34.9631
G01 X48.1934 Y-34.9534
G01 X48.2464 Y-34.8651
G01 X48.2520 Y-34.8551
G01 X48.2572 Y-34.8448
G01 X48.3036 Y-34.7465
G01 X48.3100 Y-34.7305
G01 X48.3447 Y-34.6335
G01 X48.3499 Y-34.6171
G01 X48.3764 Y-34.5116
G01 X48.3789 Y-34.5004
G01 X48.3900 Y-34.4277
G01 X48.3991 Y-34.4891
G01 X48.4023 Y-34.5060
G01 X48.4286 Y-34.6116
G01 X48.4334 Y-34.6281
G01 X48.4700 Y-34.7305
G01 X48.4741 Y-34.7412
G01 X48.4788 Y-34.7517
G01 X48.5228 Y-34.8448
G01 X48.5280 Y-34.8551
G01 X48.5336 Y-34.8651
G01 X48.5866 Y-34.9534
G01 X48.5927 Y-34.9631
G01 X48.5993 Y-34.9725
G01 X48.6607 Y-35.0553
G01 X48.6678 Y-35.0643
G01 X48.6753 Y-35.0730
G01 X48.7445 Y-35.1493
G01 X48.7524 Y-35.1576
G01 X48.8231 Y-35.2221
G01 X48.5789 Y-35.4663
G01 X47.5272 Y-35.4663
G00 Z0.7000
G00 X47.2399 Y-33.8000
G01 F30.00
G01 Z-0.0610
G01 F110.00
G01 X47.2393 Y-33.8118
G01 X47.2376 Y-33.8234
G01 X47.2347 Y-33.8348
G01 X47.2308 Y-33.8459
G01 X47.2257 Y-33.8565
G01 X47.2197 Y-33.8666
G01 X47.2127 Y-33.8761
G01 X47.2048 Y-33.8848
G01 X47.1961 Y-33.8927
G01 X47.1866 Y-33.8997
G01 X47.1765 Y-33.9057
G01 X47.1659 Y-33.9108
G01 X47.1548 Y-33.9147
G01 X47.1434 Y-33.9176
G01 X47.1318 Y-33.9193
G01 X47.1200 Y-33.9199
G01 X47.1082 Y-33.9193
G01 X47.0966 Y-33.9176
G01 X47.0852 Y-33.9147
G01 X47.0741 Y-33.9108
G01 X47.0635 Y-33.9057
G01 X47.0534 Y-33.8997
G01 X47.0439 Y-33.8927
G01 X47.0352 Y-33.8848
G01 X47.0273 Y-33.8761
G01 X47.0203 Y-33.8666
G01 X47.0143 Y-33.8565
G01 X47.0092 Y-33.8459
G01 X47.0053 Y-33.8348
G01 X47.0024 Y-33.8234
G01 X47.0007 Y-33.8118
G01 X47.0001 Y-33.8000
G01 X47.0007 Y-33.7882
G01 X47.0024 Y-33.7766
G01 X47.0053 Y-33.7652
G01 X47.0092 Y-33.7541
G01 X47.0143 Y-33.7435
G01 X47.0203 Y-33.7334
G01 X47.0273 Y-33.7239
G01 X47.0352 Y-33.7152
G01 X47.0439 Y-33.7073
G01 X47.0534 Y-33.7003
G01 X47.0635 Y-33.6943
G01 X47.0741 Y-33.6892
G01 X47.0852 Y-33.6853
G01 X47.0966 Y-33.6824
G01 X47.1082 Y-33.6807
G01 X47.1200 Y-33.6801
G01 X47.1318 Y-33.6807
G01 X47.1434 Y-33.6824
G01 X47.1548 Y-33.6853
G01 X47.1659 Y-33.6892
G01 X47.1765 Y-33.6943
G01 X47.1866 Y-33.7003
G01 X47.1961 Y-33.7073
G01 X47.2048 Y-33.7152
G01 X47.2127 Y-33.7239
G01 X47.2197 Y-33.7334
G01 X47.2257 Y-33.7435
G01 X47.2308 Y-33.7541
G01 X47.2347 Y-33.7652
G01 X47.2376 Y-33.7766
G01 X47.2393 Y-33.7882
G01 X47.2399 Y-33.8000
G00 Z0.7000
G00 X47.1886 Y-33.8000
G01 F30.00
G01 Z-0.0610
G01 F110.00
G01 X47.1883 Y-33.8067
G01 X47.1873 Y-33.8134
G01 X47.1857 Y-33.8199
G01 X47.1834 Y-33.8263
G01 X47.1805 Y-33.8324
G01 X47.1771 Y-33.8381
G01 X47.1731 Y-33.8435
G01 X47.1685 Y-33.8485
G01 X47.1635 Y-33.8531
G01 X47.1581 Y-33.8571
G01 X47.1524 Y-33.8605
G01 X47.1463 Y-33.8634
G01 X47.1399 Y-33.8657
G01 X47.1334 Y-33.8673
G01 X47.1267 Y-33.8683
G01 X47.1200 Y-33.8686
G01 X47.1133 Y-33.8683
G01 X47.1066 Y-33.8673
G01 X47.1001 Y-33.8657
G01 X47.0937 Y-33.8634
G01 X47.0876 Y-33.8605
G01 X47.0819 Y-33.8571
G01 X47.0765 Y-33.8531
G01 X47.0715 Y-33.8485
G01 X47.0669 Y-33.8435
G01 X47.0629 Y-33.8381
G01 X47.0595 Y-33.8324
G01 X47.0566 Y-33.8263
G01 X47.0543 Y-33.8199
G01 X47.0527 Y-33.8134
G01 X47.0517 Y-33.8067
G01 X47.0514 Y-33.8000
G01 X47.0517 Y-33.7933
G01 X47.0527 Y-33.7866
G01 X47.0543 Y-33.7801
G01 X47.0566 Y-33.7737
G01 X47.0595 Y-33.7676
G01 X47.0629 Y-33.7619
G01 X47.0669 Y-33.7565
G01 X47.0715 Y-33.7515
G01 X47.0765 Y-33.7469
G01 X47.0819 Y-33.7429
G01 X47.0876 Y-33.7395
G01 X47.0937 Y-33.7366
G01 X47.1001 Y-33.7343
G01 X47.1066 Y-33.7327
G01 X47.1133 Y-33.7317
G01 X47.1200 Y-33.7314
G01 X47.1267 Y-33.7317
G01 X47.1334 Y-33.7327
G01 X47.1399 Y-33.7343
G01 X47.1463 Y-33.7366
G01 X47.1524 Y-33.7395
G01 X47.1581 Y-33.7429
G01 X47.1635 Y-33.7469
G01 X47.1685 Y-33.7515
G01 X47.1731 Y-33.7565
G01 X47.1771 Y-33.7619
G01 X47.1805 Y-33.7676
G01 X47.1834 Y-33.7737
G01 X47.1857 Y-33.7801
G01 X47.1873 Y-33.7866
G01 X47.1883 Y-33.7933
G01 X47.1886 Y-33.8000
G00 Z0.7000
G00 X47.1374 Y-33.8000
G01 F30.00
G01 Z-0.0610
G01 F110.00
G01 X47.1370 Y-33.8034
G01 X47.1361 Y-33.8067
G01 X47.1345 Y-33.8097
G01 X47.1323 Y-33.8123
G01 X47.1297 Y-33.8145
G01 X47.1267 Y-33.8161
G01 X47.1234 Y-33.8170
G01 X47.1200 Y-33.8174
G01 X47.1166 Y-33.8170
G01 X47.1133 Y-33.8161
G01 X47.1103 Y-33.8145
G01 X47.1077 Y-33.8123
G01 X47.1055 Y-33.8097
G01 X47.1039 Y-33.8067
G01 X47.1030 Y-33.8034
G01 X47.1026 Y-33.8000
G01 X47.1030 Y-33.7966
G01 X47.1039 Y-33.7933
G01 X47.1055 Y-33.7903
G01 X47.1077 Y-33.7877
G01 X47.1103 Y-33.7855
G01 X47.1133 Y-33.7839
G01 X47.1166 Y-33.7830
G01 X47.1200 Y-33.7826
G01 X47.1234 Y-33.7830
G01 X47.1267 Y-33.7839
G01 X47.1297 Y-33.7855
G01 X47.1323 Y-33.7877
G01 X47.1345 Y-33.7903
G01 X47.1361 Y-33.7933
G01 X47.1370 Y-33.7966
G01 X47.1374 Y-33.8000
G00 Z0.7000
G00 X48.2520 Y-32.7449
G01 F30.00
G01 Z-0.0610
G01 F110.00
G01 X48.2744 Y-32.7532
G01 X48.2853 Y-32.7568
G01 X48.2964 Y-32.7599
G01 X48.3196 Y-32.7654
G01 X48.3433 Y-32.7692
G01 X48.3546 Y-32.7706
G01 X48.3785 Y-32.7720
G01 X48.3900 Y-32.7723
G01 X48.4015 Y-32.7720
G01 X48.4254 Y-32.7706
G01 X48.4491 Y-32.7674
G01 X48.4604 Y-32.7654
G01 X48.4836 Y-32.7599
G01 X48.4947 Y-32.7568
G01 X48.5056 Y-32.7532
G01 X48.5280 Y-32.7449
G01 X48.5228 Y-32.7552
G01 X48.4788 Y-32.8483
G01 X48.4741 Y-32.8588
G01 X48.4700 Y-32.8695
G01 X48.4334 Y-32.9719
G01 X48.4286 Y-32.9884
G01 X48.4023 Y-33.0940
G01 X48.3991 Y-33.1109
G01 X48.3900 Y-33.1723
G01 X48.3809 Y-33.1109
G01 X48.3777 Y-33.0940
G01 X48.3514 Y-32.9884
G01 X48.3466 Y-32.9719
G01 X48.3100 Y-32.8695
G01 X48.3059 Y-32.8588
G01 X48.3012 Y-32.8483
G01 X48.2572 Y-32.7552
G01 X48.2520 Y-32.7449
G00 Z0.7000
G00 X48.3450 Y-32.8210
G01 F30.00
G01 Z-0.0610
G01 F110.00
G01 X48.3636 Y-32.8226
G01 X48.3900 Y-32.8235
G01 X48.4164 Y-32.8226
G01 X48.4350 Y-32.8210
G01 X48.4296 Y-32.8328
G01 X48.4242 Y-32.8457
G01 X48.3900 Y-32.9410
G01 X48.3558 Y-32.8457
G01 X48.3504 Y-32.8328
G01 X48.3450 Y-32.8210
G00 Z0.7000
G00 X45.8999 Y-31.7839
G01 F30.00
G01 Z-0.0610
G01 F110.00
G01 X45.9021 Y-31.8271
G01 X45.9084 Y-31.8698
G01 X45.9099 Y-31.8775
G01 X45.9205 Y-31.9194
G01 X45.9364 Y-31.9638
G01 X45.9547 Y-32.0029
G01 X45.9584 Y-32.0098
G01 X45.9818 Y-32.0484
G01 X46.0088 Y-32.0846
G01 X46.0391 Y-32.1181
G01 X46.4001 Y-32.4792
G01 X46.3210 Y-32.5510
G01 X46.2465 Y-32.6331
G01 X46.1804 Y-32.7222
G01 X46.1234 Y-32.8173
G01 X46.0760 Y-32.9176
G01 X46.0387 Y-33.0220
G01 X46.0117 Y-33.1295
G01 X45.9957 Y-33.2373
G01 X45.9900 Y-33.3500
G01 X45.9900 Y-34.2500
G01 X45.9953 Y-34.3588
G01 X46.0117 Y-34.4705
G01 X46.0387 Y-34.5780
G01 X46.0760 Y-34.6824
G01 X46.1225 Y-34.7809
G01 X46.1804 Y-34.8778
G01 X46.2465 Y-34.9669
G01 X46.3210 Y-35.0490
G01 X46.4031 Y-35.1235
G01 X46.4922 Y-35.1896
G01 X46.5873 Y-35.2466
G01 X46.6876 Y-35.2940
G01 X46.7920 Y-35.3313
G01 X46.8995 Y-35.3583
G01 X47.0092 Y-35.3746
G01 X47.1200 Y-35.3800
G01 X47.2308 Y-35.3746
G01 X47.3405 Y-35.3583
G01 X47.4480 Y-35.3313
G01 X47.5524 Y-35.2940
G01 X47.6509 Y-35.2475
G01 X47.7478 Y-35.1896
G01 X47.8369 Y-35.1235
G01 X47.9190 Y-35.0490
G01 X47.9935 Y-34.9669
G01 X48.0596 Y-34.8778
G01 X48.1166 Y-34.7827
G01 X48.1640 Y-34.6824
G01 X48.2013 Y-34.5780
G01 X48.2274 Y-34.4743
G01 X48.2290 Y-34.4666
G01 X48.2446 Y-34.3608
G01 X48.2500 Y-34.2520
G01 X48.2500 Y-33.3500
G01 X48.2448 Y-33.2432
G01 X48.2441 Y-33.2353
G01 X48.2283 Y-33.1295
G01 X48.2024 Y-33.0258
G01 X48.2001 Y-33.0182
G01 X48.1640 Y-32.9176
G01 X48.1183 Y-32.8208
G01 X48.1146 Y-32.8139
G01 X48.0596 Y-32.7222
G01 X47.9935 Y-32.6331
G01 X47.9217 Y-32.5538
G01 X47.9162 Y-32.5483
G01 X47.8369 Y-32.4765
G01 X47.7510 Y-32.4127
G01 X47.7445 Y-32.4083
G01 X47.6527 Y-32.3534
G01 X47.5560 Y-32.3076
G01 X47.5488 Y-32.3046
G01 X47.5426 Y-32.2919
G01 X47.5182 Y-32.2516
G01 X47.4912 Y-32.2154
G01 X47.4609 Y-32.1819
G01 X46.8602 Y-31.5811
G01 X46.8602 Y-29.6563
G01 X46.8908 Y-29.6415
G01 X46.9816 Y-29.5869
G01 X47.0651 Y-29.5249
G01 X47.1450 Y-29.4523
G01 X47.2149 Y-29.3751
G01 X47.2780 Y-29.2900
G01 X47.3325 Y-29.1991
G01 X47.3785 Y-29.1015
G01 X47.4135 Y-29.0035
G01 X47.4384 Y-28.9045
G01 X47.4399 Y-28.8968
G01 X47.4550 Y-28.7939
G01 X47.4600 Y-28.6900
G01 X47.4600 Y-28.1900
G01 X47.4550 Y-28.0861
G01 X47.4392 Y-27.9793
G01 X47.4145 Y-27.8803
G01 X47.4123 Y-27.8728
G01 X47.3792 Y-27.7804
G01 X47.3762 Y-27.7731
G01 X47.3325 Y-27.6809
G01 X47.2780 Y-27.5900
G01 X47.2149 Y-27.5049
G01 X47.1437 Y-27.4263
G01 X47.0651 Y-27.3551
G01 X46.9832 Y-27.2943
G01 X46.9767 Y-27.2899
G01 X46.8925 Y-27.2395
G01 X46.8856 Y-27.2358
G01 X46.7933 Y-27.1922
G01 X46.6935 Y-27.1565
G01 X46.5907 Y-27.1308
G01 X46.4878 Y-27.1154
G01 X46.3800 Y-27.1100
G01 X46.2741 Y-27.1152
G01 X46.1693 Y-27.1308
G01 X46.0665 Y-27.1565
G01 X45.9667 Y-27.1922
G01 X45.8709 Y-27.2375
G01 X45.7800 Y-27.2920
G01 X45.6949 Y-27.3551
G01 X45.6163 Y-27.4263
G01 X45.5451 Y-27.5049
G01 X45.4820 Y-27.5900
G01 X45.4275 Y-27.6809
G01 X45.3822 Y-27.7767
G01 X45.3465 Y-27.8765
G01 X45.3208 Y-27.9793
G01 X45.3054 Y-28.0822
G01 X45.3000 Y-28.1900
G01 X45.3000 Y-28.6900
G01 X45.3050 Y-28.7939
G01 X45.3201 Y-28.8968
G01 X45.3216 Y-28.9045
G01 X45.3465 Y-29.0035
G01 X45.3815 Y-29.1015
G01 X45.4275 Y-29.1991
G01 X45.4820 Y-29.2900
G01 X45.5451 Y-29.3751
G01 X45.6150 Y-29.4523
G01 X45.6949 Y-29.5249
G01 X45.7784 Y-29.5869
G01 X45.8692 Y-29.6415
G01 X45.8998 Y-29.6563
G01 X45.8999 Y-31.7839
G00 Z0.7000
G00 X45.7974 Y-29.7179
G01 F30.00
G01 Z-0.0610
G01 F110.00
G01 X45.7974 Y-31.7800
G01 X45.8002 Y-31.8371
G01 X45.8078 Y-31.8893
G01 X45.8106 Y-31.9024
G01 X45.8225 Y-31.9491
G01 X45.8385 Y-31.9946
G01 X45.8454 Y-32.0111
G01 X45.8641 Y-32.0507
G01 X45.8706 Y-32.0624
G01 X45.8956 Y-32.1037
G01 X45.9241 Y-32.1425
G01 X45.9355 Y-32.1564
G01 X45.9680 Y-32.1920
G01 X46.2516 Y-32.4756
G01 X46.2424 Y-32.4850
G01 X46.1673 Y-32.5682
G01 X46.1005 Y-32.6580
G01 X46.0905 Y-32.6729
G01 X46.0375 Y-32.7613
G01 X46.0291 Y-32.7770
G01 X45.9814 Y-32.8784
G01 X45.9407 Y-32.9923
G01 X45.9113 Y-33.1096
G01 X45.8946 Y-33.2203
G01 X45.8929 Y-33.2381
G01 X45.8876 Y-33.3500
G01 X45.8877 Y-34.2545
G01 X45.8935 Y-34.3708
G01 X45.9097 Y-34.4816
G01 X45.9132 Y-34.4992
G01 X45.9407 Y-34.6077
G01 X45.9814 Y-34.7216
G01 X46.0331 Y-34.8309
G01 X46.0953 Y-34.9347
G01 X46.1673 Y-35.0318
G01 X46.2486 Y-35.1214
G01 X46.3382 Y-35.2027
G01 X46.4353 Y-35.2747
G01 X46.5391 Y-35.3369
G01 X46.6484 Y-35.3886
G01 X46.7623 Y-35.4293
G01 X46.8796 Y-35.4587
G01 X46.9992 Y-35.4765
G01 X47.1200 Y-35.4824
G01 X47.2408 Y-35.4765
G01 X47.3604 Y-35.4587
G01 X47.4777 Y-35.4293
G01 X47.5916 Y-35.3886
G01 X47.6930 Y-35.3409
G01 X47.7087 Y-35.3325
G01 X47.8047 Y-35.2747
G01 X47.8948 Y-35.2082
G01 X47.9086 Y-35.1968
G01 X47.9850 Y-35.1276
G01 X47.9976 Y-35.1150
G01 X48.0727 Y-35.0318
G01 X48.1447 Y-34.9347
G01 X48.2069 Y-34.8309
G01 X48.2550 Y-34.7298
G01 X48.2603 Y-34.7175
G01 X48.2993 Y-34.6077
G01 X48.3268 Y-34.4992
G01 X48.3303 Y-34.4816
G01 X48.3454 Y-34.3797
G01 X48.3471 Y-34.3619
G01 X48.3524 Y-34.2500
G01 X48.3524 Y-33.3500
G01 X48.3468 Y-33.2337
G01 X48.3454 Y-33.2203
G01 X48.3303 Y-33.1184
G01 X48.3268 Y-33.1008
G01 X48.2993 Y-32.9923
G01 X48.2586 Y-32.8784
G01 X48.2109 Y-32.7770
G01 X48.2025 Y-32.7613
G01 X48.1447 Y-32.6653
G01 X48.0727 Y-32.5682
G01 X47.9914 Y-32.4786
G01 X47.9086 Y-32.4032
G01 X47.8948 Y-32.3918
G01 X47.8120 Y-32.3305
G01 X47.7971 Y-32.3205
G01 X47.7009 Y-32.2631
G01 X47.6223 Y-32.2257
G01 X47.6044 Y-32.1963
G01 X47.5732 Y-32.1539
G01 X47.5645 Y-32.1436
G01 X47.5351 Y-32.1112
G01 X46.9626 Y-31.5387
G01 X46.9626 Y-29.7179
G01 X47.0369 Y-29.6731
G01 X47.1301 Y-29.6040
G01 X47.2161 Y-29.5261
G01 X47.2911 Y-29.4435
G01 X47.2995 Y-29.4330
G01 X47.3580 Y-29.3542
G01 X47.3679 Y-29.3393
G01 X47.4228 Y-29.2474
G01 X47.4688 Y-29.1507
G01 X47.4741 Y-29.1383
G01 X47.5115 Y-29.0332
G01 X47.5377 Y-28.9294
G01 X47.5412 Y-28.9119
G01 X47.5567 Y-28.8059
G01 X47.5624 Y-28.6900
G01 X47.5623 Y-28.1855
G01 X47.5567 Y-28.0741
G01 X47.5412 Y-27.9681
G01 X47.5377 Y-27.9506
G01 X47.5115 Y-27.8468
G01 X47.4756 Y-27.7459
G01 X47.4688 Y-27.7293
G01 X47.4228 Y-27.6326
G01 X47.3631 Y-27.5331
G01 X47.2995 Y-27.4470
G01 X47.2882 Y-27.4331
G01 X47.2161 Y-27.3539
G01 X47.1301 Y-27.2760
G01 X47.0369 Y-27.2069
G01 X46.9452 Y-27.1516
G01 X46.9294 Y-27.1432
G01 X46.8407 Y-27.1012
G01 X46.8283 Y-27.0959
G01 X46.7232 Y-27.0585
G01 X46.6107 Y-27.0303
G01 X46.4959 Y-27.0133
G01 X46.3800 Y-27.0076
G01 X46.2641 Y-27.0133
G01 X46.1493 Y-27.0303
G01 X46.0368 Y-27.0585
G01 X45.9275 Y-27.0976
G01 X45.8226 Y-27.1472
G01 X45.7231 Y-27.2069
G01 X45.6299 Y-27.2760
G01 X45.5439 Y-27.3539
G01 X45.4660 Y-27.4399
G01 X45.3969 Y-27.5331
G01 X45.3372 Y-27.6326
G01 X45.2912 Y-27.7293
G01 X45.2859 Y-27.7417
G01 X45.2485 Y-27.8468
G01 X45.2203 Y-27.9593
G01 X45.2033 Y-28.0741
G01 X45.1977 Y-28.1855
G01 X45.1976 Y-28.6900
G01 X45.2026 Y-28.7970
G01 X45.2044 Y-28.8148
G01 X45.2203 Y-28.9207
G01 X45.2461 Y-29.0246
G01 X45.2513 Y-29.0417
G01 X45.2876 Y-29.1425
G01 X45.3372 Y-29.2474
G01 X45.3969 Y-29.3469
G01 X45.4632 Y-29.4366
G01 X45.4718 Y-29.4469
G01 X45.5439 Y-29.5261
G01 X45.6265 Y-29.6011
G01 X45.6370 Y-29.6095
G01 X45.7231 Y-29.6731
G01 X45.7974 Y-29.7179
G00 Z0.7000
G00 X45.8486 Y-29.6886
G01 F30.00
G01 Z-0.0610
G01 F110.00
G01 X45.8486 Y-31.7800
G01 X45.8512 Y-31.8321
G01 X45.8582 Y-31.8805
G01 X45.8602 Y-31.8900
G01 X45.8715 Y-31.9343
G01 X45.8867 Y-31.9773
G01 X45.8917 Y-31.9892
G01 X45.9113 Y-32.0305
G01 X45.9347 Y-32.0698
G01 X45.9419 Y-32.0805
G01 X45.9672 Y-32.1146
G01 X45.9734 Y-32.1220
G01 X46.0042 Y-32.1558
G01 X46.3258 Y-32.4773
G01 X46.2894 Y-32.5103
G01 X46.2825 Y-32.5171
G01 X46.2111 Y-32.5958
G01 X46.2049 Y-32.6032
G01 X46.1379 Y-32.6938
G01 X46.0798 Y-32.7904
G01 X46.0754 Y-32.7989
G01 X46.0287 Y-32.8980
G01 X45.9917 Y-33.0010
G01 X45.9879 Y-33.0133
G01 X45.9629 Y-33.1133
G01 X45.9604 Y-33.1259
G01 X45.9445 Y-33.2342
G01 X45.9388 Y-33.3468
G01 X45.9388 Y-34.2532
G01 X45.9440 Y-34.3594
G01 X45.9453 Y-34.3722
G01 X45.9615 Y-34.4804
G01 X45.9888 Y-34.5898
G01 X45.9917 Y-34.5990
G01 X46.0287 Y-34.7020
G01 X46.0783 Y-34.8068
G01 X46.1379 Y-34.9062
G01 X46.2069 Y-34.9993
G01 X46.2848 Y-35.0852
G01 X46.3707 Y-35.1631
G01 X46.4638 Y-35.2321
G01 X46.5632 Y-35.2917
G01 X46.6680 Y-35.3413
G01 X46.7771 Y-35.3803
G01 X46.8896 Y-35.4085
G01 X47.0042 Y-35.4255
G01 X47.1200 Y-35.4312
G01 X47.2358 Y-35.4255
G01 X47.3504 Y-35.4085
G01 X47.4598 Y-35.3812
G01 X47.4690 Y-35.3783
G01 X47.5720 Y-35.3413
G01 X47.6768 Y-35.2917
G01 X47.7762 Y-35.2321
G01 X47.8643 Y-35.1670
G01 X47.8742 Y-35.1589
G01 X47.9552 Y-35.0852
G01 X48.0289 Y-35.0042
G01 X48.0370 Y-34.9943
G01 X48.0984 Y-34.9115
G01 X48.1056 Y-34.9008
G01 X48.1617 Y-34.8068
G01 X48.2087 Y-34.7079
G01 X48.2125 Y-34.6990
G01 X48.2503 Y-34.5929
G01 X48.2771 Y-34.4867
G01 X48.2796 Y-34.4741
G01 X48.2947 Y-34.3722
G01 X48.2960 Y-34.3594
G01 X48.3012 Y-34.2500
G01 X48.3012 Y-33.3500
G01 X48.2955 Y-33.2342
G01 X48.2785 Y-33.1196
G01 X48.2521 Y-33.0133
G01 X48.2483 Y-33.0010
G01 X48.2113 Y-32.8980
G01 X48.1646 Y-32.7989
G01 X48.1586 Y-32.7876
G01 X48.1021 Y-32.6938
G01 X48.0331 Y-32.6007
G01 X47.9552 Y-32.5148
G01 X47.8742 Y-32.4411
G01 X47.8643 Y-32.4330
G01 X47.7815 Y-32.3716
G01 X47.7708 Y-32.3644
G01 X47.6768 Y-32.3083
G01 X47.5863 Y-32.2653
G01 X47.5618 Y-32.2248
G01 X47.5347 Y-32.1880
G01 X47.5266 Y-32.1780
G01 X47.4980 Y-32.1465
G01 X46.9114 Y-31.5599
G01 X46.9114 Y-29.6886
G01 X46.9188 Y-29.6845
G01 X47.0085 Y-29.6306
G01 X47.0976 Y-29.5644
G01 X47.1799 Y-29.4899
G01 X47.2502 Y-29.4125
G01 X47.2584 Y-29.4025
G01 X47.3169 Y-29.3237
G01 X47.3240 Y-29.3130
G01 X47.3776 Y-29.2232
G01 X47.4225 Y-29.1288
G01 X47.4263 Y-29.1199
G01 X47.4625 Y-29.0184
G01 X47.4881 Y-28.9170
G01 X47.4906 Y-28.9043
G01 X47.5058 Y-28.8009
G01 X47.5112 Y-28.6900
G01 X47.5110 Y-28.1836
G01 X47.5058 Y-28.0791
G01 X47.4906 Y-27.9757
G01 X47.4881 Y-27.9630
G01 X47.4642 Y-27.8678
G01 X47.4605 Y-27.8555
G01 X47.4251 Y-27.7571
G01 X47.3776 Y-27.6568
G01 X47.3206 Y-27.5615
G01 X47.2584 Y-27.4775
G01 X47.2502 Y-27.4675
G01 X47.1843 Y-27.3948
G01 X47.1752 Y-27.3857
G01 X47.0976 Y-27.3156
G01 X47.0085 Y-27.2494
G01 X46.9188 Y-27.1955
G01 X46.9075 Y-27.1895
G01 X46.8129 Y-27.1449
G01 X46.7114 Y-27.1085
G01 X46.7022 Y-27.1058
G01 X46.6007 Y-27.0805
G01 X46.4909 Y-27.0642
G01 X46.3800 Y-27.0588
G01 X46.2691 Y-27.0642
G01 X46.1593 Y-27.0805
G01 X46.0516 Y-27.1075
G01 X45.9471 Y-27.1449
G01 X45.8468 Y-27.1924
G01 X45.7515 Y-27.2494
G01 X45.6624 Y-27.3156
G01 X45.5801 Y-27.3901
G01 X45.5056 Y-27.4724
G01 X45.4394 Y-27.5615
G01 X45.3824 Y-27.6568
G01 X45.3349 Y-27.7571
G01 X45.2985 Y-27.8586
G01 X45.2958 Y-27.8678
G01 X45.2719 Y-27.9630
G01 X45.2694 Y-27.9757
G01 X45.2542 Y-28.0791
G01 X45.2488 Y-28.1900
G01 X45.2488 Y-28.6900
G01 X45.2538 Y-28.7945
G01 X45.2550 Y-28.8073
G01 X45.2705 Y-28.9107
G01 X45.2975 Y-29.0184
G01 X45.3349 Y-29.1229
G01 X45.3824 Y-29.2232
G01 X45.4394 Y-29.3185
G01 X45.5056 Y-29.4076
G01 X45.5801 Y-29.4899
G01 X45.6624 Y-29.5644
G01 X45.7515 Y-29.6306
G01 X45.8412 Y-29.6845
G01 X45.8486 Y-29.6886
G00 Z0.7000
G00 X45.1100 Y-29.1027
G01 F30.00
G01 Z-0.0610
G01 F110.00
G01 X45.1398 Y-29.1859
G01 X45.1457 Y-29.2013
G01 X45.1524 Y-29.2163
G01 X45.1943 Y-29.3051
G01 X45.2018 Y-29.3198
G01 X45.2099 Y-29.3341
G01 X45.2603 Y-29.4183
G01 X45.2692 Y-29.4322
G01 X45.2787 Y-29.4457
G01 X45.3371 Y-29.5245
G01 X45.3473 Y-29.5375
G01 X45.3580 Y-29.5500
G01 X45.4295 Y-29.6288
G01 X45.4472 Y-29.6461
G01 X45.5200 Y-29.7120
G01 X45.5325 Y-29.7227
G01 X45.5455 Y-29.7329
G01 X45.6243 Y-29.7913
G01 X45.6438 Y-29.8048
G01 X45.6438 Y-31.7800
G01 X45.6442 Y-31.7965
G01 X45.6466 Y-31.8439
G01 X45.6494 Y-31.8685
G01 X45.6551 Y-31.9074
G01 X45.6579 Y-31.9236
G01 X45.6616 Y-31.9397
G01 X45.6711 Y-31.9778
G01 X45.6780 Y-32.0016
G01 X45.6939 Y-32.0463
G01 X45.7031 Y-32.0693
G01 X45.7269 Y-32.1197
G01 X45.7389 Y-32.1414
G01 X45.7634 Y-32.1821
G01 X45.7774 Y-32.2025
G01 X45.8058 Y-32.2406
G01 X45.8162 Y-32.2534
G01 X45.8481 Y-32.2886
G01 X45.8594 Y-32.3006
G01 X46.0402 Y-32.4814
G01 X45.9771 Y-32.5665
G01 X45.9676 Y-32.5800
G01 X45.9588 Y-32.5939
G01 X45.9058 Y-32.6823
G01 X45.8977 Y-32.6966
G01 X45.8902 Y-32.7114
G01 X45.8500 Y-32.7965
G01 X45.8098 Y-32.7114
G01 X45.8023 Y-32.6966
G01 X45.7942 Y-32.6823
G01 X45.7412 Y-32.5939
G01 X45.7324 Y-32.5800
G01 X45.7229 Y-32.5665
G01 X45.6615 Y-32.4837
G01 X45.6514 Y-32.4707
G01 X45.6406 Y-32.4582
G01 X45.5714 Y-32.3819
G01 X45.5600 Y-32.3700
G01 X45.5481 Y-32.3586
G01 X45.4718 Y-32.2894
G01 X45.4593 Y-32.2786
G01 X45.4463 Y-32.2685
G01 X45.3635 Y-32.2071
G01 X45.3500 Y-32.1976
G01 X45.3361 Y-32.1888
G01 X45.2477 Y-32.1358
G01 X45.2334 Y-32.1277
G01 X45.2186 Y-32.1202
G01 X45.1255 Y-32.0762
G01 X45.1104 Y-32.0695
G01 X45.0950 Y-32.0636
G01 X44.9980 Y-32.0289
G01 X44.9823 Y-32.0237
G01 X44.9664 Y-32.0193
G01 X44.8665 Y-31.9942
G01 X44.8504 Y-31.9906
G01 X44.8281 Y-31.9869
G01 X44.5762 Y-31.7351
G01 X44.5762 Y-29.8048
G01 X44.5957 Y-29.7913
G01 X44.6745 Y-29.7329
G01 X44.6875 Y-29.7227
G01 X44.7000 Y-29.7120
G01 X44.7728 Y-29.6461
G01 X44.7905 Y-29.6288
G01 X44.8620 Y-29.5500
G01 X44.8727 Y-29.5375
G01 X44.8829 Y-29.5245
G01 X44.9413 Y-29.4457
G01 X44.9508 Y-29.4322
G01 X44.9597 Y-29.4183
G01 X45.0101 Y-29.3341
G01 X45.0182 Y-29.3198
G01 X45.0257 Y-29.3051
G01 X45.0676 Y-29.2163
G01 X45.0743 Y-29.2013
G01 X45.0802 Y-29.1859
G01 X45.1100 Y-29.1027
G00 Z0.7000
G00 X45.1100 Y-28.8763
G01 F30.00
G01 Z-0.0610
G01 F110.00
G01 X45.1175 Y-28.9269
G01 X45.1213 Y-28.9475
G01 X45.1486 Y-29.0562
G01 X45.1549 Y-29.0762
G01 X45.1904 Y-29.1752
G01 X45.1987 Y-29.1945
G01 X45.2406 Y-29.2832
G01 X45.2469 Y-29.2957
G01 X45.2538 Y-29.3078
G01 X45.3079 Y-29.3979
G01 X45.3198 Y-29.4152
G01 X45.3782 Y-29.4940
G01 X45.3868 Y-29.5051
G01 X45.3960 Y-29.5157
G01 X45.4619 Y-29.5884
G01 X45.4715 Y-29.5985
G01 X45.4816 Y-29.6081
G01 X45.5543 Y-29.6740
G01 X45.5704 Y-29.6875
G01 X45.6604 Y-29.7543
G01 X45.6721 Y-29.7621
G01 X45.6950 Y-29.7759
G01 X45.6950 Y-31.7800
G01 X45.6953 Y-31.7940
G01 X45.6973 Y-31.8332
G01 X45.6983 Y-31.8471
G01 X45.7000 Y-31.8610
G01 X45.7058 Y-31.8999
G01 X45.7096 Y-31.9205
G01 X45.7208 Y-31.9654
G01 X45.7245 Y-31.9788
G01 X45.7289 Y-31.9921
G01 X45.7421 Y-32.0291
G01 X45.7471 Y-32.0421
G01 X45.7528 Y-32.0549
G01 X45.7696 Y-32.0904
G01 X45.7759 Y-32.1029
G01 X45.7828 Y-32.1151
G01 X45.8030 Y-32.1488
G01 X45.8144 Y-32.1663
G01 X45.8419 Y-32.2035
G01 X45.8505 Y-32.2146
G01 X45.8596 Y-32.2251
G01 X45.8908 Y-32.2594
G01 X46.1100 Y-32.4787
G01 X46.0927 Y-32.4979
G01 X46.0838 Y-32.5087
G01 X46.0141 Y-32.6027
G01 X46.0027 Y-32.6202
G01 X45.9462 Y-32.7147
G01 X45.9365 Y-32.7333
G01 X45.8925 Y-32.8264
G01 X45.8868 Y-32.8392
G01 X45.8818 Y-32.8522
G01 X45.8500 Y-32.9410
G01 X45.8182 Y-32.8522
G01 X45.8132 Y-32.8392
G01 X45.8075 Y-32.8264
G01 X45.7635 Y-32.7333
G01 X45.7572 Y-32.7208
G01 X45.7503 Y-32.7086
G01 X45.6973 Y-32.6202
G01 X45.6898 Y-32.6084
G01 X45.6818 Y-32.5970
G01 X45.6204 Y-32.5142
G01 X45.6118 Y-32.5032
G01 X45.6027 Y-32.4926
G01 X45.5335 Y-32.4163
G01 X45.5238 Y-32.4062
G01 X45.5137 Y-32.3965
G01 X45.4374 Y-32.3273
G01 X45.4268 Y-32.3182
G01 X45.4158 Y-32.3096
G01 X45.3330 Y-32.2482
G01 X45.3216 Y-32.2402
G01 X45.3098 Y-32.2327
G01 X45.2214 Y-32.1797
G01 X45.2092 Y-32.1728
G01 X45.1967 Y-32.1665
G01 X45.1036 Y-32.1225
G01 X45.0908 Y-32.1168
G01 X45.0778 Y-32.1118
G01 X44.9807 Y-32.0771
G01 X44.9675 Y-32.0727
G01 X44.9540 Y-32.0689
G01 X44.8472 Y-32.0423
G01 X44.8335 Y-32.0396
G01 X44.8038 Y-32.0351
G01 X44.5250 Y-31.7563
G01 X44.5250 Y-29.7759
G01 X44.5479 Y-29.7621
G01 X44.5596 Y-29.7543
G01 X44.6496 Y-29.6875
G01 X44.6657 Y-29.6740
G01 X44.7384 Y-29.6081
G01 X44.7485 Y-29.5985
G01 X44.7581 Y-29.5884
G01 X44.8240 Y-29.5157
G01 X44.8332 Y-29.5051
G01 X44.8418 Y-29.4940
G01 X44.9002 Y-29.4152
G01 X44.9121 Y-29.3979
G01 X44.9662 Y-29.3078
G01 X44.9731 Y-29.2957
G01 X44.9794 Y-29.2832
G01 X45.0213 Y-29.1945
G01 X45.0296 Y-29.1752
G01 X45.0651 Y-29.0762
G01 X45.0714 Y-29.0562
G01 X45.0987 Y-28.9475
G01 X45.1025 Y-28.9269
G01 X45.1100 Y-28.8763
G00 Z0.7000
G00 X45.0410 Y-27.7364
G01 F30.00
G01 Z-0.0610
G01 F110.00
G01 X45.0627 Y-27.7396
G01 X45.0766 Y-27.7410
G01 X45.1100 Y-27.7423
G01 X45.1434 Y-27.7410
G01 X45.1573 Y-27.7396
G01 X45.1790 Y-27.7364
G01 X45.1526 Y-27.8104
G01 X45.1468 Y-27.8305
G01 X45.1213 Y-27.9325
G01 X45.1175 Y-27.9531
G01 X45.1100 Y-28.0037
G01 X45.1025 Y-27.9531
G01 X45.0987 Y-27.9325
G01 X45.0732 Y-27.8305
G01 X45.0674 Y-27.8104
G01 X45.0410 Y-27.7364
G00 Z0.7000
G00 X44.9495 Y-27.6533
G01 F30.00
G01 Z-0.0610
G01 F110.00
G01 X44.9720 Y-27.6637
G01 X44.9944 Y-27.6720
G01 X45.0108 Y-27.6772
G01 X45.0340 Y-27.6830
G01 X45.0509 Y-27.6862
G01 X45.0746 Y-27.6894
G01 X45.0985 Y-27.6909
G01 X45.1100 Y-27.6911
G01 X45.1215 Y-27.6909
G01 X45.1454 Y-27.6894
G01 X45.1691 Y-27.6862
G01 X45.1860 Y-27.6830
G01 X45.2092 Y-27.6772
G01 X45.2256 Y-27.6720
G01 X45.2480 Y-27.6637
G01 X45.2705 Y-27.6533
G01 X45.2449 Y-27.7074
G01 X45.2382 Y-27.7232
G01 X45.2031 Y-27.8210
G01 X45.1979 Y-27.8374
G01 X45.1726 Y-27.9381
G01 X45.1701 Y-27.9493
G01 X45.1681 Y-27.9606
G01 X45.1537 Y-28.0577
G01 X45.1518 Y-28.0748
G01 X45.1467 Y-28.1785
G01 X45.1464 Y-28.1900
G01 X45.1465 Y-28.6957
G01 X45.1515 Y-28.7995
G01 X45.1523 Y-28.8109
G01 X45.1537 Y-28.8223
G01 X45.1681 Y-28.9194
G01 X45.1713 Y-28.9363
G01 X45.1965 Y-29.0370
G01 X45.1995 Y-29.0481
G01 X45.2031 Y-29.0590
G01 X45.2362 Y-29.1514
G01 X45.2403 Y-29.1621
G01 X45.2449 Y-29.1726
G01 X45.2869 Y-29.2613
G01 X45.2921 Y-29.2715
G01 X45.2977 Y-29.2815
G01 X45.3482 Y-29.3657
G01 X45.3575 Y-29.3801
G01 X45.4194 Y-29.4635
G01 X45.4264 Y-29.4726
G01 X45.4339 Y-29.4813
G01 X45.4998 Y-29.5540
G01 X45.5118 Y-29.5663
G01 X45.5887 Y-29.6361
G01 X45.6019 Y-29.6472
G01 X45.6899 Y-29.7125
G01 X45.7043 Y-29.7218
G01 X45.7462 Y-29.7469
G01 X45.7462 Y-31.7800
G01 X45.7465 Y-31.7915
G01 X45.7493 Y-31.8421
G01 X45.7564 Y-31.8924
G01 X45.7584 Y-31.9036
G01 X45.7609 Y-31.9148
G01 X45.7735 Y-31.9640
G01 X45.7771 Y-31.9749
G01 X45.7944 Y-32.0225
G01 X45.8159 Y-32.0685
G01 X45.8210 Y-32.0788
G01 X45.8469 Y-32.1224
G01 X45.8530 Y-32.1321
G01 X45.8596 Y-32.1415
G01 X45.8901 Y-32.1821
G01 X45.9278 Y-32.2241
G01 X46.1806 Y-32.4770
G01 X46.1278 Y-32.5357
G01 X46.1207 Y-32.5447
G01 X46.0560 Y-32.6321
G01 X46.0466 Y-32.6466
G01 X45.9936 Y-32.7349
G01 X45.9880 Y-32.7449
G01 X45.9828 Y-32.7552
G01 X45.9388 Y-32.8483
G01 X45.9341 Y-32.8588
G01 X45.9300 Y-32.8695
G01 X45.8934 Y-32.9719
G01 X45.8886 Y-32.9884
G01 X45.8623 Y-33.0940
G01 X45.8591 Y-33.1109
G01 X45.8500 Y-33.1723
G01 X45.8409 Y-33.1109
G01 X45.8377 Y-33.0940
G01 X45.8114 Y-32.9884
G01 X45.8066 Y-32.9719
G01 X45.7700 Y-32.8695
G01 X45.7659 Y-32.8588
G01 X45.7612 Y-32.8483
G01 X45.7147 Y-32.7500
G01 X45.7064 Y-32.7349
G01 X45.6534 Y-32.6466
G01 X45.6473 Y-32.6369
G01 X45.6407 Y-32.6275
G01 X45.5793 Y-32.5447
G01 X45.5722 Y-32.5357
G01 X45.5647 Y-32.5270
G01 X45.4955 Y-32.4507
G01 X45.4876 Y-32.4424
G01 X45.4793 Y-32.4345
G01 X45.4030 Y-32.3653
G01 X45.3943 Y-32.3578
G01 X45.3853 Y-32.3507
G01 X45.3025 Y-32.2893
G01 X45.2931 Y-32.2827
G01 X45.2834 Y-32.2766
G01 X45.1951 Y-32.2236
G01 X45.1800 Y-32.2153
G01 X45.0817 Y-32.1688
G01 X45.0712 Y-32.1641
G01 X45.0605 Y-32.1600
G01 X44.9581 Y-32.1234
G01 X44.9416 Y-32.1186
G01 X44.8360 Y-32.0923
G01 X44.8191 Y-32.0891
G01 X44.7796 Y-32.0832
G01 X44.4738 Y-31.7775
G01 X44.4738 Y-29.7469
G01 X44.5157 Y-29.7218
G01 X44.5301 Y-29.7125
G01 X44.6181 Y-29.6472
G01 X44.6313 Y-29.6361
G01 X44.7082 Y-29.5663
G01 X44.7202 Y-29.5540
G01 X44.7861 Y-29.4813
G01 X44.7936 Y-29.4726
G01 X44.8006 Y-29.4635
G01 X44.8591 Y-29.3847
G01 X44.8688 Y-29.3705
G01 X44.9223 Y-29.2815
G01 X44.9279 Y-29.2715
G01 X44.9331 Y-29.2613
G01 X44.9751 Y-29.1726
G01 X44.9797 Y-29.1621
G01 X44.9838 Y-29.1514
G01 X45.0169 Y-29.0590
G01 X45.0205 Y-29.0481
G01 X45.0235 Y-29.0370
G01 X45.0474 Y-28.9419
G01 X45.0499 Y-28.9307
G01 X45.0519 Y-28.9194
G01 X45.0670 Y-28.8166
G01 X45.0685 Y-28.7995
G01 X45.0733 Y-28.7015
G01 X45.0736 Y-28.6900
G01 X45.0736 Y-28.1900
G01 X45.0733 Y-28.1785
G01 X45.0685 Y-28.0805
G01 X45.0677 Y-28.0691
G01 X45.0663 Y-28.0577
G01 X45.0519 Y-27.9606
G01 X45.0499 Y-27.9493
G01 X45.0474 Y-27.9381
G01 X45.0221 Y-27.8374
G01 X45.0169 Y-27.8210
G01 X44.9818 Y-27.7232
G01 X44.9751 Y-27.7074
G01 X44.9495 Y-27.6533
G00 Z0.7000
G00 X45.9510 Y-27.0346
G01 F30.00
G01 Z-0.0610
G01 F110.00
G01 X45.9590 Y-27.0199
G01 X45.9693 Y-26.9983
G01 X45.9737 Y-26.9877
G01 X45.9817 Y-26.9651
G01 X45.9851 Y-26.9542
G01 X45.9909 Y-26.9310
G01 X45.9931 Y-26.9197
G01 X45.9966 Y-26.8960
G01 X45.9981 Y-26.8789
G01 X45.9990 Y-26.8550
G01 X45.9987 Y-26.8435
G01 X45.9973 Y-26.8196
G01 X45.9940 Y-26.7959
G01 X45.9921 Y-26.7846
G01 X45.9865 Y-26.7613
G01 X45.9828 Y-26.7483
G01 X45.9962 Y-26.7562
G01 X46.0063 Y-26.7616
G01 X46.0522 Y-26.7833
G01 X46.0682 Y-26.7897
G01 X46.1051 Y-26.8029
G01 X46.1215 Y-26.8081
G01 X46.1707 Y-26.8204
G01 X46.1876 Y-26.8236
G01 X46.2379 Y-26.8307
G01 X46.2885 Y-26.8335
G01 X46.3000 Y-26.8338
G01 X47.7375 Y-26.8338
G01 X48.1389 Y-27.2352
G01 X48.1287 Y-27.2439
G01 X48.0560 Y-27.3098
G01 X48.0477 Y-27.3177
G01 X48.0398 Y-27.3260
G01 X47.9739 Y-27.3987
G01 X47.9664 Y-27.4074
G01 X47.9594 Y-27.4165
G01 X47.9009 Y-27.4953
G01 X47.8943 Y-27.5046
G01 X47.8882 Y-27.5143
G01 X47.8377 Y-27.5985
G01 X47.8321 Y-27.6085
G01 X47.8269 Y-27.6187
G01 X47.7849 Y-27.7074
G01 X47.7803 Y-27.7179
G01 X47.7762 Y-27.7286
G01 X47.7431 Y-27.8210
G01 X47.7395 Y-27.8319
G01 X47.7365 Y-27.8430
G01 X47.7126 Y-27.9381
G01 X47.7091 Y-27.9550
G01 X47.6937 Y-28.0577
G01 X47.6923 Y-28.0691
G01 X47.6915 Y-28.0805
G01 X47.6865 Y-28.1843
G01 X47.6864 Y-28.6900
G01 X47.6867 Y-28.7015
G01 X47.6918 Y-28.8052
G01 X47.6937 Y-28.8223
G01 X47.7081 Y-28.9194
G01 X47.7101 Y-28.9307
G01 X47.7126 Y-28.9419
G01 X47.7379 Y-29.0426
G01 X47.7431 Y-29.0590
G01 X47.7782 Y-29.1568
G01 X47.7849 Y-29.1726
G01 X47.8105 Y-29.2267
G01 X47.7880 Y-29.2163
G01 X47.7656 Y-29.2080
G01 X47.7492 Y-29.2028
G01 X47.7260 Y-29.1970
G01 X47.7091 Y-29.1938
G01 X47.6854 Y-29.1906
G01 X47.6615 Y-29.1891
G01 X47.6500 Y-29.1889
G01 X47.6385 Y-29.1891
G01 X47.6146 Y-29.1906
G01 X47.5909 Y-29.1938
G01 X47.5740 Y-29.1970
G01 X47.5508 Y-29.2028
G01 X47.5344 Y-29.2080
G01 X47.5120 Y-29.2163
G01 X47.4895 Y-29.2267
G01 X47.5151 Y-29.1726
G01 X47.5218 Y-29.1568
G01 X47.5569 Y-29.0590
G01 X47.5621 Y-29.0426
G01 X47.5874 Y-28.9419
G01 X47.5899 Y-28.9307
G01 X47.5919 Y-28.9194
G01 X47.6063 Y-28.8223
G01 X47.6077 Y-28.8109
G01 X47.6085 Y-28.7995
G01 X47.6133 Y-28.7015
G01 X47.6136 Y-28.6900
G01 X47.6136 Y-28.1900
G01 X47.6133 Y-28.1785
G01 X47.6085 Y-28.0805
G01 X47.6077 Y-28.0691
G01 X47.6063 Y-28.0577
G01 X47.5919 Y-27.9606
G01 X47.5899 Y-27.9493
G01 X47.5874 Y-27.9381
G01 X47.5635 Y-27.8430
G01 X47.5605 Y-27.8319
G01 X47.5569 Y-27.8210
G01 X47.5238 Y-27.7286
G01 X47.5197 Y-27.7179
G01 X47.5151 Y-27.7074
G01 X47.4731 Y-27.6187
G01 X47.4679 Y-27.6085
G01 X47.4623 Y-27.5985
G01 X47.4118 Y-27.5143
G01 X47.4057 Y-27.5046
G01 X47.3991 Y-27.4953
G01 X47.3406 Y-27.4165
G01 X47.3299 Y-27.4030
G01 X47.2602 Y-27.3260
G01 X47.2523 Y-27.3177
G01 X47.2440 Y-27.3098
G01 X47.1713 Y-27.2439
G01 X47.1626 Y-27.2364
G01 X47.1535 Y-27.2294
G01 X47.0747 Y-27.1709
G01 X47.0654 Y-27.1643
G01 X47.0557 Y-27.1582
G01 X46.9715 Y-27.1077
G01 X46.9615 Y-27.1021
G01 X46.9513 Y-27.0969
G01 X46.8626 Y-27.0549
G01 X46.8521 Y-27.0503
G01 X46.8414 Y-27.0462
G01 X46.7490 Y-27.0131
G01 X46.7326 Y-27.0079
G01 X46.6319 Y-26.9826
G01 X46.6207 Y-26.9801
G01 X46.6094 Y-26.9781
G01 X46.5123 Y-26.9637
G01 X46.5009 Y-26.9623
G01 X46.4895 Y-26.9615
G01 X46.3915 Y-26.9567
G01 X46.3743 Y-26.9565
G01 X46.2705 Y-26.9615
G01 X46.2591 Y-26.9623
G01 X46.2477 Y-26.9637
G01 X46.1450 Y-26.9791
G01 X46.1281 Y-26.9826
G01 X46.0274 Y-27.0079
G01 X46.0110 Y-27.0131
G01 X45.9510 Y-27.0346
G00 Z0.7000
G00 X46.0384 Y-26.9523
G01 F30.00
G01 Z-0.0610
G01 F110.00
G01 X46.0436 Y-26.9285
G01 X46.0482 Y-26.8954
G01 X46.0501 Y-26.8620
G01 X46.0497 Y-26.8374
G01 X46.0879 Y-26.8511
G01 X46.1012 Y-26.8555
G01 X46.1146 Y-26.8592
G01 X46.1527 Y-26.8688
G01 X46.1664 Y-26.8718
G01 X46.1801 Y-26.8742
G01 X46.2190 Y-26.8800
G01 X46.2329 Y-26.8817
G01 X46.2468 Y-26.8827
G01 X46.2930 Y-26.8849
G01 X47.7163 Y-26.8850
G01 X48.0644 Y-27.2331
G01 X48.0216 Y-27.2719
G01 X48.0066 Y-27.2865
G01 X47.9360 Y-27.3643
G01 X47.9225 Y-27.3804
G01 X47.8598 Y-27.4648
G01 X47.8517 Y-27.4762
G01 X47.8442 Y-27.4880
G01 X47.7938 Y-27.5722
G01 X47.7869 Y-27.5843
G01 X47.7806 Y-27.5968
G01 X47.7387 Y-27.6855
G01 X47.7330 Y-27.6983
G01 X47.7280 Y-27.7114
G01 X47.6926 Y-27.8104
G01 X47.6868 Y-27.8305
G01 X47.6613 Y-27.9325
G01 X47.6575 Y-27.9531
G01 X47.6500 Y-28.0037
G01 X47.6425 Y-27.9531
G01 X47.6387 Y-27.9325
G01 X47.6114 Y-27.8238
G01 X47.6051 Y-27.8038
G01 X47.5696 Y-27.7048
G01 X47.5613 Y-27.6855
G01 X47.5194 Y-27.5968
G01 X47.5131 Y-27.5843
G01 X47.5062 Y-27.5722
G01 X47.4521 Y-27.4821
G01 X47.4402 Y-27.4648
G01 X47.3818 Y-27.3860
G01 X47.3732 Y-27.3749
G01 X47.3640 Y-27.3643
G01 X47.2981 Y-27.2916
G01 X47.2885 Y-27.2815
G01 X47.2784 Y-27.2719
G01 X47.2057 Y-27.2060
G01 X47.1951 Y-27.1968
G01 X47.1840 Y-27.1882
G01 X47.1052 Y-27.1298
G01 X47.0938 Y-27.1217
G01 X47.0820 Y-27.1142
G01 X46.9978 Y-27.0638
G01 X46.9857 Y-27.0569
G01 X46.9732 Y-27.0506
G01 X46.8845 Y-27.0087
G01 X46.8717 Y-27.0030
G01 X46.8586 Y-26.9980
G01 X46.7662 Y-26.9649
G01 X46.7530 Y-26.9605
G01 X46.7395 Y-26.9568
G01 X46.6443 Y-26.9329
G01 X46.6307 Y-26.9299
G01 X46.6169 Y-26.9275
G01 X46.5198 Y-26.9131
G01 X46.5059 Y-26.9114
G01 X46.4920 Y-26.9104
G01 X46.3940 Y-26.9055
G01 X46.3800 Y-26.9052
G01 X46.3660 Y-26.9055
G01 X46.2680 Y-26.9104
G01 X46.2541 Y-26.9114
G01 X46.2402 Y-26.9131
G01 X46.1431 Y-26.9275
G01 X46.1293 Y-26.9299
G01 X46.1157 Y-26.9329
G01 X46.0384 Y-26.9523
G00 Z0.7000
G00 X46.8380 Y-26.9362
G01 F30.00
G01 Z-0.0610
G01 F110.00
G01 X47.6951 Y-26.9362
G01 X47.9902 Y-27.2313
G01 X47.9753 Y-27.2453
G01 X47.9639 Y-27.2572
G01 X47.8980 Y-27.3300
G01 X47.8873 Y-27.3425
G01 X47.8771 Y-27.3555
G01 X47.8187 Y-27.4343
G01 X47.8047 Y-27.4547
G01 X47.7499 Y-27.5459
G01 X47.7418 Y-27.5602
G01 X47.7343 Y-27.5749
G01 X47.6924 Y-27.6637
G01 X47.6857 Y-27.6787
G01 X47.6798 Y-27.6941
G01 X47.6500 Y-27.7773
G01 X47.6202 Y-27.6941
G01 X47.6143 Y-27.6787
G01 X47.6076 Y-27.6637
G01 X47.5657 Y-27.5749
G01 X47.5543 Y-27.5530
G01 X47.4997 Y-27.4617
G01 X47.4908 Y-27.4478
G01 X47.4813 Y-27.4343
G01 X47.4229 Y-27.3555
G01 X47.4127 Y-27.3425
G01 X47.4020 Y-27.3300
G01 X47.3305 Y-27.2512
G01 X47.3128 Y-27.2339
G01 X47.2400 Y-27.1680
G01 X47.2275 Y-27.1573
G01 X47.2145 Y-27.1471
G01 X47.1357 Y-27.0887
G01 X47.1153 Y-27.0747
G01 X47.0241 Y-27.0199
G01 X47.0025 Y-27.0080
G01 X46.8988 Y-26.9589
G01 X46.8836 Y-26.9526
G01 X46.8380 Y-26.9362
G00 Z0.7000
G00 X46.4999 Y-28.4400
G01 F30.00
G01 Z-0.0610
G01 F110.00
G01 X46.4993 Y-28.4518
G01 X46.4976 Y-28.4634
G01 X46.4947 Y-28.4748
G01 X46.4908 Y-28.4859
G01 X46.4857 Y-28.4965
G01 X46.4797 Y-28.5066
G01 X46.4727 Y-28.5161
G01 X46.4648 Y-28.5248
G01 X46.4561 Y-28.5327
G01 X46.4466 Y-28.5397
G01 X46.4365 Y-28.5457
G01 X46.4259 Y-28.5508
G01 X46.4148 Y-28.5547
G01 X46.4034 Y-28.5576
G01 X46.3918 Y-28.5593
G01 X46.3800 Y-28.5599
G01 X46.3682 Y-28.5593
G01 X46.3566 Y-28.5576
G01 X46.3452 Y-28.5547
G01 X46.3341 Y-28.5508
G01 X46.3235 Y-28.5457
G01 X46.3134 Y-28.5397
G01 X46.3039 Y-28.5327
G01 X46.2952 Y-28.5248
G01 X46.2873 Y-28.5161
G01 X46.2803 Y-28.5066
G01 X46.2743 Y-28.4965
G01 X46.2692 Y-28.4859
G01 X46.2653 Y-28.4748
G01 X46.2624 Y-28.4634
G01 X46.2607 Y-28.4518
G01 X46.2601 Y-28.4400
G01 X46.2607 Y-28.4282
G01 X46.2624 Y-28.4166
G01 X46.2653 Y-28.4052
G01 X46.2692 Y-28.3941
G01 X46.2743 Y-28.3835
G01 X46.2803 Y-28.3734
G01 X46.2873 Y-28.3639
G01 X46.2952 Y-28.3552
G01 X46.3039 Y-28.3473
G01 X46.3134 Y-28.3403
G01 X46.3235 Y-28.3343
G01 X46.3341 Y-28.3292
G01 X46.3452 Y-28.3253
G01 X46.3566 Y-28.3224
G01 X46.3682 Y-28.3207
G01 X46.3800 Y-28.3201
G01 X46.3918 Y-28.3207
G01 X46.4034 Y-28.3224
G01 X46.4148 Y-28.3253
G01 X46.4259 Y-28.3292
G01 X46.4365 Y-28.3343
G01 X46.4466 Y-28.3403
G01 X46.4561 Y-28.3473
G01 X46.4648 Y-28.3552
G01 X46.4727 Y-28.3639
G01 X46.4797 Y-28.3734
G01 X46.4857 Y-28.3835
G01 X46.4908 Y-28.3941
G01 X46.4947 Y-28.4052
G01 X46.4976 Y-28.4166
G01 X46.4993 Y-28.4282
G01 X46.4999 Y-28.4400
G00 Z0.7000
G00 X46.4486 Y-28.4400
G01 F30.00
G01 Z-0.0610
G01 F110.00
G01 X46.4483 Y-28.4467
G01 X46.4473 Y-28.4534
G01 X46.4457 Y-28.4599
G01 X46.4434 Y-28.4663
G01 X46.4405 Y-28.4724
G01 X46.4371 Y-28.4781
G01 X46.4331 Y-28.4835
G01 X46.4285 Y-28.4885
G01 X46.4235 Y-28.4931
G01 X46.4181 Y-28.4971
G01 X46.4124 Y-28.5005
G01 X46.4063 Y-28.5034
G01 X46.3999 Y-28.5057
G01 X46.3934 Y-28.5073
G01 X46.3867 Y-28.5083
G01 X46.3800 Y-28.5086
G01 X46.3733 Y-28.5083
G01 X46.3666 Y-28.5073
G01 X46.3601 Y-28.5057
G01 X46.3537 Y-28.5034
G01 X46.3476 Y-28.5005
G01 X46.3419 Y-28.4971
G01 X46.3365 Y-28.4931
G01 X46.3315 Y-28.4885
G01 X46.3269 Y-28.4835
G01 X46.3229 Y-28.4781
G01 X46.3195 Y-28.4724
G01 X46.3166 Y-28.4663
G01 X46.3143 Y-28.4599
G01 X46.3127 Y-28.4534
G01 X46.3117 Y-28.4467
G01 X46.3114 Y-28.4400
G01 X46.3117 Y-28.4333
G01 X46.3127 Y-28.4266
G01 X46.3143 Y-28.4201
G01 X46.3166 Y-28.4137
G01 X46.3195 Y-28.4076
G01 X46.3229 Y-28.4019
G01 X46.3269 Y-28.3965
G01 X46.3315 Y-28.3915
G01 X46.3365 Y-28.3869
G01 X46.3419 Y-28.3829
G01 X46.3476 Y-28.3795
G01 X46.3537 Y-28.3766
G01 X46.3601 Y-28.3743
G01 X46.3666 Y-28.3727
G01 X46.3733 Y-28.3717
G01 X46.3800 Y-28.3714
G01 X46.3867 Y-28.3717
G01 X46.3934 Y-28.3727
G01 X46.3999 Y-28.3743
G01 X46.4063 Y-28.3766
G01 X46.4124 Y-28.3795
G01 X46.4181 Y-28.3829
G01 X46.4235 Y-28.3869
G01 X46.4285 Y-28.3915
G01 X46.4331 Y-28.3965
G01 X46.4371 Y-28.4019
G01 X46.4405 Y-28.4076
G01 X46.4434 Y-28.4137
G01 X46.4457 Y-28.4201
G01 X46.4473 Y-28.4266
G01 X46.4483 Y-28.4333
G01 X46.4486 Y-28.4400
G00 Z0.7000
G00 X46.3974 Y-28.4400
G01 F30.00
G01 Z-0.0610
G01 F110.00
G01 X46.3970 Y-28.4434
G01 X46.3961 Y-28.4467
G01 X46.3945 Y-28.4497
G01 X46.3923 Y-28.4523
G01 X46.3897 Y-28.4545
G01 X46.3867 Y-28.4561
G01 X46.3834 Y-28.4570
G01 X46.3800 Y-28.4574
G01 X46.3766 Y-28.4570
G01 X46.3733 Y-28.4561
G01 X46.3703 Y-28.4545
G01 X46.3677 Y-28.4523
G01 X46.3655 Y-28.4497
G01 X46.3639 Y-28.4467
G01 X46.3630 Y-28.4434
G01 X46.3626 Y-28.4400
G01 X46.3630 Y-28.4366
G01 X46.3639 Y-28.4333
G01 X46.3655 Y-28.4303
G01 X46.3677 Y-28.4277
G01 X46.3703 Y-28.4255
G01 X46.3733 Y-28.4239
G01 X46.3766 Y-28.4230
G01 X46.3800 Y-28.4226
G01 X46.3834 Y-28.4230
G01 X46.3867 Y-28.4239
G01 X46.3897 Y-28.4255
