(G-CODE GENERATED BY FLATCAM v8.994 - www.flatcam.org - Version Date: 2020/11/7)

(Name: pid_smt_oven.drl_cnc)
(Type: G-code from Geometry)
(Units: MM)

(Created on Sunday, 24 October 2021 at 20:36)

(This preprocessor is the default preprocessor used by FlatCAM.)
(It is made to work with MACH3 compatible motion controllers.)


(TOOLS DIAMETER: )
(Tool: 1 -> Dia: 0.8)
(Tool: 2 -> Dia: 1.6)
(Tool: 3 -> Dia: 2.0)

(FEEDRATE Z: )
(Tool: 1 -> Feedrate: 18.0)
(Tool: 2 -> Feedrate: 18.0)
(Tool: 3 -> Feedrate: 18.0)

(FEEDRATE RAPIDS: )
(Tool: 1 -> Feedrate Rapids: 1500)
(Tool: 2 -> Feedrate Rapids: 1500)
(Tool: 3 -> Feedrate Rapids: 1500)

(Z_CUT: )
(Tool: 1 -> Z_Cut: -1.85)
(Tool: 2 -> Z_Cut: -1.85)
(Tool: 3 -> Z_Cut: -1.85)

(Tools Offset: )
(Tool: 1 -> Offset Z: 0.0)
(Tool: 2 -> Offset Z: 0.0)
(Tool: 3 -> Offset Z: 0.0)

(Z_MOVE: )
(Tool: 1 -> Z_Move: 0.8)
(Tool: 2 -> Z_Move: 0.8)
(Tool: 3 -> Z_Move: 0.8)

(Z Toolchange: 2.0 mm)
(X,Y Toolchange: 0.0000, 0.0000 mm)
(Z Start: None mm)
(Z End: 22.0 mm)
(X,Y End: None mm)
(Steps per circle: 64)
(Preprocessor Excellon: default)

(X range:    2.3000 ...   67.3000  mm)
(Y range:  -42.9000 ...   -2.0000  mm)

(Spindle Speed: 7000 RPM)
G21
G90
G94

$1=255		
G01 F18.00

M5
G00 Z2.0000
T1
G00 X0.0000 Y0.0000                
M6
(MSG, Change to Tool Dia = 0.8000 ||| Total drills for tool T1 = 66)
M0
G00 Z2.0000

G01 F18.00
M03 S7000
G00 X3.6000 Y-35.6000
G01 Z-1.8500
G01 Z0
G00 Z0.8000
G00 X3.3000 Y-41.7000
G01 Z-1.8500
G01 Z0
G00 Z0.8000
G00 X11.7000 Y-42.5000
G01 Z-1.8500
G01 Z0
G00 Z0.8000
G00 X28.3000 Y-42.5000
G01 Z-1.8500
G01 Z0
G00 Z0.8000
G00 X31.9000 Y-39.7000
G01 Z-1.8500
G01 Z0
G00 Z0.8000
G00 X34.4400 Y-39.7000
G01 Z-1.8500
G01 Z0
G00 Z0.8000
G00 X28.3000 Y-31.9000
G01 Z-1.8500
G01 Z0
G00 Z0.8000
G00 X28.6000 Y-28.4400
G01 Z-1.8500
G01 Z0
G00 Z0.8000
G00 X31.1400 Y-28.4400
G01 Z-1.8500
G01 Z0
G00 Z0.8000
G00 X33.6800 Y-28.4400
G01 Z-1.8500
G01 Z0
G00 Z0.8000
G00 X36.2200 Y-28.4400
G01 Z-1.8500
G01 Z0
G00 Z0.8000
G00 X38.7600 Y-28.4400
G01 Z-1.8500
G01 Z0
G00 Z0.8000
G00 X40.6500 Y-24.1500
G01 Z-1.8500
G01 Z0
G00 Z0.8000
G00 X41.3000 Y-28.4400
G01 Z-1.8500
G01 Z0
G00 Z0.8000
G00 X43.8400 Y-28.4400
G01 Z-1.8500
G01 Z0
G00 Z0.8000
G00 X46.3800 Y-28.4400
G01 Z-1.8500
G01 Z0
G00 Z0.8000
G00 X48.9200 Y-28.4400
G01 Z-1.8500
G01 Z0
G00 Z0.8000
G00 X44.5800 Y-33.8000
G01 Z-1.8500
G01 Z0
G00 Z0.8000
G00 X47.1200 Y-33.8000
G01 Z-1.8500
G01 Z0
G00 Z0.8000
G00 X49.6600 Y-33.8000
G01 Z-1.8500
G01 Z0
G00 Z0.8000
G00 X52.2000 Y-33.8000
G01 Z-1.8500
G01 Z0
G00 Z0.8000
G00 X66.3000 Y-41.7000
G01 Z-1.8500
G01 Z0
G00 Z0.8000
G00 X64.1600 Y-28.4400
G01 Z-1.8500
G01 Z0
G00 Z0.8000
G00 X61.6200 Y-28.4400
G01 Z-1.8500
G01 Z0
G00 Z0.8000
G00 X59.0800 Y-28.4400
G01 Z-1.8500
G01 Z0
G00 Z0.8000
G00 X56.5400 Y-28.4400
G01 Z-1.8500
G01 Z0
G00 Z0.8000
G00 X54.0000 Y-28.4400
G01 Z-1.8500
G01 Z0
G00 Z0.8000
G00 X51.4600 Y-28.4400
G01 Z-1.8500
G01 Z0
G00 Z0.8000
G00 X55.8900 Y-24.1500
G01 Z-1.8500
G01 Z0
G00 Z0.8000
G00 X52.8000 Y-21.6000
G01 Z-1.8500
G01 Z0
G00 Z0.8000
G00 X54.0000 Y-13.2000
G01 Z-1.8500
G01 Z0
G00 Z0.8000
G00 X56.5400 Y-13.2000
G01 Z-1.8500
G01 Z0
G00 Z0.8000
G00 X59.0800 Y-13.2000
G01 Z-1.8500
G01 Z0
G00 Z0.8000
G00 X61.6200 Y-13.2000
G01 Z-1.8500
G01 Z0
G00 Z0.8000
G00 X64.1600 Y-13.2000
G01 Z-1.8500
G01 Z0
G00 Z0.8000
G00 X66.3000 Y-3.1000
G01 Z-1.8500
G01 Z0
G00 Z0.8000
G00 X60.6000 Y-6.1000
G01 Z-1.8500
G01 Z0
G00 Z0.8000
G00 X58.0600 Y-6.1000
G01 Z-1.8500
G01 Z0
G00 Z0.8000
G00 X55.5200 Y-6.1000
G01 Z-1.8500
G01 Z0
G00 Z0.8000
G00 X52.9800 Y-6.1000
G01 Z-1.8500
G01 Z0
G00 Z0.8000
G00 X51.4600 Y-13.2000
G01 Z-1.8500
G01 Z0
G00 Z0.8000
G00 X48.9200 Y-13.2000
G01 Z-1.8500
G01 Z0
G00 Z0.8000
G00 X46.3800 Y-13.2000
G01 Z-1.8500
G01 Z0
G00 Z0.8000
G00 X43.8400 Y-13.2000
G01 Z-1.8500
G01 Z0
G00 Z0.8000
G00 X41.3000 Y-13.2000
G01 Z-1.8500
G01 Z0
G00 Z0.8000
G00 X38.7600 Y-13.2000
G01 Z-1.8500
G01 Z0
G00 Z0.8000
G00 X43.5000 Y-6.0000
G01 Z-1.8500
G01 Z0
G00 Z0.8000
G00 X39.3000 Y-6.0000
G01 Z-1.8500
G01 Z0
G00 Z0.8000
G00 X34.4000 Y-6.7000
G01 Z-1.8500
G01 Z0
G00 Z0.8000
G00 X36.2200 Y-13.2000
G01 Z-1.8500
G01 Z0
G00 Z0.8000
G00 X33.6800 Y-13.2000
G01 Z-1.8500
G01 Z0
G00 Z0.8000
G00 X31.1400 Y-13.2000
G01 Z-1.8500
G01 Z0
G00 Z0.8000
G00 X28.6000 Y-13.2000
G01 Z-1.8500
G01 Z0
G00 Z0.8000
G00 X17.8000 Y-6.6000
G01 Z-1.8500
G01 Z0
G00 Z0.8000
G00 X15.3400 Y-8.1000
G01 Z-1.8500
G01 Z0
G00 Z0.8000
G00 X12.8000 Y-8.1000
G01 Z-1.8500
G01 Z0
G00 Z0.8000
G00 X3.3000 Y-3.0000
G01 Z-1.8500
G01 Z0
G00 Z0.8000
G00 X17.7400 Y-14.7000
G01 Z-1.8500
G01 Z0
G00 Z0.8000
G00 X21.7000 Y-14.7000
G01 Z-1.8500
G01 Z0
G00 Z0.8000
G00 X21.6000 Y-21.8000
G01 Z-1.8500
G01 Z0
G00 Z0.8000
G00 X16.9500 Y-26.3000
G01 Z-1.8500
G01 Z0
G00 Z0.8000
G00 X13.1500 Y-26.3000
G01 Z-1.8500
G01 Z0
G00 Z0.8000
G00 X7.7600 Y-26.8000
G01 Z-1.8500
G01 Z0
G00 Z0.8000
G00 X3.8000 Y-26.8000
G01 Z-1.8500
G01 Z0
G00 Z0.8000
G00 X11.7000 Y-31.9000
G01 Z-1.8500
G01 Z0
G00 Z0.8000
G00 X7.4000 Y-35.6000
G01 Z-1.8500
G01 Z0
G00 Z0.8000
M05
G00 Z22.00


$1=254
